porrasp8/RTDE_PYTHON_CLIENT_LIB_EXPANDED/examples/robot_data.csv
timestamp target_q_0 target_q_1 target_q_2 target_q_3 target_q_4 target_q_5 target_qd_0 target_qd_1 target_qd_2 target_qd_3 target_qd_4 target_qd_5 target_qdd_0 target_qdd_1 target_qdd_2 target_qdd_3 target_qdd_4 target_qdd_5 target_current_0 target_current_1 target_current_2 target_current_3 target_current_4 target_current_5 target_moment_0 target_moment_1 target_moment_2 target_moment_3 target_moment_4 target_moment_5 actual_q_0 actual_q_1 actual_q_2 actual_q_3 actual_q_4 actual_q_5 actual_qd_0 actual_qd_1 actual_qd_2 actual_qd_3 actual_qd_4 actual_qd_5 actual_current_0 actual_current_1 actual_current_2 actual_current_3 actual_current_4 actual_current_5 joint_control_output_0 joint_control_output_1 joint_control_output_2 joint_control_output_3 joint_control_output_4 joint_control_output_5 actual_TCP_pose_0 actual_TCP_pose_1 actual_TCP_pose_2 actual_TCP_pose_3 actual_TCP_pose_4 actual_TCP_pose_5 actual_TCP_speed_0 actual_TCP_speed_1 actual_TCP_speed_2 actual_TCP_speed_3 actual_TCP_speed_4 actual_TCP_speed_5 actual_TCP_force_0 actual_TCP_force_1 actual_TCP_force_2 actual_TCP_force_3 actual_TCP_force_4 actual_TCP_force_5 target_TCP_pose_0 target_TCP_pose_1 target_TCP_pose_2 target_TCP_pose_3 target_TCP_pose_4 target_TCP_pose_5 target_TCP_speed_0 target_TCP_speed_1 target_TCP_speed_2 target_TCP_speed_3 target_TCP_speed_4 target_TCP_speed_5 actual_digital_input_bits joint_temperatures_0 joint_temperatures_1 joint_temperatures_2 joint_temperatures_3 joint_temperatures_4 joint_temperatures_5 actual_execution_time robot_mode joint_mode_0 joint_mode_1 joint_mode_2 joint_mode_3 joint_mode_4 joint_mode_5 safety_status actual_tool_accelerometer_0 actual_tool_accelerometer_1 actual_tool_accelerometer_2 speed_scaling target_speed_fraction actual_momentum actual_main_voltage actual_robot_voltage actual_robot_current actual_joint_voltage_0 actual_joint_voltage_1 actual_joint_voltage_2 actual_joint_voltage_3 actual_joint_voltage_4 actual_joint_voltage_5 actual_digital_output_bits runtime_state joint_position_deviation_ratio
4992.813999999999 -1.6006999999999998 -1.7271 -2.2029999999999994 -0.8079999999999998 1.5951 -0.030999999999999694 0.0 0.0 0.0 0.0 0.0 0.0 0.0 0.0 0.0 0.0 0.0 0.0 -1.8265934578025758e-17 2.141012561521421 1.4926747162211425 0.23313859823392621 0.0017549219604181278 0.0 -1.8139026517764549e-16 21.261372344464824 14.823039108277811 1.811941528544163 0.01363916573027167 0.0 -1.6006999999999998 -1.7271 -2.2029999999999994 -0.8079999999999998 1.5951 -0.030999999999999694 0.0 0.0 0.0 0.0 0.0 0.0 -1.8265934578025758e-17 2.141012561521421 1.4926747162211425 0.23313859823392621 0.0017549219604181278 0.0 -1.8265934578025758e-17 2.141012561521421 1.4926747162211425 0.23313859823392621 0.0017549219604181278 0.0 -0.14396865671352163 -0.43562006080319216 0.2020300254283846 -0.0012213596815925638 3.1162765284819756 0.038891915636886834 0.0 0.0 0.0 0.0 0.0 0.0 0.0 0.0 0.0 0.0 0.0 0.0 -0.14396865671352163 -0.43562006080319216 0.2020300254283846 -0.0012213596815925638 3.1162765284819756 0.038891915636886834 0.0 0.0 0.0 0.0 0.0 0.0 0 25.5 25.0 24.5 24.0 23.5 23.0 0.177573 3 239 239 239 239 239 239 1 -0.24626992031694836 0.24493893696896454 -9.813855309892418 0.0 1.0 0.0 48.0 48.0 0.0 0.0 0.0 0.0 0.0 0.0 0.0 0 1 0.0
4992.822 -1.6006999999999998 -1.7271 -2.2029999999999994 -0.8079999999999998 1.5951 -0.030999999999999694 0.0 0.0 0.0 0.0 0.0 0.0 0.0 0.0 0.0 0.0 0.0 0.0 -1.8265934578025758e-17 2.141012561521421 1.4926747162211425 0.23313859823392621 0.0017549219604181278 0.0 -1.8139026517764549e-16 21.261372344464824 14.823039108277811 1.811941528544163 0.01363916573027167 0.0 -1.6006999999999998 -1.7271 -2.2029999999999994 -0.8079999999999998 1.5951 -0.030999999999999694 0.0 0.0 0.0 0.0 0.0 0.0 -1.8265934578025758e-17 2.141012561521421 1.4926747162211425 0.23313859823392621 0.0017549219604181278 0.0 -1.8265934578025758e-17 2.141012561521421 1.4926747162211425 0.23313859823392621 0.0017549219604181278 0.0 -0.14396865671352163 -0.43562006080319216 0.2020300254283846 -0.0012213596815925638 3.1162765284819756 0.038891915636886834 0.0 0.0 0.0 0.0 0.0 0.0 0.0 0.0 0.0 0.0 0.0 0.0 -0.14396865671352163 -0.43562006080319216 0.2020300254283846 -0.0012213596815925638 3.1162765284819756 0.038891915636886834 0.0 0.0 0.0 0.0 0.0 0.0 0 25.5 25.0 24.5 24.0 23.5 23.0 0.17857699999999999 3 239 239 239 239 239 239 1 -0.24626992031694836 0.24493893696896454 -9.813855309892418 0.0 1.0 0.0 48.0 48.0 0.0 0.0 0.0 0.0 0.0 0.0 0.0 0 1 0.0
4992.83 -1.6006999999999998 -1.7271 -2.2029999999999994 -0.8079999999999998 1.5951 -0.030999999999999694 0.0 0.0 0.0 0.0 0.0 0.0 0.0 0.0 0.0 0.0 0.0 0.0 -1.8265934578025758e-17 2.141012561521421 1.4926747162211425 0.23313859823392621 0.0017549219604181278 0.0 -1.8139026517764549e-16 21.261372344464824 14.823039108277811 1.811941528544163 0.01363916573027167 0.0 -1.6006999999999998 -1.7271 -2.2029999999999994 -0.8079999999999998 1.5951 -0.030999999999999694 0.0 0.0 0.0 0.0 0.0 0.0 -1.8265934578025758e-17 2.141012561521421 1.4926747162211425 0.23313859823392621 0.0017549219604181278 0.0 -1.8265934578025758e-17 2.141012561521421 1.4926747162211425 0.23313859823392621 0.0017549219604181278 0.0 -0.14396865671352163 -0.43562006080319216 0.2020300254283846 -0.0012213596815925638 3.1162765284819756 0.038891915636886834 0.0 0.0 0.0 0.0 0.0 0.0 0.0 0.0 0.0 0.0 0.0 0.0 -0.14396865671352163 -0.43562006080319216 0.2020300254283846 -0.0012213596815925638 3.1162765284819756 0.038891915636886834 0.0 0.0 0.0 0.0 0.0 0.0 0 25.5 25.0 24.5 24.0 23.5 23.0 0.183195 3 239 239 239 239 239 239 1 -0.24626992031694836 0.24493893696896454 -9.813855309892418 0.0 1.0 0.0 48.0 48.0 0.0 0.0 0.0 0.0 0.0 0.0 0.0 0 1 0.0
4992.838 -1.6006999999999998 -1.7271 -2.2029999999999994 -0.8079999999999998 1.5951 -0.030999999999999694 0.0 0.0 0.0 0.0 0.0 0.0 0.0 0.0 0.0 0.0 0.0 0.0 -1.8265934578025758e-17 2.141012561521421 1.4926747162211425 0.23313859823392621 0.0017549219604181278 0.0 -1.8139026517764549e-16 21.261372344464824 14.823039108277811 1.811941528544163 0.01363916573027167 0.0 -1.6006999999999998 -1.7271 -2.2029999999999994 -0.8079999999999998 1.5951 -0.030999999999999694 0.0 0.0 0.0 0.0 0.0 0.0 -1.8265934578025758e-17 2.141012561521421 1.4926747162211425 0.23313859823392621 0.0017549219604181278 0.0 -1.8265934578025758e-17 2.141012561521421 1.4926747162211425 0.23313859823392621 0.0017549219604181278 0.0 -0.14396865671352163 -0.43562006080319216 0.2020300254283846 -0.0012213596815925638 3.1162765284819756 0.038891915636886834 0.0 0.0 0.0 0.0 0.0 0.0 0.0 0.0 0.0 0.0 0.0 0.0 -0.14396865671352163 -0.43562006080319216 0.2020300254283846 -0.0012213596815925638 3.1162765284819756 0.038891915636886834 0.0 0.0 0.0 0.0 0.0 0.0 0 25.5 25.0 24.5 24.0 23.5 23.0 0.181342 3 239 239 239 239 239 239 1 -0.24626992031694836 0.24493893696896454 -9.813855309892418 0.0 1.0 0.0 48.0 48.0 0.0 0.0 0.0 0.0 0.0 0.0 0.0 0 1 0.0
4992.846 -1.6006999999999998 -1.7271 -2.2029999999999994 -0.8079999999999998 1.5951 -0.030999999999999694 0.0 0.0 0.0 0.0 0.0 0.0 0.0 0.0 0.0 0.0 0.0 0.0 -1.8265934578025758e-17 2.141012561521421 1.4926747162211425 0.23313859823392621 0.0017549219604181278 0.0 -1.8139026517764549e-16 21.261372344464824 14.823039108277811 1.811941528544163 0.01363916573027167 0.0 -1.6006999999999998 -1.7271 -2.2029999999999994 -0.8079999999999998 1.5951 -0.030999999999999694 0.0 0.0 0.0 0.0 0.0 0.0 -1.8265934578025758e-17 2.141012561521421 1.4926747162211425 0.23313859823392621 0.0017549219604181278 0.0 -1.8265934578025758e-17 2.141012561521421 1.4926747162211425 0.23313859823392621 0.0017549219604181278 0.0 -0.14396865671352163 -0.43562006080319216 0.2020300254283846 -0.0012213596815925638 3.1162765284819756 0.038891915636886834 0.0 0.0 0.0 0.0 0.0 0.0 0.0 0.0 0.0 0.0 0.0 0.0 -0.14396865671352163 -0.43562006080319216 0.2020300254283846 -0.0012213596815925638 3.1162765284819756 0.038891915636886834 0.0 0.0 0.0 0.0 0.0 0.0 0 25.5 25.0 24.5 24.0 23.5 23.0 0.17719900000000002 3 239 239 239 239 239 239 1 -0.24626992031694836 0.24493893696896454 -9.813855309892418 0.0 1.0 0.0 48.0 48.0 0.0 0.0 0.0 0.0 0.0 0.0 0.0 0 1 0.0
4992.853999999999 -1.6006999999999998 -1.7271 -2.2029999999999994 -0.8079999999999998 1.5951 -0.030999999999999694 0.0 0.0 0.0 0.0 0.0 0.0 0.0 0.0 0.0 0.0 0.0 0.0 -1.8265934578025758e-17 2.141012561521421 1.4926747162211425 0.23313859823392621 0.0017549219604181278 0.0 -1.8139026517764549e-16 21.261372344464824 14.823039108277811 1.811941528544163 0.01363916573027167 0.0 -1.6006999999999998 -1.7271 -2.2029999999999994 -0.8079999999999998 1.5951 -0.030999999999999694 0.0 0.0 0.0 0.0 0.0 0.0 -1.8265934578025758e-17 2.141012561521421 1.4926747162211425 0.23313859823392621 0.0017549219604181278 0.0 -1.8265934578025758e-17 2.141012561521421 1.4926747162211425 0.23313859823392621 0.0017549219604181278 0.0 -0.14396865671352163 -0.43562006080319216 0.2020300254283846 -0.0012213596815925638 3.1162765284819756 0.038891915636886834 0.0 0.0 0.0 0.0 0.0 0.0 0.0 0.0 0.0 0.0 0.0 0.0 -0.14396865671352163 -0.43562006080319216 0.2020300254283846 -0.0012213596815925638 3.1162765284819756 0.038891915636886834 0.0 0.0 0.0 0.0 0.0 0.0 0 25.5 25.0 24.5 24.0 23.5 23.0 0.17715799999999998 3 239 239 239 239 239 239 1 -0.24626992031694836 0.24493893696896454 -9.813855309892418 0.0 1.0 0.0 48.0 48.0 0.0 0.0 0.0 0.0 0.0 0.0 0.0 0 1 0.0
4992.862 -1.6006999999999998 -1.7271 -2.2029999999999994 -0.8079999999999998 1.5951 -0.030999999999999694 0.0 0.0 0.0 0.0 0.0 0.0 0.0 0.0 0.0 0.0 0.0 0.0 -1.8265934578025758e-17 2.141012561521421 1.4926747162211425 0.23313859823392621 0.0017549219604181278 0.0 -1.8139026517764549e-16 21.261372344464824 14.823039108277811 1.811941528544163 0.01363916573027167 0.0 -1.6006999999999998 -1.7271 -2.2029999999999994 -0.8079999999999998 1.5951 -0.030999999999999694 0.0 0.0 0.0 0.0 0.0 0.0 -1.8265934578025758e-17 2.141012561521421 1.4926747162211425 0.23313859823392621 0.0017549219604181278 0.0 -1.8265934578025758e-17 2.141012561521421 1.4926747162211425 0.23313859823392621 0.0017549219604181278 0.0 -0.14396865671352163 -0.43562006080319216 0.2020300254283846 -0.0012213596815925638 3.1162765284819756 0.038891915636886834 0.0 0.0 0.0 0.0 0.0 0.0 0.0 0.0 0.0 0.0 0.0 0.0 -0.14396865671352163 -0.43562006080319216 0.2020300254283846 -0.0012213596815925638 3.1162765284819756 0.038891915636886834 0.0 0.0 0.0 0.0 0.0 0.0 0 25.5 25.0 24.5 24.0 23.5 23.0 0.20943799999999999 3 239 239 239 239 239 239 1 -0.24626992031694836 0.24493893696896454 -9.813855309892418 0.0 1.0 0.0 48.0 48.0 0.0 0.0 0.0 0.0 0.0 0.0 0.0 0 1 0.0
4992.87 -1.6006999999999998 -1.7271 -2.2029999999999994 -0.8079999999999998 1.5951 -0.030999999999999694 0.0 0.0 0.0 0.0 0.0 0.0 0.0 0.0 0.0 0.0 0.0 0.0 -1.8265934578025758e-17 2.141012561521421 1.4926747162211425 0.23313859823392621 0.0017549219604181278 0.0 -1.8139026517764549e-16 21.261372344464824 14.823039108277811 1.811941528544163 0.01363916573027167 0.0 -1.6006999999999998 -1.7271 -2.2029999999999994 -0.8079999999999998 1.5951 -0.030999999999999694 0.0 0.0 0.0 0.0 0.0 0.0 -1.8265934578025758e-17 2.141012561521421 1.4926747162211425 0.23313859823392621 0.0017549219604181278 0.0 -1.8265934578025758e-17 2.141012561521421 1.4926747162211425 0.23313859823392621 0.0017549219604181278 0.0 -0.14396865671352163 -0.43562006080319216 0.2020300254283846 -0.0012213596815925638 3.1162765284819756 0.038891915636886834 0.0 0.0 0.0 0.0 0.0 0.0 0.0 0.0 0.0 0.0 0.0 0.0 -0.14396865671352163 -0.43562006080319216 0.2020300254283846 -0.0012213596815925638 3.1162765284819756 0.038891915636886834 0.0 0.0 0.0 0.0 0.0 0.0 0 25.5 25.0 24.5 24.0 23.5 23.0 0.176845 3 239 239 239 239 239 239 1 -0.24626992031694836 0.24493893696896454 -9.813855309892418 0.0 1.0 0.0 48.0 48.0 0.0 0.0 0.0 0.0 0.0 0.0 0.0 0 1 0.0
4992.878 -1.6006999999999998 -1.7271 -2.2029999999999994 -0.8079999999999998 1.5951 -0.030999999999999694 0.0 0.0 0.0 0.0 0.0 0.0 0.0 0.0 0.0 0.0 0.0 0.0 -1.8265934578025758e-17 2.141012561521421 1.4926747162211425 0.23313859823392621 0.0017549219604181278 0.0 -1.8139026517764549e-16 21.261372344464824 14.823039108277811 1.811941528544163 0.01363916573027167 0.0 -1.6006999999999998 -1.7271 -2.2029999999999994 -0.8079999999999998 1.5951 -0.030999999999999694 0.0 0.0 0.0 0.0 0.0 0.0 -1.8265934578025758e-17 2.141012561521421 1.4926747162211425 0.23313859823392621 0.0017549219604181278 0.0 -1.8265934578025758e-17 2.141012561521421 1.4926747162211425 0.23313859823392621 0.0017549219604181278 0.0 -0.14396865671352163 -0.43562006080319216 0.2020300254283846 -0.0012213596815925638 3.1162765284819756 0.038891915636886834 0.0 0.0 0.0 0.0 0.0 0.0 0.0 0.0 0.0 0.0 0.0 0.0 -0.14396865671352163 -0.43562006080319216 0.2020300254283846 -0.0012213596815925638 3.1162765284819756 0.038891915636886834 0.0 0.0 0.0 0.0 0.0 0.0 0 25.5 25.0 24.5 24.0 23.5 23.0 0.176376 3 239 239 239 239 239 239 1 -0.24626992031694836 0.24493893696896454 -9.813855309892418 0.0 1.0 0.0 48.0 48.0 0.0 0.0 0.0 0.0 0.0 0.0 0.0 0 1 0.0
4992.8859999999995 -1.6006999999999998 -1.7271 -2.2029999999999994 -0.8079999999999998 1.5951 -0.030999999999999694 0.0 0.0 0.0 0.0 0.0 0.0 0.0 0.0 0.0 0.0 0.0 0.0 -1.8265934578025758e-17 2.141012561521421 1.4926747162211425 0.23313859823392621 0.0017549219604181278 0.0 -1.8139026517764549e-16 21.261372344464824 14.823039108277811 1.811941528544163 0.01363916573027167 0.0 -1.6006999999999998 -1.7271 -2.2029999999999994 -0.8079999999999998 1.5951 -0.030999999999999694 0.0 0.0 0.0 0.0 0.0 0.0 -1.8265934578025758e-17 2.141012561521421 1.4926747162211425 0.23313859823392621 0.0017549219604181278 0.0 -1.8265934578025758e-17 2.141012561521421 1.4926747162211425 0.23313859823392621 0.0017549219604181278 0.0 -0.14396865671352163 -0.43562006080319216 0.2020300254283846 -0.0012213596815925638 3.1162765284819756 0.038891915636886834 0.0 0.0 0.0 0.0 0.0 0.0 0.0 0.0 0.0 0.0 0.0 0.0 -0.14396865671352163 -0.43562006080319216 0.2020300254283846 -0.0012213596815925638 3.1162765284819756 0.038891915636886834 0.0 0.0 0.0 0.0 0.0 0.0 0 25.5 25.0 24.5 24.0 23.5 23.0 0.1767 3 239 239 239 239 239 239 1 -0.24626992031694836 0.24493893696896454 -9.813855309892418 0.0 1.0 0.0 48.0 48.0 0.0 0.0 0.0 0.0 0.0 0.0 0.0 0 1 0.0
4992.893999999999 -1.6006999999999998 -1.7271 -2.2029999999999994 -0.8079999999999998 1.5951 -0.030999999999999694 0.0 0.0 0.0 0.0 0.0 0.0 0.0 0.0 0.0 0.0 0.0 0.0 -1.8265934578025758e-17 2.141012561521421 1.4926747162211425 0.23313859823392621 0.0017549219604181278 0.0 -1.8139026517764549e-16 21.261372344464824 14.823039108277811 1.811941528544163 0.01363916573027167 0.0 -1.6006999999999998 -1.7271 -2.2029999999999994 -0.8079999999999998 1.5951 -0.030999999999999694 0.0 0.0 0.0 0.0 0.0 0.0 -1.8265934578025758e-17 2.141012561521421 1.4926747162211425 0.23313859823392621 0.0017549219604181278 0.0 -1.8265934578025758e-17 2.141012561521421 1.4926747162211425 0.23313859823392621 0.0017549219604181278 0.0 -0.14396865671352163 -0.43562006080319216 0.2020300254283846 -0.0012213596815925638 3.1162765284819756 0.038891915636886834 0.0 0.0 0.0 0.0 0.0 0.0 0.0 0.0 0.0 0.0 0.0 0.0 -0.14396865671352163 -0.43562006080319216 0.2020300254283846 -0.0012213596815925638 3.1162765284819756 0.038891915636886834 0.0 0.0 0.0 0.0 0.0 0.0 0 25.5 25.0 24.5 24.0 23.5 23.0 0.176845 3 239 239 239 239 239 239 1 -0.24626992031694836 0.24493893696896454 -9.813855309892418 0.0 1.0 0.0 48.0 48.0 0.0 0.0 0.0 0.0 0.0 0.0 0.0 0 1 0.0
4992.902 -1.6006999999999998 -1.7271 -2.2029999999999994 -0.8079999999999998 1.5951 -0.030999999999999694 0.0 0.0 0.0 0.0 0.0 0.0 0.0 0.0 0.0 0.0 0.0 0.0 -1.8265934578025758e-17 2.141012561521421 1.4926747162211425 0.23313859823392621 0.0017549219604181278 0.0 -1.8139026517764549e-16 21.261372344464824 14.823039108277811 1.811941528544163 0.01363916573027167 0.0 -1.6006999999999998 -1.7271 -2.2029999999999994 -0.8079999999999998 1.5951 -0.030999999999999694 0.0 0.0 0.0 0.0 0.0 0.0 -1.8265934578025758e-17 2.141012561521421 1.4926747162211425 0.23313859823392621 0.0017549219604181278 0.0 -1.8265934578025758e-17 2.141012561521421 1.4926747162211425 0.23313859823392621 0.0017549219604181278 0.0 -0.14396865671352163 -0.43562006080319216 0.2020300254283846 -0.0012213596815925638 3.1162765284819756 0.038891915636886834 0.0 0.0 0.0 0.0 0.0 0.0 0.0 0.0 0.0 0.0 0.0 0.0 -0.14396865671352163 -0.43562006080319216 0.2020300254283846 -0.0012213596815925638 3.1162765284819756 0.038891915636886834 0.0 0.0 0.0 0.0 0.0 0.0 0 25.5 25.0 24.5 24.0 23.5 23.0 0.176269 3 239 239 239 239 239 239 1 -0.24626992031694836 0.24493893696896454 -9.813855309892418 0.0 1.0 0.0 48.0 48.0 0.0 0.0 0.0 0.0 0.0 0.0 0.0 0 1 0.0
4992.91 -1.6006999999999998 -1.7271 -2.2029999999999994 -0.8079999999999998 1.5951 -0.030999999999999694 0.0 0.0 0.0 0.0 0.0 0.0 0.0 0.0 0.0 0.0 0.0 0.0 -1.8265934578025758e-17 2.141012561521421 1.4926747162211425 0.23313859823392621 0.0017549219604181278 0.0 -1.8139026517764549e-16 21.261372344464824 14.823039108277811 1.811941528544163 0.01363916573027167 0.0 -1.6006999999999998 -1.7271 -2.2029999999999994 -0.8079999999999998 1.5951 -0.030999999999999694 0.0 0.0 0.0 0.0 0.0 0.0 -1.8265934578025758e-17 2.141012561521421 1.4926747162211425 0.23313859823392621 0.0017549219604181278 0.0 -1.8265934578025758e-17 2.141012561521421 1.4926747162211425 0.23313859823392621 0.0017549219604181278 0.0 -0.14396865671352163 -0.43562006080319216 0.2020300254283846 -0.0012213596815925638 3.1162765284819756 0.038891915636886834 0.0 0.0 0.0 0.0 0.0 0.0 0.0 0.0 0.0 0.0 0.0 0.0 -0.14396865671352163 -0.43562006080319216 0.2020300254283846 -0.0012213596815925638 3.1162765284819756 0.038891915636886834 0.0 0.0 0.0 0.0 0.0 0.0 0 25.5 25.0 24.5 24.0 23.5 23.0 0.17783000000000002 3 239 239 239 239 239 239 1 -0.24626992031694836 0.24493893696896454 -9.813855309892418 0.0 1.0 0.0 48.0 48.0 0.0 0.0 0.0 0.0 0.0 0.0 0.0 0 1 0.0
4992.918 -1.6006999999999998 -1.7271 -2.2029999999999994 -0.8079999999999998 1.5951 -0.030999999999999694 0.0 0.0 0.0 0.0 0.0 0.0 0.0 0.0 0.0 0.0 0.0 0.0 -1.8265934578025758e-17 2.141012561521421 1.4926747162211425 0.23313859823392621 0.0017549219604181278 0.0 -1.8139026517764549e-16 21.261372344464824 14.823039108277811 1.811941528544163 0.01363916573027167 0.0 -1.6006999999999998 -1.7271 -2.2029999999999994 -0.8079999999999998 1.5951 -0.030999999999999694 0.0 0.0 0.0 0.0 0.0 0.0 -1.8265934578025758e-17 2.141012561521421 1.4926747162211425 0.23313859823392621 0.0017549219604181278 0.0 -1.8265934578025758e-17 2.141012561521421 1.4926747162211425 0.23313859823392621 0.0017549219604181278 0.0 -0.14396865671352163 -0.43562006080319216 0.2020300254283846 -0.0012213596815925638 3.1162765284819756 0.038891915636886834 0.0 0.0 0.0 0.0 0.0 0.0 0.0 0.0 0.0 0.0 0.0 0.0 -0.14396865671352163 -0.43562006080319216 0.2020300254283846 -0.0012213596815925638 3.1162765284819756 0.038891915636886834 0.0 0.0 0.0 0.0 0.0 0.0 0 25.5 25.0 24.5 24.0 23.5 23.0 0.177031 3 239 239 239 239 239 239 1 -0.24626992031694836 0.24493893696896454 -9.813855309892418 0.0 1.0 0.0 48.0 48.0 0.0 0.0 0.0 0.0 0.0 0.0 0.0 0 1 0.0
4992.9259999999995 -1.6006999999999998 -1.7271 -2.2029999999999994 -0.8079999999999998 1.5951 -0.030999999999999694 0.0 0.0 0.0 0.0 0.0 0.0 0.0 0.0 0.0 0.0 0.0 0.0 -1.8265934578025758e-17 2.141012561521421 1.4926747162211425 0.23313859823392621 0.0017549219604181278 0.0 -1.8139026517764549e-16 21.261372344464824 14.823039108277811 1.811941528544163 0.01363916573027167 0.0 -1.6006999999999998 -1.7271 -2.2029999999999994 -0.8079999999999998 1.5951 -0.030999999999999694 0.0 0.0 0.0 0.0 0.0 0.0 -1.8265934578025758e-17 2.141012561521421 1.4926747162211425 0.23313859823392621 0.0017549219604181278 0.0 -1.8265934578025758e-17 2.141012561521421 1.4926747162211425 0.23313859823392621 0.0017549219604181278 0.0 -0.14396865671352163 -0.43562006080319216 0.2020300254283846 -0.0012213596815925638 3.1162765284819756 0.038891915636886834 0.0 0.0 0.0 0.0 0.0 0.0 0.0 0.0 0.0 0.0 0.0 0.0 -0.14396865671352163 -0.43562006080319216 0.2020300254283846 -0.0012213596815925638 3.1162765284819756 0.038891915636886834 0.0 0.0 0.0 0.0 0.0 0.0 0 25.5 25.0 24.5 24.0 23.5 23.0 0.17740799999999998 3 239 239 239 239 239 239 1 -0.24626992031694836 0.24493893696896454 -9.813855309892418 0.0 1.0 0.0 48.0 48.0 0.0 0.0 0.0 0.0 0.0 0.0 0.0 0 1 0.0
4992.934 -1.6006999999999998 -1.7271 -2.2029999999999994 -0.8079999999999998 1.5951 -0.030999999999999694 0.0 0.0 0.0 0.0 0.0 0.0 0.0 0.0 0.0 0.0 0.0 0.0 -1.8265934578025758e-17 2.141012561521421 1.4926747162211425 0.23313859823392621 0.0017549219604181278 0.0 -1.8139026517764549e-16 21.261372344464824 14.823039108277811 1.811941528544163 0.01363916573027167 0.0 -1.6006999999999998 -1.7271 -2.2029999999999994 -0.8079999999999998 1.5951 -0.030999999999999694 0.0 0.0 0.0 0.0 0.0 0.0 -1.8265934578025758e-17 2.141012561521421 1.4926747162211425 0.23313859823392621 0.0017549219604181278 0.0 -1.8265934578025758e-17 2.141012561521421 1.4926747162211425 0.23313859823392621 0.0017549219604181278 0.0 -0.14396865671352163 -0.43562006080319216 0.2020300254283846 -0.0012213596815925638 3.1162765284819756 0.038891915636886834 0.0 0.0 0.0 0.0 0.0 0.0 0.0 0.0 0.0 0.0 0.0 0.0 -0.14396865671352163 -0.43562006080319216 0.2020300254283846 -0.0012213596815925638 3.1162765284819756 0.038891915636886834 0.0 0.0 0.0 0.0 0.0 0.0 0 25.5 25.0 24.5 24.0 23.5 23.0 0.17752600000000002 3 239 239 239 239 239 239 1 -0.24626992031694836 0.24493893696896454 -9.813855309892418 0.0 1.0 0.0 48.0 48.0 0.0 0.0 0.0 0.0 0.0 0.0 0.0 0 1 0.0
4992.942 -1.6006999999999998 -1.7271 -2.2029999999999994 -0.8079999999999998 1.5951 -0.030999999999999694 0.0 0.0 0.0 0.0 0.0 0.0 0.0 0.0 0.0 0.0 0.0 0.0 -1.8265934578025758e-17 2.141012561521421 1.4926747162211425 0.23313859823392621 0.0017549219604181278 0.0 -1.8139026517764549e-16 21.261372344464824 14.823039108277811 1.811941528544163 0.01363916573027167 0.0 -1.6006999999999998 -1.7271 -2.2029999999999994 -0.8079999999999998 1.5951 -0.030999999999999694 0.0 0.0 0.0 0.0 0.0 0.0 -1.8265934578025758e-17 2.141012561521421 1.4926747162211425 0.23313859823392621 0.0017549219604181278 0.0 -1.8265934578025758e-17 2.141012561521421 1.4926747162211425 0.23313859823392621 0.0017549219604181278 0.0 -0.14396865671352163 -0.43562006080319216 0.2020300254283846 -0.0012213596815925638 3.1162765284819756 0.038891915636886834 0.0 0.0 0.0 0.0 0.0 0.0 0.0 0.0 0.0 0.0 0.0 0.0 -0.14396865671352163 -0.43562006080319216 0.2020300254283846 -0.0012213596815925638 3.1162765284819756 0.038891915636886834 0.0 0.0 0.0 0.0 0.0 0.0 0 25.5 25.0 24.5 24.0 23.5 23.0 0.17639500000000002 3 239 239 239 239 239 239 1 -0.24626992031694836 0.24493893696896454 -9.813855309892418 0.0 1.0 0.0 48.0 48.0 0.0 0.0 0.0 0.0 0.0 0.0 0.0 0 1 0.0
4992.95 -1.6006999999999998 -1.7271 -2.2029999999999994 -0.8079999999999998 1.5951 -0.030999999999999694 0.0 0.0 0.0 0.0 0.0 0.0 0.0 0.0 0.0 0.0 0.0 0.0 -1.8265934578025758e-17 2.141012561521421 1.4926747162211425 0.23313859823392621 0.0017549219604181278 0.0 -1.8139026517764549e-16 21.261372344464824 14.823039108277811 1.811941528544163 0.01363916573027167 0.0 -1.6006999999999998 -1.7271 -2.2029999999999994 -0.8079999999999998 1.5951 -0.030999999999999694 0.0 0.0 0.0 0.0 0.0 0.0 -1.8265934578025758e-17 2.141012561521421 1.4926747162211425 0.23313859823392621 0.0017549219604181278 0.0 -1.8265934578025758e-17 2.141012561521421 1.4926747162211425 0.23313859823392621 0.0017549219604181278 0.0 -0.14396865671352163 -0.43562006080319216 0.2020300254283846 -0.0012213596815925638 3.1162765284819756 0.038891915636886834 0.0 0.0 0.0 0.0 0.0 0.0 0.0 0.0 0.0 0.0 0.0 0.0 -0.14396865671352163 -0.43562006080319216 0.2020300254283846 -0.0012213596815925638 3.1162765284819756 0.038891915636886834 0.0 0.0 0.0 0.0 0.0 0.0 0 25.5 25.0 24.5 24.0 23.5 23.0 0.17700200000000002 3 239 239 239 239 239 239 1 -0.24626992031694836 0.24493893696896454 -9.813855309892418 0.0 1.0 0.0 48.0 48.0 0.0 0.0 0.0 0.0 0.0 0.0 0.0 0 1 0.0
4992.958 -1.6006999999999998 -1.7271 -2.2029999999999994 -0.8079999999999998 1.5951 -0.030999999999999694 0.0 0.0 0.0 0.0 0.0 0.0 0.0 0.0 0.0 0.0 0.0 0.0 -1.8265934578025758e-17 2.141012561521421 1.4926747162211425 0.23313859823392621 0.0017549219604181278 0.0 -1.8139026517764549e-16 21.261372344464824 14.823039108277811 1.811941528544163 0.01363916573027167 0.0 -1.6006999999999998 -1.7271 -2.2029999999999994 -0.8079999999999998 1.5951 -0.030999999999999694 0.0 0.0 0.0 0.0 0.0 0.0 -1.8265934578025758e-17 2.141012561521421 1.4926747162211425 0.23313859823392621 0.0017549219604181278 0.0 -1.8265934578025758e-17 2.141012561521421 1.4926747162211425 0.23313859823392621 0.0017549219604181278 0.0 -0.14396865671352163 -0.43562006080319216 0.2020300254283846 -0.0012213596815925638 3.1162765284819756 0.038891915636886834 0.0 0.0 0.0 0.0 0.0 0.0 0.0 0.0 0.0 0.0 0.0 0.0 -0.14396865671352163 -0.43562006080319216 0.2020300254283846 -0.0012213596815925638 3.1162765284819756 0.038891915636886834 0.0 0.0 0.0 0.0 0.0 0.0 0 25.5 25.0 24.5 24.0 23.5 23.0 0.176868 3 239 239 239 239 239 239 1 -0.24626992031694836 0.24493893696896454 -9.813855309892418 0.0 1.0 0.0 48.0 48.0 0.0 0.0 0.0 0.0 0.0 0.0 0.0 0 1 0.0
4992.965999999999 -1.6006999999999998 -1.7271 -2.2029999999999994 -0.8079999999999998 1.5951 -0.030999999999999694 0.0 0.0 0.0 0.0 0.0 0.0 0.0 0.0 0.0 0.0 0.0 0.0 -1.8265934578025758e-17 2.141012561521421 1.4926747162211425 0.23313859823392621 0.0017549219604181278 0.0 -1.8139026517764549e-16 21.261372344464824 14.823039108277811 1.811941528544163 0.01363916573027167 0.0 -1.6006999999999998 -1.7271 -2.2029999999999994 -0.8079999999999998 1.5951 -0.030999999999999694 0.0 0.0 0.0 0.0 0.0 0.0 -1.8265934578025758e-17 2.141012561521421 1.4926747162211425 0.23313859823392621 0.0017549219604181278 0.0 -1.8265934578025758e-17 2.141012561521421 1.4926747162211425 0.23313859823392621 0.0017549219604181278 0.0 -0.14396865671352163 -0.43562006080319216 0.2020300254283846 -0.0012213596815925638 3.1162765284819756 0.038891915636886834 0.0 0.0 0.0 0.0 0.0 0.0 0.0 0.0 0.0 0.0 0.0 0.0 -0.14396865671352163 -0.43562006080319216 0.2020300254283846 -0.0012213596815925638 3.1162765284819756 0.038891915636886834 0.0 0.0 0.0 0.0 0.0 0.0 0 25.5 25.0 24.5 24.0 23.5 23.0 0.176297 3 239 239 239 239 239 239 1 -0.24626992031694836 0.24493893696896454 -9.813855309892418 0.0 1.0 0.0 48.0 48.0 0.0 0.0 0.0 0.0 0.0 0.0 0.0 0 1 0.0
4992.974 -1.6006999999999998 -1.7271 -2.2029999999999994 -0.8079999999999998 1.5951 -0.030999999999999694 0.0 0.0 0.0 0.0 0.0 0.0 0.0 0.0 0.0 0.0 0.0 0.0 -1.8265934578025758e-17 2.141012561521421 1.4926747162211425 0.23313859823392621 0.0017549219604181278 0.0 -1.8139026517764549e-16 21.261372344464824 14.823039108277811 1.811941528544163 0.01363916573027167 0.0 -1.6006999999999998 -1.7271 -2.2029999999999994 -0.8079999999999998 1.5951 -0.030999999999999694 0.0 0.0 0.0 0.0 0.0 0.0 -1.8265934578025758e-17 2.141012561521421 1.4926747162211425 0.23313859823392621 0.0017549219604181278 0.0 -1.8265934578025758e-17 2.141012561521421 1.4926747162211425 0.23313859823392621 0.0017549219604181278 0.0 -0.14396865671352163 -0.43562006080319216 0.2020300254283846 -0.0012213596815925638 3.1162765284819756 0.038891915636886834 0.0 0.0 0.0 0.0 0.0 0.0 0.0 0.0 0.0 0.0 0.0 0.0 -0.14396865671352163 -0.43562006080319216 0.2020300254283846 -0.0012213596815925638 3.1162765284819756 0.038891915636886834 0.0 0.0 0.0 0.0 0.0 0.0 0 25.5 25.0 24.5 24.0 23.5 23.0 0.175913 3 239 239 239 239 239 239 1 -0.24626992031694836 0.24493893696896454 -9.813855309892418 0.0 1.0 0.0 48.0 48.0 0.0 0.0 0.0 0.0 0.0 0.0 0.0 0 1 0.0
4992.982 -1.6006999999999998 -1.7271 -2.2029999999999994 -0.8079999999999998 1.5951 -0.030999999999999694 0.0 0.0 0.0 0.0 0.0 0.0 0.0 0.0 0.0 0.0 0.0 0.0 -1.8265934578025758e-17 2.141012561521421 1.4926747162211425 0.23313859823392621 0.0017549219604181278 0.0 -1.8139026517764549e-16 21.261372344464824 14.823039108277811 1.811941528544163 0.01363916573027167 0.0 -1.6006999999999998 -1.7271 -2.2029999999999994 -0.8079999999999998 1.5951 -0.030999999999999694 0.0 0.0 0.0 0.0 0.0 0.0 -1.8265934578025758e-17 2.141012561521421 1.4926747162211425 0.23313859823392621 0.0017549219604181278 0.0 -1.8265934578025758e-17 2.141012561521421 1.4926747162211425 0.23313859823392621 0.0017549219604181278 0.0 -0.14396865671352163 -0.43562006080319216 0.2020300254283846 -0.0012213596815925638 3.1162765284819756 0.038891915636886834 0.0 0.0 0.0 0.0 0.0 0.0 0.0 0.0 0.0 0.0 0.0 0.0 -0.14396865671352163 -0.43562006080319216 0.2020300254283846 -0.0012213596815925638 3.1162765284819756 0.038891915636886834 0.0 0.0 0.0 0.0 0.0 0.0 0 25.5 25.0 24.5 24.0 23.5 23.0 0.15542699999999998 3 239 239 239 239 239 239 1 -0.24626992031694836 0.24493893696896454 -9.813855309892418 0.0 1.0 0.0 48.0 48.0 0.0 0.0 0.0 0.0 0.0 0.0 0.0 0 1 0.0
4992.99 -1.6006999999999998 -1.7271 -2.2029999999999994 -0.8079999999999998 1.5951 -0.030999999999999694 0.0 0.0 0.0 0.0 0.0 0.0 0.0 0.0 0.0 0.0 0.0 0.0 -1.8265934578025758e-17 2.141012561521421 1.4926747162211425 0.23313859823392621 0.0017549219604181278 0.0 -1.8139026517764549e-16 21.261372344464824 14.823039108277811 1.811941528544163 0.01363916573027167 0.0 -1.6006999999999998 -1.7271 -2.2029999999999994 -0.8079999999999998 1.5951 -0.030999999999999694 0.0 0.0 0.0 0.0 0.0 0.0 -1.8265934578025758e-17 2.141012561521421 1.4926747162211425 0.23313859823392621 0.0017549219604181278 0.0 -1.8265934578025758e-17 2.141012561521421 1.4926747162211425 0.23313859823392621 0.0017549219604181278 0.0 -0.14396865671352163 -0.43562006080319216 0.2020300254283846 -0.0012213596815925638 3.1162765284819756 0.038891915636886834 0.0 0.0 0.0 0.0 0.0 0.0 0.0 0.0 0.0 0.0 0.0 0.0 -0.14396865671352163 -0.43562006080319216 0.2020300254283846 -0.0012213596815925638 3.1162765284819756 0.038891915636886834 0.0 0.0 0.0 0.0 0.0 0.0 0 25.5 25.0 24.5 24.0 23.5 23.0 0.17339500000000002 3 239 239 239 239 239 239 1 -0.24626992031694836 0.24493893696896454 -9.813855309892418 0.0 1.0 0.0 48.0 48.0 0.0 0.0 0.0 0.0 0.0 0.0 0.0 0 1 0.0
4992.998 -1.6006999999999998 -1.7271 -2.2029999999999994 -0.8079999999999998 1.5951 -0.030999999999999694 0.0 0.0 0.0 0.0 0.0 0.0 0.0 0.0 0.0 0.0 0.0 0.0 -1.8265934578025758e-17 2.141012561521421 1.4926747162211425 0.23313859823392621 0.0017549219604181278 0.0 -1.8139026517764549e-16 21.261372344464824 14.823039108277811 1.811941528544163 0.01363916573027167 0.0 -1.6006999999999998 -1.7271 -2.2029999999999994 -0.8079999999999998 1.5951 -0.030999999999999694 0.0 0.0 0.0 0.0 0.0 0.0 -1.8265934578025758e-17 2.141012561521421 1.4926747162211425 0.23313859823392621 0.0017549219604181278 0.0 -1.8265934578025758e-17 2.141012561521421 1.4926747162211425 0.23313859823392621 0.0017549219604181278 0.0 -0.14396865671352163 -0.43562006080319216 0.2020300254283846 -0.0012213596815925638 3.1162765284819756 0.038891915636886834 0.0 0.0 0.0 0.0 0.0 0.0 0.0 0.0 0.0 0.0 0.0 0.0 -0.14396865671352163 -0.43562006080319216 0.2020300254283846 -0.0012213596815925638 3.1162765284819756 0.038891915636886834 0.0 0.0 0.0 0.0 0.0 0.0 0 25.5 25.0 24.5 24.0 23.5 23.0 0.155669 3 239 239 239 239 239 239 1 -0.24626992031694836 0.24493893696896454 -9.813855309892418 0.0 1.0 0.0 48.0 48.0 0.0 0.0 0.0 0.0 0.0 0.0 0.0 0 1 0.0
4993.005999999999 -1.6006999999999998 -1.7271 -2.2029999999999994 -0.8079999999999998 1.5951 -0.030999999999999694 0.0 0.0 0.0 0.0 0.0 0.0 0.0 0.0 0.0 0.0 0.0 0.0 -1.8265934578025758e-17 2.141012561521421 1.4926747162211425 0.23313859823392621 0.0017549219604181278 0.0 -1.8139026517764549e-16 21.261372344464824 14.823039108277811 1.811941528544163 0.01363916573027167 0.0 -1.6006999999999998 -1.7271 -2.2029999999999994 -0.8079999999999998 1.5951 -0.030999999999999694 0.0 0.0 0.0 0.0 0.0 0.0 -1.8265934578025758e-17 2.141012561521421 1.4926747162211425 0.23313859823392621 0.0017549219604181278 0.0 -1.8265934578025758e-17 2.141012561521421 1.4926747162211425 0.23313859823392621 0.0017549219604181278 0.0 -0.14396865671352163 -0.43562006080319216 0.2020300254283846 -0.0012213596815925638 3.1162765284819756 0.038891915636886834 0.0 0.0 0.0 0.0 0.0 0.0 0.0 0.0 0.0 0.0 0.0 0.0 -0.14396865671352163 -0.43562006080319216 0.2020300254283846 -0.0012213596815925638 3.1162765284819756 0.038891915636886834 0.0 0.0 0.0 0.0 0.0 0.0 0 25.5 25.0 24.5 24.0 23.5 23.0 0.15708699999999998 3 239 239 239 239 239 239 1 -0.24626992031694836 0.24493893696896454 -9.813855309892418 0.0 1.0 0.0 48.0 48.0 0.0 0.0 0.0 0.0 0.0 0.0 0.0 0 1 0.0
4993.014 -1.6006999999999998 -1.7271 -2.2029999999999994 -0.8079999999999998 1.5951 -0.030999999999999694 0.0 0.0 0.0 0.0 0.0 0.0 0.0 0.0 0.0 0.0 0.0 0.0 -1.8265934578025758e-17 2.141012561521421 1.4926747162211425 0.23313859823392621 0.0017549219604181278 0.0 -1.8139026517764549e-16 21.261372344464824 14.823039108277811 1.811941528544163 0.01363916573027167 0.0 -1.6006999999999998 -1.7271 -2.2029999999999994 -0.8079999999999998 1.5951 -0.030999999999999694 0.0 0.0 0.0 0.0 0.0 0.0 -1.8265934578025758e-17 2.141012561521421 1.4926747162211425 0.23313859823392621 0.0017549219604181278 0.0 -1.8265934578025758e-17 2.141012561521421 1.4926747162211425 0.23313859823392621 0.0017549219604181278 0.0 -0.14396865671352163 -0.43562006080319216 0.2020300254283846 -0.0012213596815925638 3.1162765284819756 0.038891915636886834 0.0 0.0 0.0 0.0 0.0 0.0 0.0 0.0 0.0 0.0 0.0 0.0 -0.14396865671352163 -0.43562006080319216 0.2020300254283846 -0.0012213596815925638 3.1162765284819756 0.038891915636886834 0.0 0.0 0.0 0.0 0.0 0.0 0 25.5 25.0 24.5 24.0 23.5 23.0 0.156192 3 239 239 239 239 239 239 1 -0.24626992031694836 0.24493893696896454 -9.813855309892418 0.0 1.0 0.0 48.0 48.0 0.0 0.0 0.0 0.0 0.0 0.0 0.0 0 1 0.0
4993.022 -1.6006999999999998 -1.7271 -2.2029999999999994 -0.8079999999999998 1.5951 -0.030999999999999694 0.0 0.0 0.0 0.0 0.0 0.0 0.0 0.0 0.0 0.0 0.0 0.0 -1.8265934578025758e-17 2.141012561521421 1.4926747162211425 0.23313859823392621 0.0017549219604181278 0.0 -1.8139026517764549e-16 21.261372344464824 14.823039108277811 1.811941528544163 0.01363916573027167 0.0 -1.6006999999999998 -1.7271 -2.2029999999999994 -0.8079999999999998 1.5951 -0.030999999999999694 0.0 0.0 0.0 0.0 0.0 0.0 -1.8265934578025758e-17 2.141012561521421 1.4926747162211425 0.23313859823392621 0.0017549219604181278 0.0 -1.8265934578025758e-17 2.141012561521421 1.4926747162211425 0.23313859823392621 0.0017549219604181278 0.0 -0.14396865671352163 -0.43562006080319216 0.2020300254283846 -0.0012213596815925638 3.1162765284819756 0.038891915636886834 0.0 0.0 0.0 0.0 0.0 0.0 0.0 0.0 0.0 0.0 0.0 0.0 -0.14396865671352163 -0.43562006080319216 0.2020300254283846 -0.0012213596815925638 3.1162765284819756 0.038891915636886834 0.0 0.0 0.0 0.0 0.0 0.0 0 25.5 25.0 24.5 24.0 23.5 23.0 0.155815 3 239 239 239 239 239 239 1 -0.24626992031694836 0.24493893696896454 -9.813855309892418 0.0 1.0 0.0 48.0 48.0 0.0 0.0 0.0 0.0 0.0 0.0 0.0 0 1 0.0
4993.03 -1.6006999999999998 -1.7271 -2.2029999999999994 -0.8079999999999998 1.5951 -0.030999999999999694 0.0 0.0 0.0 0.0 0.0 0.0 0.0 0.0 0.0 0.0 0.0 0.0 -1.8265934578025758e-17 2.141012561521421 1.4926747162211425 0.23313859823392621 0.0017549219604181278 0.0 -1.8139026517764549e-16 21.261372344464824 14.823039108277811 1.811941528544163 0.01363916573027167 0.0 -1.6006999999999998 -1.7271 -2.2029999999999994 -0.8079999999999998 1.5951 -0.030999999999999694 0.0 0.0 0.0 0.0 0.0 0.0 -1.8265934578025758e-17 2.141012561521421 1.4926747162211425 0.23313859823392621 0.0017549219604181278 0.0 -1.8265934578025758e-17 2.141012561521421 1.4926747162211425 0.23313859823392621 0.0017549219604181278 0.0 -0.14396865671352163 -0.43562006080319216 0.2020300254283846 -0.0012213596815925638 3.1162765284819756 0.038891915636886834 0.0 0.0 0.0 0.0 0.0 0.0 0.0 0.0 0.0 0.0 0.0 0.0 -0.14396865671352163 -0.43562006080319216 0.2020300254283846 -0.0012213596815925638 3.1162765284819756 0.038891915636886834 0.0 0.0 0.0 0.0 0.0 0.0 0 25.5 25.0 24.5 24.0 23.5 23.0 0.15663999999999997 3 239 239 239 239 239 239 1 -0.24626992031694836 0.24493893696896454 -9.813855309892418 0.0 1.0 0.0 48.0 48.0 0.0 0.0 0.0 0.0 0.0 0.0 0.0 0 1 0.0
4993.038 -1.6006999999999998 -1.7271 -2.2029999999999994 -0.8079999999999998 1.5951 -0.030999999999999694 0.0 0.0 0.0 0.0 0.0 0.0 0.0 0.0 0.0 0.0 0.0 0.0 -1.8265934578025758e-17 2.141012561521421 1.4926747162211425 0.23313859823392621 0.0017549219604181278 0.0 -1.8139026517764549e-16 21.261372344464824 14.823039108277811 1.811941528544163 0.01363916573027167 0.0 -1.6006999999999998 -1.7271 -2.2029999999999994 -0.8079999999999998 1.5951 -0.030999999999999694 0.0 0.0 0.0 0.0 0.0 0.0 -1.8265934578025758e-17 2.141012561521421 1.4926747162211425 0.23313859823392621 0.0017549219604181278 0.0 -1.8265934578025758e-17 2.141012561521421 1.4926747162211425 0.23313859823392621 0.0017549219604181278 0.0 -0.14396865671352163 -0.43562006080319216 0.2020300254283846 -0.0012213596815925638 3.1162765284819756 0.038891915636886834 0.0 0.0 0.0 0.0 0.0 0.0 0.0 0.0 0.0 0.0 0.0 0.0 -0.14396865671352163 -0.43562006080319216 0.2020300254283846 -0.0012213596815925638 3.1162765284819756 0.038891915636886834 0.0 0.0 0.0 0.0 0.0 0.0 0 25.5 25.0 24.5 24.0 23.5 23.0 0.156081 3 239 239 239 239 239 239 1 -0.24626992031694836 0.24493893696896454 -9.813855309892418 0.0 1.0 0.0 48.0 48.0 0.0 0.0 0.0 0.0 0.0 0.0 0.0 0 1 0.0
4993.045999999999 -1.6006999999999998 -1.7271 -2.2029999999999994 -0.8079999999999998 1.5951 -0.030999999999999694 0.0 0.0 0.0 0.0 0.0 0.0 0.0 0.0 0.0 0.0 0.0 0.0 -1.8265934578025758e-17 2.141012561521421 1.4926747162211425 0.23313859823392621 0.0017549219604181278 0.0 -1.8139026517764549e-16 21.261372344464824 14.823039108277811 1.811941528544163 0.01363916573027167 0.0 -1.6006999999999998 -1.7271 -2.2029999999999994 -0.8079999999999998 1.5951 -0.030999999999999694 0.0 0.0 0.0 0.0 0.0 0.0 -1.8265934578025758e-17 2.141012561521421 1.4926747162211425 0.23313859823392621 0.0017549219604181278 0.0 -1.8265934578025758e-17 2.141012561521421 1.4926747162211425 0.23313859823392621 0.0017549219604181278 0.0 -0.14396865671352163 -0.43562006080319216 0.2020300254283846 -0.0012213596815925638 3.1162765284819756 0.038891915636886834 0.0 0.0 0.0 0.0 0.0 0.0 0.0 0.0 0.0 0.0 0.0 0.0 -0.14396865671352163 -0.43562006080319216 0.2020300254283846 -0.0012213596815925638 3.1162765284819756 0.038891915636886834 0.0 0.0 0.0 0.0 0.0 0.0 0 25.5 25.0 24.5 24.0 23.5 23.0 0.19358799999999998 3 239 239 239 239 239 239 1 -0.24626992031694836 0.24493893696896454 -9.813855309892418 0.0 1.0 0.0 48.0 48.0 0.0 0.0 0.0 0.0 0.0 0.0 0.0 0 1 0.0
4993.054 -1.6006999999999998 -1.7271 -2.2029999999999994 -0.8079999999999998 1.5951 -0.030999999999999694 0.0 0.0 0.0 0.0 0.0 0.0 0.0 0.0 0.0 0.0 0.0 0.0 -1.8265934578025758e-17 2.141012561521421 1.4926747162211425 0.23313859823392621 0.0017549219604181278 0.0 -1.8139026517764549e-16 21.261372344464824 14.823039108277811 1.811941528544163 0.01363916573027167 0.0 -1.6006999999999998 -1.7271 -2.2029999999999994 -0.8079999999999998 1.5951 -0.030999999999999694 0.0 0.0 0.0 0.0 0.0 0.0 -1.8265934578025758e-17 2.141012561521421 1.4926747162211425 0.23313859823392621 0.0017549219604181278 0.0 -1.8265934578025758e-17 2.141012561521421 1.4926747162211425 0.23313859823392621 0.0017549219604181278 0.0 -0.14396865671352163 -0.43562006080319216 0.2020300254283846 -0.0012213596815925638 3.1162765284819756 0.038891915636886834 0.0 0.0 0.0 0.0 0.0 0.0 0.0 0.0 0.0 0.0 0.0 0.0 -0.14396865671352163 -0.43562006080319216 0.2020300254283846 -0.0012213596815925638 3.1162765284819756 0.038891915636886834 0.0 0.0 0.0 0.0 0.0 0.0 0 25.5 25.0 24.5 24.0 23.5 23.0 0.156361 3 239 239 239 239 239 239 1 -0.24626992031694836 0.24493893696896454 -9.813855309892418 0.0 1.0 0.0 48.0 48.0 0.0 0.0 0.0 0.0 0.0 0.0 0.0 0 1 0.0
4993.062 -1.6006999999999998 -1.7271 -2.2029999999999994 -0.8079999999999998 1.5951 -0.030999999999999694 0.0 0.0 0.0 0.0 0.0 0.0 0.0 0.0 0.0 0.0 0.0 0.0 -1.8265934578025758e-17 2.141012561521421 1.4926747162211425 0.23313859823392621 0.0017549219604181278 0.0 -1.8139026517764549e-16 21.261372344464824 14.823039108277811 1.811941528544163 0.01363916573027167 0.0 -1.6006999999999998 -1.7271 -2.2029999999999994 -0.8079999999999998 1.5951 -0.030999999999999694 0.0 0.0 0.0 0.0 0.0 0.0 -1.8265934578025758e-17 2.141012561521421 1.4926747162211425 0.23313859823392621 0.0017549219604181278 0.0 -1.8265934578025758e-17 2.141012561521421 1.4926747162211425 0.23313859823392621 0.0017549219604181278 0.0 -0.14396865671352163 -0.43562006080319216 0.2020300254283846 -0.0012213596815925638 3.1162765284819756 0.038891915636886834 0.0 0.0 0.0 0.0 0.0 0.0 0.0 0.0 0.0 0.0 0.0 0.0 -0.14396865671352163 -0.43562006080319216 0.2020300254283846 -0.0012213596815925638 3.1162765284819756 0.038891915636886834 0.0 0.0 0.0 0.0 0.0 0.0 0 25.5 25.0 24.5 24.0 23.5 23.0 0.15759700000000001 3 239 239 239 239 239 239 1 -0.24626992031694836 0.24493893696896454 -9.813855309892418 0.0 1.0 0.0 48.0 48.0 0.0 0.0 0.0 0.0 0.0 0.0 0.0 0 1 0.0
4993.07 -1.6006999999999998 -1.7271 -2.2029999999999994 -0.8079999999999998 1.5951 -0.030999999999999694 0.0 0.0 0.0 0.0 0.0 0.0 0.0 0.0 0.0 0.0 0.0 0.0 -1.8265934578025758e-17 2.141012561521421 1.4926747162211425 0.23313859823392621 0.0017549219604181278 0.0 -1.8139026517764549e-16 21.261372344464824 14.823039108277811 1.811941528544163 0.01363916573027167 0.0 -1.6006999999999998 -1.7271 -2.2029999999999994 -0.8079999999999998 1.5951 -0.030999999999999694 0.0 0.0 0.0 0.0 0.0 0.0 -1.8265934578025758e-17 2.141012561521421 1.4926747162211425 0.23313859823392621 0.0017549219604181278 0.0 -1.8265934578025758e-17 2.141012561521421 1.4926747162211425 0.23313859823392621 0.0017549219604181278 0.0 -0.14396865671352163 -0.43562006080319216 0.2020300254283846 -0.0012213596815925638 3.1162765284819756 0.038891915636886834 0.0 0.0 0.0 0.0 0.0 0.0 0.0 0.0 0.0 0.0 0.0 0.0 -0.14396865671352163 -0.43562006080319216 0.2020300254283846 -0.0012213596815925638 3.1162765284819756 0.038891915636886834 0.0 0.0 0.0 0.0 0.0 0.0 0 25.5 25.0 24.5 24.0 23.5 23.0 0.156502 3 239 239 239 239 239 239 1 -0.24626992031694836 0.24493893696896454 -9.813855309892418 0.0 1.0 0.0 48.0 48.0 0.0 0.0 0.0 0.0 0.0 0.0 0.0 0 1 0.0
4993.0779999999995 -1.6006999999999998 -1.7271 -2.2029999999999994 -0.8079999999999998 1.5951 -0.030999999999999694 0.0 0.0 0.0 0.0 0.0 0.0 0.0 0.0 0.0 0.0 0.0 0.0 -1.8265934578025758e-17 2.141012561521421 1.4926747162211425 0.23313859823392621 0.0017549219604181278 0.0 -1.8139026517764549e-16 21.261372344464824 14.823039108277811 1.811941528544163 0.01363916573027167 0.0 -1.6006999999999998 -1.7271 -2.2029999999999994 -0.8079999999999998 1.5951 -0.030999999999999694 0.0 0.0 0.0 0.0 0.0 0.0 -1.8265934578025758e-17 2.141012561521421 1.4926747162211425 0.23313859823392621 0.0017549219604181278 0.0 -1.8265934578025758e-17 2.141012561521421 1.4926747162211425 0.23313859823392621 0.0017549219604181278 0.0 -0.14396865671352163 -0.43562006080319216 0.2020300254283846 -0.0012213596815925638 3.1162765284819756 0.038891915636886834 0.0 0.0 0.0 0.0 0.0 0.0 0.0 0.0 0.0 0.0 0.0 0.0 -0.14396865671352163 -0.43562006080319216 0.2020300254283846 -0.0012213596815925638 3.1162765284819756 0.038891915636886834 0.0 0.0 0.0 0.0 0.0 0.0 0 25.5 25.0 24.5 24.0 23.5 23.0 0.156308 3 239 239 239 239 239 239 1 -0.24626992031694836 0.24493893696896454 -9.813855309892418 0.0 1.0 0.0 48.0 48.0 0.0 0.0 0.0 0.0 0.0 0.0 0.0 0 1 0.0
4993.085999999999 -1.6006999999999998 -1.7271 -2.2029999999999994 -0.8079999999999998 1.5951 -0.030999999999999694 0.0 0.0 0.0 0.0 0.0 0.0 0.0 0.0 0.0 0.0 0.0 0.0 -1.8265934578025758e-17 2.141012561521421 1.4926747162211425 0.23313859823392621 0.0017549219604181278 0.0 -1.8139026517764549e-16 21.261372344464824 14.823039108277811 1.811941528544163 0.01363916573027167 0.0 -1.6006999999999998 -1.7271 -2.2029999999999994 -0.8079999999999998 1.5951 -0.030999999999999694 0.0 0.0 0.0 0.0 0.0 0.0 -1.8265934578025758e-17 2.141012561521421 1.4926747162211425 0.23313859823392621 0.0017549219604181278 0.0 -1.8265934578025758e-17 2.141012561521421 1.4926747162211425 0.23313859823392621 0.0017549219604181278 0.0 -0.14396865671352163 -0.43562006080319216 0.2020300254283846 -0.0012213596815925638 3.1162765284819756 0.038891915636886834 0.0 0.0 0.0 0.0 0.0 0.0 0.0 0.0 0.0 0.0 0.0 0.0 -0.14396865671352163 -0.43562006080319216 0.2020300254283846 -0.0012213596815925638 3.1162765284819756 0.038891915636886834 0.0 0.0 0.0 0.0 0.0 0.0 0 25.5 25.0 24.5 24.0 23.5 23.0 0.155862 3 239 239 239 239 239 239 1 -0.24626992031694836 0.24493893696896454 -9.813855309892418 0.0 1.0 0.0 48.0 48.0 0.0 0.0 0.0 0.0 0.0 0.0 0.0 0 1 0.0
4993.094 -1.6006999999999998 -1.7271 -2.2029999999999994 -0.8079999999999998 1.5951 -0.030999999999999694 0.0 0.0 0.0 0.0 0.0 0.0 0.0 0.0 0.0 0.0 0.0 0.0 -1.8265934578025758e-17 2.141012561521421 1.4926747162211425 0.23313859823392621 0.0017549219604181278 0.0 -1.8139026517764549e-16 21.261372344464824 14.823039108277811 1.811941528544163 0.01363916573027167 0.0 -1.6006999999999998 -1.7271 -2.2029999999999994 -0.8079999999999998 1.5951 -0.030999999999999694 0.0 0.0 0.0 0.0 0.0 0.0 -1.8265934578025758e-17 2.141012561521421 1.4926747162211425 0.23313859823392621 0.0017549219604181278 0.0 -1.8265934578025758e-17 2.141012561521421 1.4926747162211425 0.23313859823392621 0.0017549219604181278 0.0 -0.14396865671352163 -0.43562006080319216 0.2020300254283846 -0.0012213596815925638 3.1162765284819756 0.038891915636886834 0.0 0.0 0.0 0.0 0.0 0.0 0.0 0.0 0.0 0.0 0.0 0.0 -0.14396865671352163 -0.43562006080319216 0.2020300254283846 -0.0012213596815925638 3.1162765284819756 0.038891915636886834 0.0 0.0 0.0 0.0 0.0 0.0 0 25.5 25.0 24.5 24.0 23.5 23.0 0.157752 3 239 239 239 239 239 239 1 -0.24626992031694836 0.24493893696896454 -9.813855309892418 0.0 1.0 0.0 48.0 48.0 0.0 0.0 0.0 0.0 0.0 0.0 0.0 0 1 0.0
4993.102 -1.6006999999999998 -1.7271 -2.2029999999999994 -0.8079999999999998 1.5951 -0.030999999999999694 0.0 0.0 0.0 0.0 0.0 0.0 0.0 0.0 0.0 0.0 0.0 0.0 -1.8265934578025758e-17 2.141012561521421 1.4926747162211425 0.23313859823392621 0.0017549219604181278 0.0 -1.8139026517764549e-16 21.261372344464824 14.823039108277811 1.811941528544163 0.01363916573027167 0.0 -1.6006999999999998 -1.7271 -2.2029999999999994 -0.8079999999999998 1.5951 -0.030999999999999694 0.0 0.0 0.0 0.0 0.0 0.0 -1.8265934578025758e-17 2.141012561521421 1.4926747162211425 0.23313859823392621 0.0017549219604181278 0.0 -1.8265934578025758e-17 2.141012561521421 1.4926747162211425 0.23313859823392621 0.0017549219604181278 0.0 -0.14396865671352163 -0.43562006080319216 0.2020300254283846 -0.0012213596815925638 3.1162765284819756 0.038891915636886834 0.0 0.0 0.0 0.0 0.0 0.0 0.0 0.0 0.0 0.0 0.0 0.0 -0.14396865671352163 -0.43562006080319216 0.2020300254283846 -0.0012213596815925638 3.1162765284819756 0.038891915636886834 0.0 0.0 0.0 0.0 0.0 0.0 0 25.5 25.0 24.5 24.0 23.5 23.0 0.156184 3 239 239 239 239 239 239 1 -0.24626992031694836 0.24493893696896454 -9.813855309892418 0.0 1.0 0.0 48.0 48.0 0.0 0.0 0.0 0.0 0.0 0.0 0.0 0 1 0.0
4993.11 -1.6006999999999998 -1.7271 -2.2029999999999994 -0.8079999999999998 1.5951 -0.030999999999999694 0.0 0.0 0.0 0.0 0.0 0.0 0.0 0.0 0.0 0.0 0.0 0.0 -1.8265934578025758e-17 2.141012561521421 1.4926747162211425 0.23313859823392621 0.0017549219604181278 0.0 -1.8139026517764549e-16 21.261372344464824 14.823039108277811 1.811941528544163 0.01363916573027167 0.0 -1.6006999999999998 -1.7271 -2.2029999999999994 -0.8079999999999998 1.5951 -0.030999999999999694 0.0 0.0 0.0 0.0 0.0 0.0 -1.8265934578025758e-17 2.141012561521421 1.4926747162211425 0.23313859823392621 0.0017549219604181278 0.0 -1.8265934578025758e-17 2.141012561521421 1.4926747162211425 0.23313859823392621 0.0017549219604181278 0.0 -0.14396865671352163 -0.43562006080319216 0.2020300254283846 -0.0012213596815925638 3.1162765284819756 0.038891915636886834 0.0 0.0 0.0 0.0 0.0 0.0 0.0 0.0 0.0 0.0 0.0 0.0 -0.14396865671352163 -0.43562006080319216 0.2020300254283846 -0.0012213596815925638 3.1162765284819756 0.038891915636886834 0.0 0.0 0.0 0.0 0.0 0.0 0 25.5 25.0 24.5 24.0 23.5 23.0 0.158122 3 239 239 239 239 239 239 1 -0.24626992031694836 0.24493893696896454 -9.813855309892418 0.0 1.0 0.0 48.0 48.0 0.0 0.0 0.0 0.0 0.0 0.0 0.0 0 1 0.0
4993.1179999999995 -1.6006999999999998 -1.7271 -2.2029999999999994 -0.8079999999999998 1.5951 -0.030999999999999694 0.0 0.0 0.0 0.0 0.0 0.0 0.0 0.0 0.0 0.0 0.0 0.0 -1.8265934578025758e-17 2.141012561521421 1.4926747162211425 0.23313859823392621 0.0017549219604181278 0.0 -1.8139026517764549e-16 21.261372344464824 14.823039108277811 1.811941528544163 0.01363916573027167 0.0 -1.6006999999999998 -1.7271 -2.2029999999999994 -0.8079999999999998 1.5951 -0.030999999999999694 0.0 0.0 0.0 0.0 0.0 0.0 -1.8265934578025758e-17 2.141012561521421 1.4926747162211425 0.23313859823392621 0.0017549219604181278 0.0 -1.8265934578025758e-17 2.141012561521421 1.4926747162211425 0.23313859823392621 0.0017549219604181278 0.0 -0.14396865671352163 -0.43562006080319216 0.2020300254283846 -0.0012213596815925638 3.1162765284819756 0.038891915636886834 0.0 0.0 0.0 0.0 0.0 0.0 0.0 0.0 0.0 0.0 0.0 0.0 -0.14396865671352163 -0.43562006080319216 0.2020300254283846 -0.0012213596815925638 3.1162765284819756 0.038891915636886834 0.0 0.0 0.0 0.0 0.0 0.0 0 25.5 25.0 24.5 24.0 23.5 23.0 0.15674700000000003 3 239 239 239 239 239 239 1 -0.24626992031694836 0.24493893696896454 -9.813855309892418 0.0 1.0 0.0 48.0 48.0 0.0 0.0 0.0 0.0 0.0 0.0 0.0 0 1 0.0
4993.126 -1.6006999999999998 -1.7271 -2.2029999999999994 -0.8079999999999998 1.5951 -0.030999999999999694 0.0 0.0 0.0 0.0 0.0 0.0 0.0 0.0 0.0 0.0 0.0 0.0 -1.8265934578025758e-17 2.141012561521421 1.4926747162211425 0.23313859823392621 0.0017549219604181278 0.0 -1.8139026517764549e-16 21.261372344464824 14.823039108277811 1.811941528544163 0.01363916573027167 0.0 -1.6006999999999998 -1.7271 -2.2029999999999994 -0.8079999999999998 1.5951 -0.030999999999999694 0.0 0.0 0.0 0.0 0.0 0.0 -1.8265934578025758e-17 2.141012561521421 1.4926747162211425 0.23313859823392621 0.0017549219604181278 0.0 -1.8265934578025758e-17 2.141012561521421 1.4926747162211425 0.23313859823392621 0.0017549219604181278 0.0 -0.14396865671352163 -0.43562006080319216 0.2020300254283846 -0.0012213596815925638 3.1162765284819756 0.038891915636886834 0.0 0.0 0.0 0.0 0.0 0.0 0.0 0.0 0.0 0.0 0.0 0.0 -0.14396865671352163 -0.43562006080319216 0.2020300254283846 -0.0012213596815925638 3.1162765284819756 0.038891915636886834 0.0 0.0 0.0 0.0 0.0 0.0 0 25.5 25.0 24.5 24.0 23.5 23.0 0.156664 3 239 239 239 239 239 239 1 -0.24626992031694836 0.24493893696896454 -9.813855309892418 0.0 1.0 0.0 48.0 48.0 0.0 0.0 0.0 0.0 0.0 0.0 0.0 0 1 0.0
4993.134 -1.6006999999999998 -1.7271 -2.2029999999999994 -0.8079999999999998 1.5951 -0.030999999999999694 0.0 0.0 0.0 0.0 0.0 0.0 0.0 0.0 0.0 0.0 0.0 0.0 -1.8265934578025758e-17 2.141012561521421 1.4926747162211425 0.23313859823392621 0.0017549219604181278 0.0 -1.8139026517764549e-16 21.261372344464824 14.823039108277811 1.811941528544163 0.01363916573027167 0.0 -1.6006999999999998 -1.7271 -2.2029999999999994 -0.8079999999999998 1.5951 -0.030999999999999694 0.0 0.0 0.0 0.0 0.0 0.0 -1.8265934578025758e-17 2.141012561521421 1.4926747162211425 0.23313859823392621 0.0017549219604181278 0.0 -1.8265934578025758e-17 2.141012561521421 1.4926747162211425 0.23313859823392621 0.0017549219604181278 0.0 -0.14396865671352163 -0.43562006080319216 0.2020300254283846 -0.0012213596815925638 3.1162765284819756 0.038891915636886834 0.0 0.0 0.0 0.0 0.0 0.0 0.0 0.0 0.0 0.0 0.0 0.0 -0.14396865671352163 -0.43562006080319216 0.2020300254283846 -0.0012213596815925638 3.1162765284819756 0.038891915636886834 0.0 0.0 0.0 0.0 0.0 0.0 0 25.5 25.0 24.5 24.0 23.5 23.0 0.156345 3 239 239 239 239 239 239 1 -0.24626992031694836 0.24493893696896454 -9.813855309892418 0.0 1.0 0.0 48.0 48.0 0.0 0.0 0.0 0.0 0.0 0.0 0.0 0 1 0.0
4993.142 -1.6006999999999998 -1.7271 -2.2029999999999994 -0.8079999999999998 1.5951 -0.030999999999999694 0.0 0.0 0.0 0.0 0.0 0.0 0.0 0.0 0.0 0.0 0.0 0.0 -1.8265934578025758e-17 2.141012561521421 1.4926747162211425 0.23313859823392621 0.0017549219604181278 0.0 -1.8139026517764549e-16 21.261372344464824 14.823039108277811 1.811941528544163 0.01363916573027167 0.0 -1.6006999999999998 -1.7271 -2.2029999999999994 -0.8079999999999998 1.5951 -0.030999999999999694 0.0 0.0 0.0 0.0 0.0 0.0 -1.8265934578025758e-17 2.141012561521421 1.4926747162211425 0.23313859823392621 0.0017549219604181278 0.0 -1.8265934578025758e-17 2.141012561521421 1.4926747162211425 0.23313859823392621 0.0017549219604181278 0.0 -0.14396865671352163 -0.43562006080319216 0.2020300254283846 -0.0012213596815925638 3.1162765284819756 0.038891915636886834 0.0 0.0 0.0 0.0 0.0 0.0 0.0 0.0 0.0 0.0 0.0 0.0 -0.14396865671352163 -0.43562006080319216 0.2020300254283846 -0.0012213596815925638 3.1162765284819756 0.038891915636886834 0.0 0.0 0.0 0.0 0.0 0.0 0 25.5 25.0 24.5 24.0 23.5 23.0 0.155921 3 239 239 239 239 239 239 1 -0.24626992031694836 0.24493893696896454 -9.813855309892418 0.0 1.0 0.0 48.0 48.0 0.0 0.0 0.0 0.0 0.0 0.0 0.0 0 1 0.0
4993.15 -1.6006999999999998 -1.7271 -2.2029999999999994 -0.8079999999999998 1.5951 -0.030999999999999694 0.0 0.0 0.0 0.0 0.0 0.0 0.0 0.0 0.0 0.0 0.0 0.0 -1.8265934578025758e-17 2.141012561521421 1.4926747162211425 0.23313859823392621 0.0017549219604181278 0.0 -1.8139026517764549e-16 21.261372344464824 14.823039108277811 1.811941528544163 0.01363916573027167 0.0 -1.6006999999999998 -1.7271 -2.2029999999999994 -0.8079999999999998 1.5951 -0.030999999999999694 0.0 0.0 0.0 0.0 0.0 0.0 -1.8265934578025758e-17 2.141012561521421 1.4926747162211425 0.23313859823392621 0.0017549219604181278 0.0 -1.8265934578025758e-17 2.141012561521421 1.4926747162211425 0.23313859823392621 0.0017549219604181278 0.0 -0.14396865671352163 -0.43562006080319216 0.2020300254283846 -0.0012213596815925638 3.1162765284819756 0.038891915636886834 0.0 0.0 0.0 0.0 0.0 0.0 0.0 0.0 0.0 0.0 0.0 0.0 -0.14396865671352163 -0.43562006080319216 0.2020300254283846 -0.0012213596815925638 3.1162765284819756 0.038891915636886834 0.0 0.0 0.0 0.0 0.0 0.0 0 25.5 25.0 24.5 24.0 23.5 23.0 0.156262 3 239 239 239 239 239 239 1 -0.24626992031694836 0.24493893696896454 -9.813855309892418 0.0 1.0 0.0 48.0 48.0 0.0 0.0 0.0 0.0 0.0 0.0 0.0 0 1 0.0
4993.157999999999 -1.6006999999999998 -1.7271 -2.2029999999999994 -0.8079999999999998 1.5951 -0.030999999999999694 0.0 0.0 0.0 0.0 0.0 0.0 0.0 0.0 0.0 0.0 0.0 0.0 -1.8265934578025758e-17 2.141012561521421 1.4926747162211425 0.23313859823392621 0.0017549219604181278 0.0 -1.8139026517764549e-16 21.261372344464824 14.823039108277811 1.811941528544163 0.01363916573027167 0.0 -1.6006999999999998 -1.7271 -2.2029999999999994 -0.8079999999999998 1.5951 -0.030999999999999694 0.0 0.0 0.0 0.0 0.0 0.0 -1.8265934578025758e-17 2.141012561521421 1.4926747162211425 0.23313859823392621 0.0017549219604181278 0.0 -1.8265934578025758e-17 2.141012561521421 1.4926747162211425 0.23313859823392621 0.0017549219604181278 0.0 -0.14396865671352163 -0.43562006080319216 0.2020300254283846 -0.0012213596815925638 3.1162765284819756 0.038891915636886834 0.0 0.0 0.0 0.0 0.0 0.0 0.0 0.0 0.0 0.0 0.0 0.0 -0.14396865671352163 -0.43562006080319216 0.2020300254283846 -0.0012213596815925638 3.1162765284819756 0.038891915636886834 0.0 0.0 0.0 0.0 0.0 0.0 0 25.5 25.0 24.5 24.0 23.5 23.0 0.15583000000000002 3 239 239 239 239 239 239 1 -0.24626992031694836 0.24493893696896454 -9.813855309892418 0.0 1.0 0.0 48.0 48.0 0.0 0.0 0.0 0.0 0.0 0.0 0.0 0 1 0.0
4993.166 -1.6006999999999998 -1.7271 -2.2029999999999994 -0.8079999999999998 1.5951 -0.030999999999999694 0.0 0.0 0.0 0.0 0.0 0.0 0.0 0.0 0.0 0.0 0.0 0.0 -1.8265934578025758e-17 2.141012561521421 1.4926747162211425 0.23313859823392621 0.0017549219604181278 0.0 -1.8139026517764549e-16 21.261372344464824 14.823039108277811 1.811941528544163 0.01363916573027167 0.0 -1.6006999999999998 -1.7271 -2.2029999999999994 -0.8079999999999998 1.5951 -0.030999999999999694 0.0 0.0 0.0 0.0 0.0 0.0 -1.8265934578025758e-17 2.141012561521421 1.4926747162211425 0.23313859823392621 0.0017549219604181278 0.0 -1.8265934578025758e-17 2.141012561521421 1.4926747162211425 0.23313859823392621 0.0017549219604181278 0.0 -0.14396865671352163 -0.43562006080319216 0.2020300254283846 -0.0012213596815925638 3.1162765284819756 0.038891915636886834 0.0 0.0 0.0 0.0 0.0 0.0 0.0 0.0 0.0 0.0 0.0 0.0 -0.14396865671352163 -0.43562006080319216 0.2020300254283846 -0.0012213596815925638 3.1162765284819756 0.038891915636886834 0.0 0.0 0.0 0.0 0.0 0.0 0 25.5 25.0 24.5 24.0 23.5 23.0 0.156471 3 239 239 239 239 239 239 1 -0.24626992031694836 0.24493893696896454 -9.813855309892418 0.0 1.0 0.0 48.0 48.0 0.0 0.0 0.0 0.0 0.0 0.0 0.0 0 1 0.0
4993.174 -1.6006999999999998 -1.7271 -2.2029999999999994 -0.8079999999999998 1.5951 -0.030999999999999694 0.0 0.0 0.0 0.0 0.0 0.0 0.0 0.0 0.0 0.0 0.0 0.0 -1.8265934578025758e-17 2.141012561521421 1.4926747162211425 0.23313859823392621 0.0017549219604181278 0.0 -1.8139026517764549e-16 21.261372344464824 14.823039108277811 1.811941528544163 0.01363916573027167 0.0 -1.6006999999999998 -1.7271 -2.2029999999999994 -0.8079999999999998 1.5951 -0.030999999999999694 0.0 0.0 0.0 0.0 0.0 0.0 -1.8265934578025758e-17 2.141012561521421 1.4926747162211425 0.23313859823392621 0.0017549219604181278 0.0 -1.8265934578025758e-17 2.141012561521421 1.4926747162211425 0.23313859823392621 0.0017549219604181278 0.0 -0.14396865671352163 -0.43562006080319216 0.2020300254283846 -0.0012213596815925638 3.1162765284819756 0.038891915636886834 0.0 0.0 0.0 0.0 0.0 0.0 0.0 0.0 0.0 0.0 0.0 0.0 -0.14396865671352163 -0.43562006080319216 0.2020300254283846 -0.0012213596815925638 3.1162765284819756 0.038891915636886834 0.0 0.0 0.0 0.0 0.0 0.0 0 25.5 25.0 24.5 24.0 23.5 23.0 0.157188 3 239 239 239 239 239 239 1 -0.24626992031694836 0.24493893696896454 -9.813855309892418 0.0 1.0 0.0 48.0 48.0 0.0 0.0 0.0 0.0 0.0 0.0 0.0 0 1 0.0
4993.182 -1.6006999999999998 -1.7271 -2.2029999999999994 -0.8079999999999998 1.5951 -0.030999999999999694 0.0 0.0 0.0 0.0 0.0 0.0 0.0 0.0 0.0 0.0 0.0 0.0 -1.8265934578025758e-17 2.141012561521421 1.4926747162211425 0.23313859823392621 0.0017549219604181278 0.0 -1.8139026517764549e-16 21.261372344464824 14.823039108277811 1.811941528544163 0.01363916573027167 0.0 -1.6006999999999998 -1.7271 -2.2029999999999994 -0.8079999999999998 1.5951 -0.030999999999999694 0.0 0.0 0.0 0.0 0.0 0.0 -1.8265934578025758e-17 2.141012561521421 1.4926747162211425 0.23313859823392621 0.0017549219604181278 0.0 -1.8265934578025758e-17 2.141012561521421 1.4926747162211425 0.23313859823392621 0.0017549219604181278 0.0 -0.14396865671352163 -0.43562006080319216 0.2020300254283846 -0.0012213596815925638 3.1162765284819756 0.038891915636886834 0.0 0.0 0.0 0.0 0.0 0.0 0.0 0.0 0.0 0.0 0.0 0.0 -0.14396865671352163 -0.43562006080319216 0.2020300254283846 -0.0012213596815925638 3.1162765284819756 0.038891915636886834 0.0 0.0 0.0 0.0 0.0 0.0 0 25.5 25.0 24.5 24.0 23.5 23.0 0.156308 3 239 239 239 239 239 239 1 -0.24626992031694836 0.24493893696896454 -9.813855309892418 0.0 1.0 0.0 48.0 48.0 0.0 0.0 0.0 0.0 0.0 0.0 0.0 0 1 0.0
4993.19 -1.6006999999999998 -1.7271 -2.2029999999999994 -0.8079999999999998 1.5951 -0.030999999999999694 0.0 0.0 0.0 0.0 0.0 0.0 0.0 0.0 0.0 0.0 0.0 0.0 -1.8265934578025758e-17 2.141012561521421 1.4926747162211425 0.23313859823392621 0.0017549219604181278 0.0 -1.8139026517764549e-16 21.261372344464824 14.823039108277811 1.811941528544163 0.01363916573027167 0.0 -1.6006999999999998 -1.7271 -2.2029999999999994 -0.8079999999999998 1.5951 -0.030999999999999694 0.0 0.0 0.0 0.0 0.0 0.0 -1.8265934578025758e-17 2.141012561521421 1.4926747162211425 0.23313859823392621 0.0017549219604181278 0.0 -1.8265934578025758e-17 2.141012561521421 1.4926747162211425 0.23313859823392621 0.0017549219604181278 0.0 -0.14396865671352163 -0.43562006080319216 0.2020300254283846 -0.0012213596815925638 3.1162765284819756 0.038891915636886834 0.0 0.0 0.0 0.0 0.0 0.0 0.0 0.0 0.0 0.0 0.0 0.0 -0.14396865671352163 -0.43562006080319216 0.2020300254283846 -0.0012213596815925638 3.1162765284819756 0.038891915636886834 0.0 0.0 0.0 0.0 0.0 0.0 0 25.5 25.0 24.5 24.0 23.5 23.0 0.156169 3 239 239 239 239 239 239 1 -0.24626992031694836 0.24493893696896454 -9.813855309892418 0.0 1.0 0.0 48.0 48.0 0.0 0.0 0.0 0.0 0.0 0.0 0.0 0 1 0.0
4993.197999999999 -1.6006999999999998 -1.7271 -2.2029999999999994 -0.8079999999999998 1.5951 -0.030999999999999694 0.0 0.0 0.0 0.0 0.0 0.0 0.0 0.0 0.0 0.0 0.0 0.0 -1.8265934578025758e-17 2.141012561521421 1.4926747162211425 0.23313859823392621 0.0017549219604181278 0.0 -1.8139026517764549e-16 21.261372344464824 14.823039108277811 1.811941528544163 0.01363916573027167 0.0 -1.6006999999999998 -1.7271 -2.2029999999999994 -0.8079999999999998 1.5951 -0.030999999999999694 0.0 0.0 0.0 0.0 0.0 0.0 -1.8265934578025758e-17 2.141012561521421 1.4926747162211425 0.23313859823392621 0.0017549219604181278 0.0 -1.8265934578025758e-17 2.141012561521421 1.4926747162211425 0.23313859823392621 0.0017549219604181278 0.0 -0.14396865671352163 -0.43562006080319216 0.2020300254283846 -0.0012213596815925638 3.1162765284819756 0.038891915636886834 0.0 0.0 0.0 0.0 0.0 0.0 0.0 0.0 0.0 0.0 0.0 0.0 -0.14396865671352163 -0.43562006080319216 0.2020300254283846 -0.0012213596815925638 3.1162765284819756 0.038891915636886834 0.0 0.0 0.0 0.0 0.0 0.0 0 25.5 25.0 24.5 24.0 23.5 23.0 0.156521 3 239 239 239 239 239 239 1 -0.24626992031694836 0.24493893696896454 -9.813855309892418 0.0 1.0 0.0 48.0 48.0 0.0 0.0 0.0 0.0 0.0 0.0 0.0 0 1 0.0
4993.206 -1.6006999999999998 -1.7271 -2.2029999999999994 -0.8079999999999998 1.5951 -0.030999999999999694 0.0 0.0 0.0 0.0 0.0 0.0 0.0 0.0 0.0 0.0 0.0 0.0 -1.8265934578025758e-17 2.141012561521421 1.4926747162211425 0.23313859823392621 0.0017549219604181278 0.0 -1.8139026517764549e-16 21.261372344464824 14.823039108277811 1.811941528544163 0.01363916573027167 0.0 -1.6006999999999998 -1.7271 -2.2029999999999994 -0.8079999999999998 1.5951 -0.030999999999999694 0.0 0.0 0.0 0.0 0.0 0.0 -1.8265934578025758e-17 2.141012561521421 1.4926747162211425 0.23313859823392621 0.0017549219604181278 0.0 -1.8265934578025758e-17 2.141012561521421 1.4926747162211425 0.23313859823392621 0.0017549219604181278 0.0 -0.14396865671352163 -0.43562006080319216 0.2020300254283846 -0.0012213596815925638 3.1162765284819756 0.038891915636886834 0.0 0.0 0.0 0.0 0.0 0.0 0.0 0.0 0.0 0.0 0.0 0.0 -0.14396865671352163 -0.43562006080319216 0.2020300254283846 -0.0012213596815925638 3.1162765284819756 0.038891915636886834 0.0 0.0 0.0 0.0 0.0 0.0 0 25.5 25.0 24.5 24.0 23.5 23.0 0.15581399999999998 3 239 239 239 239 239 239 1 -0.24626992031694836 0.24493893696896454 -9.813855309892418 0.0 1.0 0.0 48.0 48.0 0.0 0.0 0.0 0.0 0.0 0.0 0.0 0 1 0.0
4993.214 -1.6006999999999998 -1.7271 -2.2029999999999994 -0.8079999999999998 1.5951 -0.030999999999999694 0.0 0.0 0.0 0.0 0.0 0.0 0.0 0.0 0.0 0.0 0.0 0.0 -1.8265934578025758e-17 2.141012561521421 1.4926747162211425 0.23313859823392621 0.0017549219604181278 0.0 -1.8139026517764549e-16 21.261372344464824 14.823039108277811 1.811941528544163 0.01363916573027167 0.0 -1.6006999999999998 -1.7271 -2.2029999999999994 -0.8079999999999998 1.5951 -0.030999999999999694 0.0 0.0 0.0 0.0 0.0 0.0 -1.8265934578025758e-17 2.141012561521421 1.4926747162211425 0.23313859823392621 0.0017549219604181278 0.0 -1.8265934578025758e-17 2.141012561521421 1.4926747162211425 0.23313859823392621 0.0017549219604181278 0.0 -0.14396865671352163 -0.43562006080319216 0.2020300254283846 -0.0012213596815925638 3.1162765284819756 0.038891915636886834 0.0 0.0 0.0 0.0 0.0 0.0 0.0 0.0 0.0 0.0 0.0 0.0 -0.14396865671352163 -0.43562006080319216 0.2020300254283846 -0.0012213596815925638 3.1162765284819756 0.038891915636886834 0.0 0.0 0.0 0.0 0.0 0.0 0 25.5 25.0 24.5 24.0 23.5 23.0 0.156129 3 239 239 239 239 239 239 1 -0.24626992031694836 0.24493893696896454 -9.813855309892418 0.0 1.0 0.0 48.0 48.0 0.0 0.0 0.0 0.0 0.0 0.0 0.0 0 1 0.0
4993.222 -1.6006999999999998 -1.7271 -2.2029999999999994 -0.8079999999999998 1.5951 -0.030999999999999694 0.0 0.0 0.0 0.0 0.0 0.0 0.0 0.0 0.0 0.0 0.0 0.0 -1.8265934578025758e-17 2.141012561521421 1.4926747162211425 0.23313859823392621 0.0017549219604181278 0.0 -1.8139026517764549e-16 21.261372344464824 14.823039108277811 1.811941528544163 0.01363916573027167 0.0 -1.6006999999999998 -1.7271 -2.2029999999999994 -0.8079999999999998 1.5951 -0.030999999999999694 0.0 0.0 0.0 0.0 0.0 0.0 -1.8265934578025758e-17 2.141012561521421 1.4926747162211425 0.23313859823392621 0.0017549219604181278 0.0 -1.8265934578025758e-17 2.141012561521421 1.4926747162211425 0.23313859823392621 0.0017549219604181278 0.0 -0.14396865671352163 -0.43562006080319216 0.2020300254283846 -0.0012213596815925638 3.1162765284819756 0.038891915636886834 0.0 0.0 0.0 0.0 0.0 0.0 0.0 0.0 0.0 0.0 0.0 0.0 -0.14396865671352163 -0.43562006080319216 0.2020300254283846 -0.0012213596815925638 3.1162765284819756 0.038891915636886834 0.0 0.0 0.0 0.0 0.0 0.0 0 25.5 25.0 24.5 24.0 23.5 23.0 0.155091 3 239 239 239 239 239 239 1 -0.24626992031694836 0.24493893696896454 -9.813855309892418 0.0 1.0 0.0 48.0 48.0 0.0 0.0 0.0 0.0 0.0 0.0 0.0 0 1 0.0
4993.23 -1.6006999999999998 -1.7271 -2.2029999999999994 -0.8079999999999998 1.5951 -0.030999999999999694 0.0 0.0 0.0 0.0 0.0 0.0 0.0 0.0 0.0 0.0 0.0 0.0 -1.8265934578025758e-17 2.141012561521421 1.4926747162211425 0.23313859823392621 0.0017549219604181278 0.0 -1.8139026517764549e-16 21.261372344464824 14.823039108277811 1.811941528544163 0.01363916573027167 0.0 -1.6006999999999998 -1.7271 -2.2029999999999994 -0.8079999999999998 1.5951 -0.030999999999999694 0.0 0.0 0.0 0.0 0.0 0.0 -1.8265934578025758e-17 2.141012561521421 1.4926747162211425 0.23313859823392621 0.0017549219604181278 0.0 -1.8265934578025758e-17 2.141012561521421 1.4926747162211425 0.23313859823392621 0.0017549219604181278 0.0 -0.14396865671352163 -0.43562006080319216 0.2020300254283846 -0.0012213596815925638 3.1162765284819756 0.038891915636886834 0.0 0.0 0.0 0.0 0.0 0.0 0.0 0.0 0.0 0.0 0.0 0.0 -0.14396865671352163 -0.43562006080319216 0.2020300254283846 -0.0012213596815925638 3.1162765284819756 0.038891915636886834 0.0 0.0 0.0 0.0 0.0 0.0 0 25.5 25.0 24.5 24.0 23.5 23.0 0.192632 3 239 239 239 239 239 239 1 -0.24626992031694836 0.24493893696896454 -9.813855309892418 0.0 1.0 0.0 48.0 48.0 0.0 0.0 0.0 0.0 0.0 0.0 0.0 0 1 0.0
4993.237999999999 -1.6006999999999998 -1.7271 -2.2029999999999994 -0.8079999999999998 1.5951 -0.030999999999999694 0.0 0.0 0.0 0.0 0.0 0.0 0.0 0.0 0.0 0.0 0.0 0.0 -1.8265934578025758e-17 2.141012561521421 1.4926747162211425 0.23313859823392621 0.0017549219604181278 0.0 -1.8139026517764549e-16 21.261372344464824 14.823039108277811 1.811941528544163 0.01363916573027167 0.0 -1.6006999999999998 -1.7271 -2.2029999999999994 -0.8079999999999998 1.5951 -0.030999999999999694 0.0 0.0 0.0 0.0 0.0 0.0 -1.8265934578025758e-17 2.141012561521421 1.4926747162211425 0.23313859823392621 0.0017549219604181278 0.0 -1.8265934578025758e-17 2.141012561521421 1.4926747162211425 0.23313859823392621 0.0017549219604181278 0.0 -0.14396865671352163 -0.43562006080319216 0.2020300254283846 -0.0012213596815925638 3.1162765284819756 0.038891915636886834 0.0 0.0 0.0 0.0 0.0 0.0 0.0 0.0 0.0 0.0 0.0 0.0 -0.14396865671352163 -0.43562006080319216 0.2020300254283846 -0.0012213596815925638 3.1162765284819756 0.038891915636886834 0.0 0.0 0.0 0.0 0.0 0.0 0 25.5 25.0 24.5 24.0 23.5 23.0 0.15685300000000002 3 239 239 239 239 239 239 1 -0.24626992031694836 0.24493893696896454 -9.813855309892418 0.0 1.0 0.0 48.0 48.0 0.0 0.0 0.0 0.0 0.0 0.0 0.0 0 1 0.0
4993.246 -1.6006999999999998 -1.7271 -2.2029999999999994 -0.8079999999999998 1.5951 -0.030999999999999694 0.0 0.0 0.0 0.0 0.0 0.0 0.0 0.0 0.0 0.0 0.0 0.0 -1.8265934578025758e-17 2.141012561521421 1.4926747162211425 0.23313859823392621 0.0017549219604181278 0.0 -1.8139026517764549e-16 21.261372344464824 14.823039108277811 1.811941528544163 0.01363916573027167 0.0 -1.6006999999999998 -1.7271 -2.2029999999999994 -0.8079999999999998 1.5951 -0.030999999999999694 0.0 0.0 0.0 0.0 0.0 0.0 -1.8265934578025758e-17 2.141012561521421 1.4926747162211425 0.23313859823392621 0.0017549219604181278 0.0 -1.8265934578025758e-17 2.141012561521421 1.4926747162211425 0.23313859823392621 0.0017549219604181278 0.0 -0.14396865671352163 -0.43562006080319216 0.2020300254283846 -0.0012213596815925638 3.1162765284819756 0.038891915636886834 0.0 0.0 0.0 0.0 0.0 0.0 0.0 0.0 0.0 0.0 0.0 0.0 -0.14396865671352163 -0.43562006080319216 0.2020300254283846 -0.0012213596815925638 3.1162765284819756 0.038891915636886834 0.0 0.0 0.0 0.0 0.0 0.0 0 25.5 25.0 24.5 24.0 23.5 23.0 0.156415 3 239 239 239 239 239 239 1 -0.24626992031694836 0.24493893696896454 -9.813855309892418 0.0 1.0 0.0 48.0 48.0 0.0 0.0 0.0 0.0 0.0 0.0 0.0 0 1 0.0
4993.254 -1.6006999999999998 -1.7271 -2.2029999999999994 -0.8079999999999998 1.5951 -0.030999999999999694 0.0 0.0 0.0 0.0 0.0 0.0 0.0 0.0 0.0 0.0 0.0 0.0 -1.8265934578025758e-17 2.141012561521421 1.4926747162211425 0.23313859823392621 0.0017549219604181278 0.0 -1.8139026517764549e-16 21.261372344464824 14.823039108277811 1.811941528544163 0.01363916573027167 0.0 -1.6006999999999998 -1.7271 -2.2029999999999994 -0.8079999999999998 1.5951 -0.030999999999999694 0.0 0.0 0.0 0.0 0.0 0.0 -1.8265934578025758e-17 2.141012561521421 1.4926747162211425 0.23313859823392621 0.0017549219604181278 0.0 -1.8265934578025758e-17 2.141012561521421 1.4926747162211425 0.23313859823392621 0.0017549219604181278 0.0 -0.14396865671352163 -0.43562006080319216 0.2020300254283846 -0.0012213596815925638 3.1162765284819756 0.038891915636886834 0.0 0.0 0.0 0.0 0.0 0.0 0.0 0.0 0.0 0.0 0.0 0.0 -0.14396865671352163 -0.43562006080319216 0.2020300254283846 -0.0012213596815925638 3.1162765284819756 0.038891915636886834 0.0 0.0 0.0 0.0 0.0 0.0 0 25.5 25.0 24.5 24.0 23.5 23.0 0.156414 3 239 239 239 239 239 239 1 -0.24626992031694836 0.24493893696896454 -9.813855309892418 0.0 1.0 0.0 48.0 48.0 0.0 0.0 0.0 0.0 0.0 0.0 0.0 0 1 0.0
4993.262 -1.6006999999999998 -1.7271 -2.2029999999999994 -0.8079999999999998 1.5951 -0.030999999999999694 0.0 0.0 0.0 0.0 0.0 0.0 0.0 0.0 0.0 0.0 0.0 0.0 -1.8265934578025758e-17 2.141012561521421 1.4926747162211425 0.23313859823392621 0.0017549219604181278 0.0 -1.8139026517764549e-16 21.261372344464824 14.823039108277811 1.811941528544163 0.01363916573027167 0.0 -1.6006999999999998 -1.7271 -2.2029999999999994 -0.8079999999999998 1.5951 -0.030999999999999694 0.0 0.0 0.0 0.0 0.0 0.0 -1.8265934578025758e-17 2.141012561521421 1.4926747162211425 0.23313859823392621 0.0017549219604181278 0.0 -1.8265934578025758e-17 2.141012561521421 1.4926747162211425 0.23313859823392621 0.0017549219604181278 0.0 -0.14396865671352163 -0.43562006080319216 0.2020300254283846 -0.0012213596815925638 3.1162765284819756 0.038891915636886834 0.0 0.0 0.0 0.0 0.0 0.0 0.0 0.0 0.0 0.0 0.0 0.0 -0.14396865671352163 -0.43562006080319216 0.2020300254283846 -0.0012213596815925638 3.1162765284819756 0.038891915636886834 0.0 0.0 0.0 0.0 0.0 0.0 0 25.5 25.0 24.5 24.0 23.5 23.0 0.156015 3 239 239 239 239 239 239 1 -0.24626992031694836 0.24493893696896454 -9.813855309892418 0.0 1.0 0.0 48.0 48.0 0.0 0.0 0.0 0.0 0.0 0.0 0.0 0 1 0.0
4993.2699999999995 -1.6006999999999998 -1.7271 -2.2029999999999994 -0.8079999999999998 1.5951 -0.030999999999999694 0.0 0.0 0.0 0.0 0.0 0.0 0.0 0.0 0.0 0.0 0.0 0.0 -1.8265934578025758e-17 2.141012561521421 1.4926747162211425 0.23313859823392621 0.0017549219604181278 0.0 -1.8139026517764549e-16 21.261372344464824 14.823039108277811 1.811941528544163 0.01363916573027167 0.0 -1.6006999999999998 -1.7271 -2.2029999999999994 -0.8079999999999998 1.5951 -0.030999999999999694 0.0 0.0 0.0 0.0 0.0 0.0 -1.8265934578025758e-17 2.141012561521421 1.4926747162211425 0.23313859823392621 0.0017549219604181278 0.0 -1.8265934578025758e-17 2.141012561521421 1.4926747162211425 0.23313859823392621 0.0017549219604181278 0.0 -0.14396865671352163 -0.43562006080319216 0.2020300254283846 -0.0012213596815925638 3.1162765284819756 0.038891915636886834 0.0 0.0 0.0 0.0 0.0 0.0 0.0 0.0 0.0 0.0 0.0 0.0 -0.14396865671352163 -0.43562006080319216 0.2020300254283846 -0.0012213596815925638 3.1162765284819756 0.038891915636886834 0.0 0.0 0.0 0.0 0.0 0.0 0 25.5 25.0 24.5 24.0 23.5 23.0 0.157389 3 239 239 239 239 239 239 1 -0.24626992031694836 0.24493893696896454 -9.813855309892418 0.0 1.0 0.0 48.0 48.0 0.0 0.0 0.0 0.0 0.0 0.0 0.0 0 1 0.0
4993.277999999999 -1.6006999999999998 -1.7271 -2.2029999999999994 -0.8079999999999998 1.5951 -0.030999999999999694 0.0 0.0 0.0 0.0 0.0 0.0 0.0 0.0 0.0 0.0 0.0 0.0 -1.8265934578025758e-17 2.141012561521421 1.4926747162211425 0.23313859823392621 0.0017549219604181278 0.0 -1.8139026517764549e-16 21.261372344464824 14.823039108277811 1.811941528544163 0.01363916573027167 0.0 -1.6006999999999998 -1.7271 -2.2029999999999994 -0.8079999999999998 1.5951 -0.030999999999999694 0.0 0.0 0.0 0.0 0.0 0.0 -1.8265934578025758e-17 2.141012561521421 1.4926747162211425 0.23313859823392621 0.0017549219604181278 0.0 -1.8265934578025758e-17 2.141012561521421 1.4926747162211425 0.23313859823392621 0.0017549219604181278 0.0 -0.14396865671352163 -0.43562006080319216 0.2020300254283846 -0.0012213596815925638 3.1162765284819756 0.038891915636886834 0.0 0.0 0.0 0.0 0.0 0.0 0.0 0.0 0.0 0.0 0.0 0.0 -0.14396865671352163 -0.43562006080319216 0.2020300254283846 -0.0012213596815925638 3.1162765284819756 0.038891915636886834 0.0 0.0 0.0 0.0 0.0 0.0 0 25.5 25.0 24.5 24.0 23.5 23.0 0.156345 3 239 239 239 239 239 239 1 -0.24626992031694836 0.24493893696896454 -9.813855309892418 0.0 1.0 0.0 48.0 48.0 0.0 0.0 0.0 0.0 0.0 0.0 0.0 0 1 0.0
4993.286 -1.6006999999999998 -1.7271 -2.2029999999999994 -0.8079999999999998 1.5951 -0.030999999999999694 0.0 0.0 0.0 0.0 0.0 0.0 0.0 0.0 0.0 0.0 0.0 0.0 -1.8265934578025758e-17 2.141012561521421 1.4926747162211425 0.23313859823392621 0.0017549219604181278 0.0 -1.8139026517764549e-16 21.261372344464824 14.823039108277811 1.811941528544163 0.01363916573027167 0.0 -1.6006999999999998 -1.7271 -2.2029999999999994 -0.8079999999999998 1.5951 -0.030999999999999694 0.0 0.0 0.0 0.0 0.0 0.0 -1.8265934578025758e-17 2.141012561521421 1.4926747162211425 0.23313859823392621 0.0017549219604181278 0.0 -1.8265934578025758e-17 2.141012561521421 1.4926747162211425 0.23313859823392621 0.0017549219604181278 0.0 -0.14396865671352163 -0.43562006080319216 0.2020300254283846 -0.0012213596815925638 3.1162765284819756 0.038891915636886834 0.0 0.0 0.0 0.0 0.0 0.0 0.0 0.0 0.0 0.0 0.0 0.0 -0.14396865671352163 -0.43562006080319216 0.2020300254283846 -0.0012213596815925638 3.1162765284819756 0.038891915636886834 0.0 0.0 0.0 0.0 0.0 0.0 0 25.5 25.0 24.5 24.0 23.5 23.0 0.159434 3 239 239 239 239 239 239 1 -0.24626992031694836 0.24493893696896454 -9.813855309892418 0.0 1.0 0.0 48.0 48.0 0.0 0.0 0.0 0.0 0.0 0.0 0.0 0 1 0.0
4993.294 -1.6006999999999998 -1.7271 -2.2029999999999994 -0.8079999999999998 1.5951 -0.030999999999999694 0.0 0.0 0.0 0.0 0.0 0.0 0.0 0.0 0.0 0.0 0.0 0.0 -1.8265934578025758e-17 2.141012561521421 1.4926747162211425 0.23313859823392621 0.0017549219604181278 0.0 -1.8139026517764549e-16 21.261372344464824 14.823039108277811 1.811941528544163 0.01363916573027167 0.0 -1.6006999999999998 -1.7271 -2.2029999999999994 -0.8079999999999998 1.5951 -0.030999999999999694 0.0 0.0 0.0 0.0 0.0 0.0 -1.8265934578025758e-17 2.141012561521421 1.4926747162211425 0.23313859823392621 0.0017549219604181278 0.0 -1.8265934578025758e-17 2.141012561521421 1.4926747162211425 0.23313859823392621 0.0017549219604181278 0.0 -0.14396865671352163 -0.43562006080319216 0.2020300254283846 -0.0012213596815925638 3.1162765284819756 0.038891915636886834 0.0 0.0 0.0 0.0 0.0 0.0 0.0 0.0 0.0 0.0 0.0 0.0 -0.14396865671352163 -0.43562006080319216 0.2020300254283846 -0.0012213596815925638 3.1162765284819756 0.038891915636886834 0.0 0.0 0.0 0.0 0.0 0.0 0 25.5 25.0 24.5 24.0 23.5 23.0 0.183598 3 239 239 239 239 239 239 1 -0.24626992031694836 0.24493893696896454 -9.813855309892418 0.0 1.0 0.0 48.0 48.0 0.0 0.0 0.0 0.0 0.0 0.0 0.0 0 1 0.0
4993.302 -1.6006999999999998 -1.7271 -2.2029999999999994 -0.8079999999999998 1.5951 -0.030999999999999694 0.0 0.0 0.0 0.0 0.0 0.0 0.0 0.0 0.0 0.0 0.0 0.0 -1.8265934578025758e-17 2.141012561521421 1.4926747162211425 0.23313859823392621 0.0017549219604181278 0.0 -1.8139026517764549e-16 21.261372344464824 14.823039108277811 1.811941528544163 0.01363916573027167 0.0 -1.6006999999999998 -1.7271 -2.2029999999999994 -0.8079999999999998 1.5951 -0.030999999999999694 0.0 0.0 0.0 0.0 0.0 0.0 -1.8265934578025758e-17 2.141012561521421 1.4926747162211425 0.23313859823392621 0.0017549219604181278 0.0 -1.8265934578025758e-17 2.141012561521421 1.4926747162211425 0.23313859823392621 0.0017549219604181278 0.0 -0.14396865671352163 -0.43562006080319216 0.2020300254283846 -0.0012213596815925638 3.1162765284819756 0.038891915636886834 0.0 0.0 0.0 0.0 0.0 0.0 0.0 0.0 0.0 0.0 0.0 0.0 -0.14396865671352163 -0.43562006080319216 0.2020300254283846 -0.0012213596815925638 3.1162765284819756 0.038891915636886834 0.0 0.0 0.0 0.0 0.0 0.0 0 25.5 25.0 24.5 24.0 23.5 23.0 0.156577 3 239 239 239 239 239 239 1 -0.24626992031694836 0.24493893696896454 -9.813855309892418 0.0 1.0 0.0 48.0 48.0 0.0 0.0 0.0 0.0 0.0 0.0 0.0 0 1 0.0
4993.3099999999995 -1.6006999999999998 -1.7271 -2.2029999999999994 -0.8079999999999998 1.5951 -0.030999999999999694 0.0 0.0 0.0 0.0 0.0 0.0 0.0 0.0 0.0 0.0 0.0 0.0 -1.8265934578025758e-17 2.141012561521421 1.4926747162211425 0.23313859823392621 0.0017549219604181278 0.0 -1.8139026517764549e-16 21.261372344464824 14.823039108277811 1.811941528544163 0.01363916573027167 0.0 -1.6006999999999998 -1.7271 -2.2029999999999994 -0.8079999999999998 1.5951 -0.030999999999999694 0.0 0.0 0.0 0.0 0.0 0.0 -1.8265934578025758e-17 2.141012561521421 1.4926747162211425 0.23313859823392621 0.0017549219604181278 0.0 -1.8265934578025758e-17 2.141012561521421 1.4926747162211425 0.23313859823392621 0.0017549219604181278 0.0 -0.14396865671352163 -0.43562006080319216 0.2020300254283846 -0.0012213596815925638 3.1162765284819756 0.038891915636886834 0.0 0.0 0.0 0.0 0.0 0.0 0.0 0.0 0.0 0.0 0.0 0.0 -0.14396865671352163 -0.43562006080319216 0.2020300254283846 -0.0012213596815925638 3.1162765284819756 0.038891915636886834 0.0 0.0 0.0 0.0 0.0 0.0 0 25.5 25.0 24.5 24.0 23.5 23.0 0.155857 3 239 239 239 239 239 239 1 -0.24626992031694836 0.24493893696896454 -9.813855309892418 0.0 1.0 0.0 48.0 48.0 0.0 0.0 0.0 0.0 0.0 0.0 0.0 0 1 0.0
4993.318 -1.6006999999999998 -1.7271 -2.2029999999999994 -0.8079999999999998 1.5951 -0.030999999999999694 0.0 0.0 0.0 0.0 0.0 0.0 0.0 0.0 0.0 0.0 0.0 0.0 -1.8265934578025758e-17 2.141012561521421 1.4926747162211425 0.23313859823392621 0.0017549219604181278 0.0 -1.8139026517764549e-16 21.261372344464824 14.823039108277811 1.811941528544163 0.01363916573027167 0.0 -1.6006999999999998 -1.7271 -2.2029999999999994 -0.8079999999999998 1.5951 -0.030999999999999694 0.0 0.0 0.0 0.0 0.0 0.0 -1.8265934578025758e-17 2.141012561521421 1.4926747162211425 0.23313859823392621 0.0017549219604181278 0.0 -1.8265934578025758e-17 2.141012561521421 1.4926747162211425 0.23313859823392621 0.0017549219604181278 0.0 -0.14396865671352163 -0.43562006080319216 0.2020300254283846 -0.0012213596815925638 3.1162765284819756 0.038891915636886834 0.0 0.0 0.0 0.0 0.0 0.0 0.0 0.0 0.0 0.0 0.0 0.0 -0.14396865671352163 -0.43562006080319216 0.2020300254283846 -0.0012213596815925638 3.1162765284819756 0.038891915636886834 0.0 0.0 0.0 0.0 0.0 0.0 0 25.5 25.0 24.5 24.0 23.5 23.0 0.156021 3 239 239 239 239 239 239 1 -0.24626992031694836 0.24493893696896454 -9.813855309892418 0.0 1.0 0.0 48.0 48.0 0.0 0.0 0.0 0.0 0.0 0.0 0.0 0 1 0.0
4993.326 -1.6006999999999998 -1.7271 -2.2029999999999994 -0.8079999999999998 1.5951 -0.030999999999999694 0.0 0.0 0.0 0.0 0.0 0.0 0.0 0.0 0.0 0.0 0.0 0.0 -1.8265934578025758e-17 2.141012561521421 1.4926747162211425 0.23313859823392621 0.0017549219604181278 0.0 -1.8139026517764549e-16 21.261372344464824 14.823039108277811 1.811941528544163 0.01363916573027167 0.0 -1.6006999999999998 -1.7271 -2.2029999999999994 -0.8079999999999998 1.5951 -0.030999999999999694 0.0 0.0 0.0 0.0 0.0 0.0 -1.8265934578025758e-17 2.141012561521421 1.4926747162211425 0.23313859823392621 0.0017549219604181278 0.0 -1.8265934578025758e-17 2.141012561521421 1.4926747162211425 0.23313859823392621 0.0017549219604181278 0.0 -0.14396865671352163 -0.43562006080319216 0.2020300254283846 -0.0012213596815925638 3.1162765284819756 0.038891915636886834 0.0 0.0 0.0 0.0 0.0 0.0 0.0 0.0 0.0 0.0 0.0 0.0 -0.14396865671352163 -0.43562006080319216 0.2020300254283846 -0.0012213596815925638 3.1162765284819756 0.038891915636886834 0.0 0.0 0.0 0.0 0.0 0.0 0 25.5 25.0 24.5 24.0 23.5 23.0 0.15637 3 239 239 239 239 239 239 1 -0.24626992031694836 0.24493893696896454 -9.813855309892418 0.0 1.0 0.0 48.0 48.0 0.0 0.0 0.0 0.0 0.0 0.0 0.0 0 1 0.0
4993.334 -1.6006999999999998 -1.7271 -2.2029999999999994 -0.8079999999999998 1.5951 -0.030999999999999694 0.0 0.0 0.0 0.0 0.0 0.0 0.0 0.0 0.0 0.0 0.0 0.0 -1.8265934578025758e-17 2.141012561521421 1.4926747162211425 0.23313859823392621 0.0017549219604181278 0.0 -1.8139026517764549e-16 21.261372344464824 14.823039108277811 1.811941528544163 0.01363916573027167 0.0 -1.6006999999999998 -1.7271 -2.2029999999999994 -0.8079999999999998 1.5951 -0.030999999999999694 0.0 0.0 0.0 0.0 0.0 0.0 -1.8265934578025758e-17 2.141012561521421 1.4926747162211425 0.23313859823392621 0.0017549219604181278 0.0 -1.8265934578025758e-17 2.141012561521421 1.4926747162211425 0.23313859823392621 0.0017549219604181278 0.0 -0.14396865671352163 -0.43562006080319216 0.2020300254283846 -0.0012213596815925638 3.1162765284819756 0.038891915636886834 0.0 0.0 0.0 0.0 0.0 0.0 0.0 0.0 0.0 0.0 0.0 0.0 -0.14396865671352163 -0.43562006080319216 0.2020300254283846 -0.0012213596815925638 3.1162765284819756 0.038891915636886834 0.0 0.0 0.0 0.0 0.0 0.0 0 25.5 25.0 24.5 24.0 23.5 23.0 0.15643100000000001 3 239 239 239 239 239 239 1 -0.24626992031694836 0.24493893696896454 -9.813855309892418 0.0 1.0 0.0 48.0 48.0 0.0 0.0 0.0 0.0 0.0 0.0 0.0 0 1 0.0
4993.342 -1.6006999999999998 -1.7271 -2.2029999999999994 -0.8079999999999998 1.5951 -0.030999999999999694 0.0 0.0 0.0 0.0 0.0 0.0 0.0 0.0 0.0 0.0 0.0 0.0 -1.8265934578025758e-17 2.141012561521421 1.4926747162211425 0.23313859823392621 0.0017549219604181278 0.0 -1.8139026517764549e-16 21.261372344464824 14.823039108277811 1.811941528544163 0.01363916573027167 0.0 -1.6006999999999998 -1.7271 -2.2029999999999994 -0.8079999999999998 1.5951 -0.030999999999999694 0.0 0.0 0.0 0.0 0.0 0.0 -1.8265934578025758e-17 2.141012561521421 1.4926747162211425 0.23313859823392621 0.0017549219604181278 0.0 -1.8265934578025758e-17 2.141012561521421 1.4926747162211425 0.23313859823392621 0.0017549219604181278 0.0 -0.14396865671352163 -0.43562006080319216 0.2020300254283846 -0.0012213596815925638 3.1162765284819756 0.038891915636886834 0.0 0.0 0.0 0.0 0.0 0.0 0.0 0.0 0.0 0.0 0.0 0.0 -0.14396865671352163 -0.43562006080319216 0.2020300254283846 -0.0012213596815925638 3.1162765284819756 0.038891915636886834 0.0 0.0 0.0 0.0 0.0 0.0 0 25.5 25.0 24.5 24.0 23.5 23.0 0.156202 3 239 239 239 239 239 239 1 -0.24626992031694836 0.24493893696896454 -9.813855309892418 0.0 1.0 0.0 48.0 48.0 0.0 0.0 0.0 0.0 0.0 0.0 0.0 0 1 0.0
4993.349999999999 -1.6006999999999998 -1.7271 -2.2029999999999994 -0.8079999999999998 1.5951 -0.030999999999999694 0.0 0.0 0.0 0.0 0.0 0.0 0.0 0.0 0.0 0.0 0.0 0.0 -1.8265934578025758e-17 2.141012561521421 1.4926747162211425 0.23313859823392621 0.0017549219604181278 0.0 -1.8139026517764549e-16 21.261372344464824 14.823039108277811 1.811941528544163 0.01363916573027167 0.0 -1.6006999999999998 -1.7271 -2.2029999999999994 -0.8079999999999998 1.5951 -0.030999999999999694 0.0 0.0 0.0 0.0 0.0 0.0 -1.8265934578025758e-17 2.141012561521421 1.4926747162211425 0.23313859823392621 0.0017549219604181278 0.0 -1.8265934578025758e-17 2.141012561521421 1.4926747162211425 0.23313859823392621 0.0017549219604181278 0.0 -0.14396865671352163 -0.43562006080319216 0.2020300254283846 -0.0012213596815925638 3.1162765284819756 0.038891915636886834 0.0 0.0 0.0 0.0 0.0 0.0 0.0 0.0 0.0 0.0 0.0 0.0 -0.14396865671352163 -0.43562006080319216 0.2020300254283846 -0.0012213596815925638 3.1162765284819756 0.038891915636886834 0.0 0.0 0.0 0.0 0.0 0.0 0 25.5 25.0 24.5 24.0 23.5 23.0 0.156365 3 239 239 239 239 239 239 1 -0.24626992031694836 0.24493893696896454 -9.813855309892418 0.0 1.0 0.0 48.0 48.0 0.0 0.0 0.0 0.0 0.0 0.0 0.0 0 1 0.0
4993.358 -1.6006999999999998 -1.7271 -2.2029999999999994 -0.8079999999999998 1.5951 -0.030999999999999694 0.0 0.0 0.0 0.0 0.0 0.0 0.0 0.0 0.0 0.0 0.0 0.0 -1.8265934578025758e-17 2.141012561521421 1.4926747162211425 0.23313859823392621 0.0017549219604181278 0.0 -1.8139026517764549e-16 21.261372344464824 14.823039108277811 1.811941528544163 0.01363916573027167 0.0 -1.6006999999999998 -1.7271 -2.2029999999999994 -0.8079999999999998 1.5951 -0.030999999999999694 0.0 0.0 0.0 0.0 0.0 0.0 -1.8265934578025758e-17 2.141012561521421 1.4926747162211425 0.23313859823392621 0.0017549219604181278 0.0 -1.8265934578025758e-17 2.141012561521421 1.4926747162211425 0.23313859823392621 0.0017549219604181278 0.0 -0.14396865671352163 -0.43562006080319216 0.2020300254283846 -0.0012213596815925638 3.1162765284819756 0.038891915636886834 0.0 0.0 0.0 0.0 0.0 0.0 0.0 0.0 0.0 0.0 0.0 0.0 -0.14396865671352163 -0.43562006080319216 0.2020300254283846 -0.0012213596815925638 3.1162765284819756 0.038891915636886834 0.0 0.0 0.0 0.0 0.0 0.0 0 25.5 25.0 24.5 24.0 23.5 23.0 0.19739400000000001 3 239 239 239 239 239 239 1 -0.24626992031694836 0.24493893696896454 -9.813855309892418 0.0 1.0 0.0 48.0 48.0 0.0 0.0 0.0 0.0 0.0 0.0 0.0 0 1 0.0
4993.366 -1.6006999999999998 -1.7271 -2.2029999999999994 -0.8079999999999998 1.5951 -0.030999999999999694 0.0 0.0 0.0 0.0 0.0 0.0 0.0 0.0 0.0 0.0 0.0 0.0 -1.8265934578025758e-17 2.141012561521421 1.4926747162211425 0.23313859823392621 0.0017549219604181278 0.0 -1.8139026517764549e-16 21.261372344464824 14.823039108277811 1.811941528544163 0.01363916573027167 0.0 -1.6006999999999998 -1.7271 -2.2029999999999994 -0.8079999999999998 1.5951 -0.030999999999999694 0.0 0.0 0.0 0.0 0.0 0.0 -1.8265934578025758e-17 2.141012561521421 1.4926747162211425 0.23313859823392621 0.0017549219604181278 0.0 -1.8265934578025758e-17 2.141012561521421 1.4926747162211425 0.23313859823392621 0.0017549219604181278 0.0 -0.14396865671352163 -0.43562006080319216 0.2020300254283846 -0.0012213596815925638 3.1162765284819756 0.038891915636886834 0.0 0.0 0.0 0.0 0.0 0.0 0.0 0.0 0.0 0.0 0.0 0.0 -0.14396865671352163 -0.43562006080319216 0.2020300254283846 -0.0012213596815925638 3.1162765284819756 0.038891915636886834 0.0 0.0 0.0 0.0 0.0 0.0 0 25.5 25.0 24.5 24.0 23.5 23.0 0.156771 3 239 239 239 239 239 239 1 -0.24626992031694836 0.24493893696896454 -9.813855309892418 0.0 1.0 0.0 48.0 48.0 0.0 0.0 0.0 0.0 0.0 0.0 0.0 0 1 0.0
4993.374 -1.6006999999999998 -1.7271 -2.2029999999999994 -0.8079999999999998 1.5951 -0.030999999999999694 0.0 0.0 0.0 0.0 0.0 0.0 0.0 0.0 0.0 0.0 0.0 0.0 -1.8265934578025758e-17 2.141012561521421 1.4926747162211425 0.23313859823392621 0.0017549219604181278 0.0 -1.8139026517764549e-16 21.261372344464824 14.823039108277811 1.811941528544163 0.01363916573027167 0.0 -1.6006999999999998 -1.7271 -2.2029999999999994 -0.8079999999999998 1.5951 -0.030999999999999694 0.0 0.0 0.0 0.0 0.0 0.0 -1.8265934578025758e-17 2.141012561521421 1.4926747162211425 0.23313859823392621 0.0017549219604181278 0.0 -1.8265934578025758e-17 2.141012561521421 1.4926747162211425 0.23313859823392621 0.0017549219604181278 0.0 -0.14396865671352163 -0.43562006080319216 0.2020300254283846 -0.0012213596815925638 3.1162765284819756 0.038891915636886834 0.0 0.0 0.0 0.0 0.0 0.0 0.0 0.0 0.0 0.0 0.0 0.0 -0.14396865671352163 -0.43562006080319216 0.2020300254283846 -0.0012213596815925638 3.1162765284819756 0.038891915636886834 0.0 0.0 0.0 0.0 0.0 0.0 0 25.5 25.0 24.5 24.0 23.5 23.0 0.156469 3 239 239 239 239 239 239 1 -0.24626992031694836 0.24493893696896454 -9.813855309892418 0.0 1.0 0.0 48.0 48.0 0.0 0.0 0.0 0.0 0.0 0.0 0.0 0 1 0.0
4993.382 -1.6006999999999998 -1.7271 -2.2029999999999994 -0.8079999999999998 1.5951 -0.030999999999999694 0.0 0.0 0.0 0.0 0.0 0.0 0.0 0.0 0.0 0.0 0.0 0.0 -1.8265934578025758e-17 2.141012561521421 1.4926747162211425 0.23313859823392621 0.0017549219604181278 0.0 -1.8139026517764549e-16 21.261372344464824 14.823039108277811 1.811941528544163 0.01363916573027167 0.0 -1.6006999999999998 -1.7271 -2.2029999999999994 -0.8079999999999998 1.5951 -0.030999999999999694 0.0 0.0 0.0 0.0 0.0 0.0 -1.8265934578025758e-17 2.141012561521421 1.4926747162211425 0.23313859823392621 0.0017549219604181278 0.0 -1.8265934578025758e-17 2.141012561521421 1.4926747162211425 0.23313859823392621 0.0017549219604181278 0.0 -0.14396865671352163 -0.43562006080319216 0.2020300254283846 -0.0012213596815925638 3.1162765284819756 0.038891915636886834 0.0 0.0 0.0 0.0 0.0 0.0 0.0 0.0 0.0 0.0 0.0 0.0 -0.14396865671352163 -0.43562006080319216 0.2020300254283846 -0.0012213596815925638 3.1162765284819756 0.038891915636886834 0.0 0.0 0.0 0.0 0.0 0.0 0 25.5 25.0 24.5 24.0 23.5 23.0 0.156349 3 239 239 239 239 239 239 1 -0.24626992031694836 0.24493893696896454 -9.813855309892418 0.0 1.0 0.0 48.0 48.0 0.0 0.0 0.0 0.0 0.0 0.0 0.0 0 1 0.0
4993.389999999999 -1.6006999999999998 -1.7271 -2.2029999999999994 -0.8079999999999998 1.5951 -0.030999999999999694 0.0 0.0 0.0 0.0 0.0 0.0 0.0 0.0 0.0 0.0 0.0 0.0 -1.8265934578025758e-17 2.141012561521421 1.4926747162211425 0.23313859823392621 0.0017549219604181278 0.0 -1.8139026517764549e-16 21.261372344464824 14.823039108277811 1.811941528544163 0.01363916573027167 0.0 -1.6006999999999998 -1.7271 -2.2029999999999994 -0.8079999999999998 1.5951 -0.030999999999999694 0.0 0.0 0.0 0.0 0.0 0.0 -1.8265934578025758e-17 2.141012561521421 1.4926747162211425 0.23313859823392621 0.0017549219604181278 0.0 -1.8265934578025758e-17 2.141012561521421 1.4926747162211425 0.23313859823392621 0.0017549219604181278 0.0 -0.14396865671352163 -0.43562006080319216 0.2020300254283846 -0.0012213596815925638 3.1162765284819756 0.038891915636886834 0.0 0.0 0.0 0.0 0.0 0.0 0.0 0.0 0.0 0.0 0.0 0.0 -0.14396865671352163 -0.43562006080319216 0.2020300254283846 -0.0012213596815925638 3.1162765284819756 0.038891915636886834 0.0 0.0 0.0 0.0 0.0 0.0 0 25.5 25.0 24.5 24.0 23.5 23.0 0.156232 3 239 239 239 239 239 239 1 -0.24626992031694836 0.24493893696896454 -9.813855309892418 0.0 1.0 0.0 48.0 48.0 0.0 0.0 0.0 0.0 0.0 0.0 0.0 0 1 0.0
4993.398 -1.6006999999999998 -1.7271 -2.2029999999999994 -0.8079999999999998 1.5951 -0.030999999999999694 0.0 0.0 0.0 0.0 0.0 0.0 0.0 0.0 0.0 0.0 0.0 0.0 -1.8265934578025758e-17 2.141012561521421 1.4926747162211425 0.23313859823392621 0.0017549219604181278 0.0 -1.8139026517764549e-16 21.261372344464824 14.823039108277811 1.811941528544163 0.01363916573027167 0.0 -1.6006999999999998 -1.7271 -2.2029999999999994 -0.8079999999999998 1.5951 -0.030999999999999694 0.0 0.0 0.0 0.0 0.0 0.0 -1.8265934578025758e-17 2.141012561521421 1.4926747162211425 0.23313859823392621 0.0017549219604181278 0.0 -1.8265934578025758e-17 2.141012561521421 1.4926747162211425 0.23313859823392621 0.0017549219604181278 0.0 -0.14396865671352163 -0.43562006080319216 0.2020300254283846 -0.0012213596815925638 3.1162765284819756 0.038891915636886834 0.0 0.0 0.0 0.0 0.0 0.0 0.0 0.0 0.0 0.0 0.0 0.0 -0.14396865671352163 -0.43562006080319216 0.2020300254283846 -0.0012213596815925638 3.1162765284819756 0.038891915636886834 0.0 0.0 0.0 0.0 0.0 0.0 0 25.5 25.0 24.5 24.0 23.5 23.0 0.156552 3 239 239 239 239 239 239 1 -0.24626992031694836 0.24493893696896454 -9.813855309892418 0.0 1.0 0.0 48.0 48.0 0.0 0.0 0.0 0.0 0.0 0.0 0.0 0 1 0.0
4993.406 -1.6006999999999998 -1.7271 -2.2029999999999994 -0.8079999999999998 1.5951 -0.030999999999999694 0.0 0.0 0.0 0.0 0.0 0.0 0.0 0.0 0.0 0.0 0.0 0.0 -1.8265934578025758e-17 2.141012561521421 1.4926747162211425 0.23313859823392621 0.0017549219604181278 0.0 -1.8139026517764549e-16 21.261372344464824 14.823039108277811 1.811941528544163 0.01363916573027167 0.0 -1.6006999999999998 -1.7271 -2.2029999999999994 -0.8079999999999998 1.5951 -0.030999999999999694 0.0 0.0 0.0 0.0 0.0 0.0 -1.8265934578025758e-17 2.141012561521421 1.4926747162211425 0.23313859823392621 0.0017549219604181278 0.0 -1.8265934578025758e-17 2.141012561521421 1.4926747162211425 0.23313859823392621 0.0017549219604181278 0.0 -0.14396865671352163 -0.43562006080319216 0.2020300254283846 -0.0012213596815925638 3.1162765284819756 0.038891915636886834 0.0 0.0 0.0 0.0 0.0 0.0 0.0 0.0 0.0 0.0 0.0 0.0 -0.14396865671352163 -0.43562006080319216 0.2020300254283846 -0.0012213596815925638 3.1162765284819756 0.038891915636886834 0.0 0.0 0.0 0.0 0.0 0.0 0 25.5 25.0 24.5 24.0 23.5 23.0 0.156701 3 239 239 239 239 239 239 1 -0.24626992031694836 0.24493893696896454 -9.813855309892418 0.0 1.0 0.0 48.0 48.0 0.0 0.0 0.0 0.0 0.0 0.0 0.0 0 1 0.0
4993.414 -1.6006999999999998 -1.7271 -2.2029999999999994 -0.8079999999999998 1.5951 -0.030999999999999694 0.0 0.0 0.0 0.0 0.0 0.0 0.0 0.0 0.0 0.0 0.0 0.0 -1.8265934578025758e-17 2.141012561521421 1.4926747162211425 0.23313859823392621 0.0017549219604181278 0.0 -1.8139026517764549e-16 21.261372344464824 14.823039108277811 1.811941528544163 0.01363916573027167 0.0 -1.6006999999999998 -1.7271 -2.2029999999999994 -0.8079999999999998 1.5951 -0.030999999999999694 0.0 0.0 0.0 0.0 0.0 0.0 -1.8265934578025758e-17 2.141012561521421 1.4926747162211425 0.23313859823392621 0.0017549219604181278 0.0 -1.8265934578025758e-17 2.141012561521421 1.4926747162211425 0.23313859823392621 0.0017549219604181278 0.0 -0.14396865671352163 -0.43562006080319216 0.2020300254283846 -0.0012213596815925638 3.1162765284819756 0.038891915636886834 0.0 0.0 0.0 0.0 0.0 0.0 0.0 0.0 0.0 0.0 0.0 0.0 -0.14396865671352163 -0.43562006080319216 0.2020300254283846 -0.0012213596815925638 3.1162765284819756 0.038891915636886834 0.0 0.0 0.0 0.0 0.0 0.0 0 25.5 25.0 24.5 24.0 23.5 23.0 0.187418 3 239 239 239 239 239 239 1 -0.24626992031694836 0.24493893696896454 -9.813855309892418 0.0 1.0 0.0 48.0 48.0 0.0 0.0 0.0 0.0 0.0 0.0 0.0 0 1 0.0
4993.422 -1.6006999999999998 -1.7271 -2.2029999999999994 -0.8079999999999998 1.5951 -0.030999999999999694 0.0 0.0 0.0 0.0 0.0 0.0 0.0 0.0 0.0 0.0 0.0 0.0 -1.8265934578025758e-17 2.141012561521421 1.4926747162211425 0.23313859823392621 0.0017549219604181278 0.0 -1.8139026517764549e-16 21.261372344464824 14.823039108277811 1.811941528544163 0.01363916573027167 0.0 -1.6006999999999998 -1.7271 -2.2029999999999994 -0.8079999999999998 1.5951 -0.030999999999999694 0.0 0.0 0.0 0.0 0.0 0.0 -1.8265934578025758e-17 2.141012561521421 1.4926747162211425 0.23313859823392621 0.0017549219604181278 0.0 -1.8265934578025758e-17 2.141012561521421 1.4926747162211425 0.23313859823392621 0.0017549219604181278 0.0 -0.14396865671352163 -0.43562006080319216 0.2020300254283846 -0.0012213596815925638 3.1162765284819756 0.038891915636886834 0.0 0.0 0.0 0.0 0.0 0.0 0.0 0.0 0.0 0.0 0.0 0.0 -0.14396865671352163 -0.43562006080319216 0.2020300254283846 -0.0012213596815925638 3.1162765284819756 0.038891915636886834 0.0 0.0 0.0 0.0 0.0 0.0 0 25.5 25.0 24.5 24.0 23.5 23.0 0.155591 3 239 239 239 239 239 239 1 -0.24626992031694836 0.24493893696896454 -9.813855309892418 0.0 1.0 0.0 48.0 48.0 0.0 0.0 0.0 0.0 0.0 0.0 0.0 0 1 0.0
4993.429999999999 -1.6006999999999998 -1.7271 -2.2029999999999994 -0.8079999999999998 1.5951 -0.030999999999999694 0.0 0.0 0.0 0.0 0.0 0.0 0.0 0.0 0.0 0.0 0.0 0.0 -1.8265934578025758e-17 2.141012561521421 1.4926747162211425 0.23313859823392621 0.0017549219604181278 0.0 -1.8139026517764549e-16 21.261372344464824 14.823039108277811 1.811941528544163 0.01363916573027167 0.0 -1.6006999999999998 -1.7271 -2.2029999999999994 -0.8079999999999998 1.5951 -0.030999999999999694 0.0 0.0 0.0 0.0 0.0 0.0 -1.8265934578025758e-17 2.141012561521421 1.4926747162211425 0.23313859823392621 0.0017549219604181278 0.0 -1.8265934578025758e-17 2.141012561521421 1.4926747162211425 0.23313859823392621 0.0017549219604181278 0.0 -0.14396865671352163 -0.43562006080319216 0.2020300254283846 -0.0012213596815925638 3.1162765284819756 0.038891915636886834 0.0 0.0 0.0 0.0 0.0 0.0 0.0 0.0 0.0 0.0 0.0 0.0 -0.14396865671352163 -0.43562006080319216 0.2020300254283846 -0.0012213596815925638 3.1162765284819756 0.038891915636886834 0.0 0.0 0.0 0.0 0.0 0.0 0 25.5 25.0 24.5 24.0 23.5 23.0 0.155414 3 239 239 239 239 239 239 1 -0.24626992031694836 0.24493893696896454 -9.813855309892418 0.0 1.0 0.0 48.0 48.0 0.0 0.0 0.0 0.0 0.0 0.0 0.0 0 1 0.0
4993.438 -1.6006999999999998 -1.7271 -2.2029999999999994 -0.8079999999999998 1.5951 -0.030999999999999694 0.0 0.0 0.0 0.0 0.0 0.0 0.0 0.0 0.0 0.0 0.0 0.0 -1.8265934578025758e-17 2.141012561521421 1.4926747162211425 0.23313859823392621 0.0017549219604181278 0.0 -1.8139026517764549e-16 21.261372344464824 14.823039108277811 1.811941528544163 0.01363916573027167 0.0 -1.6006999999999998 -1.7271 -2.2029999999999994 -0.8079999999999998 1.5951 -0.030999999999999694 0.0 0.0 0.0 0.0 0.0 0.0 -1.8265934578025758e-17 2.141012561521421 1.4926747162211425 0.23313859823392621 0.0017549219604181278 0.0 -1.8265934578025758e-17 2.141012561521421 1.4926747162211425 0.23313859823392621 0.0017549219604181278 0.0 -0.14396865671352163 -0.43562006080319216 0.2020300254283846 -0.0012213596815925638 3.1162765284819756 0.038891915636886834 0.0 0.0 0.0 0.0 0.0 0.0 0.0 0.0 0.0 0.0 0.0 0.0 -0.14396865671352163 -0.43562006080319216 0.2020300254283846 -0.0012213596815925638 3.1162765284819756 0.038891915636886834 0.0 0.0 0.0 0.0 0.0 0.0 0 25.5 25.0 24.5 24.0 23.5 23.0 0.155224 3 239 239 239 239 239 239 1 -0.24626992031694836 0.24493893696896454 -9.813855309892418 0.0 1.0 0.0 48.0 48.0 0.0 0.0 0.0 0.0 0.0 0.0 0.0 0 1 0.0
4993.446 -1.6006999999999998 -1.7271 -2.2029999999999994 -0.8079999999999998 1.5951 -0.030999999999999694 0.0 0.0 0.0 0.0 0.0 0.0 0.0 0.0 0.0 0.0 0.0 0.0 -1.8265934578025758e-17 2.141012561521421 1.4926747162211425 0.23313859823392621 0.0017549219604181278 0.0 -1.8139026517764549e-16 21.261372344464824 14.823039108277811 1.811941528544163 0.01363916573027167 0.0 -1.6006999999999998 -1.7271 -2.2029999999999994 -0.8079999999999998 1.5951 -0.030999999999999694 0.0 0.0 0.0 0.0 0.0 0.0 -1.8265934578025758e-17 2.141012561521421 1.4926747162211425 0.23313859823392621 0.0017549219604181278 0.0 -1.8265934578025758e-17 2.141012561521421 1.4926747162211425 0.23313859823392621 0.0017549219604181278 0.0 -0.14396865671352163 -0.43562006080319216 0.2020300254283846 -0.0012213596815925638 3.1162765284819756 0.038891915636886834 0.0 0.0 0.0 0.0 0.0 0.0 0.0 0.0 0.0 0.0 0.0 0.0 -0.14396865671352163 -0.43562006080319216 0.2020300254283846 -0.0012213596815925638 3.1162765284819756 0.038891915636886834 0.0 0.0 0.0 0.0 0.0 0.0 0 25.5 25.0 24.5 24.0 23.5 23.0 0.15523599999999999 3 239 239 239 239 239 239 1 -0.24626992031694836 0.24493893696896454 -9.813855309892418 0.0 1.0 0.0 48.0 48.0 0.0 0.0 0.0 0.0 0.0 0.0 0.0 0 1 0.0
