porrasp8/RTDE_PYTHON_CLIENT_LIB_EXPANDED/examples/robot_data.csv
timestamp target_q_0 target_q_1 target_q_2 target_q_3 target_q_4 target_q_5 target_qd_0 target_qd_1 target_qd_2 target_qd_3 target_qd_4 target_qd_5 target_qdd_0 target_qdd_1 target_qdd_2 target_qdd_3 target_qdd_4 target_qdd_5 target_current_0 target_current_1 target_current_2 target_current_3 target_current_4 target_current_5 target_moment_0 target_moment_1 target_moment_2 target_moment_3 target_moment_4 target_moment_5 actual_q_0 actual_q_1 actual_q_2 actual_q_3 actual_q_4 actual_q_5 actual_qd_0 actual_qd_1 actual_qd_2 actual_qd_3 actual_qd_4 actual_qd_5 actual_current_0 actual_current_1 actual_current_2 actual_current_3 actual_current_4 actual_current_5 joint_control_output_0 joint_control_output_1 joint_control_output_2 joint_control_output_3 joint_control_output_4 joint_control_output_5 actual_TCP_pose_0 actual_TCP_pose_1 actual_TCP_pose_2 actual_TCP_pose_3 actual_TCP_pose_4 actual_TCP_pose_5 actual_TCP_speed_0 actual_TCP_speed_1 actual_TCP_speed_2 actual_TCP_speed_3 actual_TCP_speed_4 actual_TCP_speed_5 actual_TCP_force_0 actual_TCP_force_1 actual_TCP_force_2 actual_TCP_force_3 actual_TCP_force_4 actual_TCP_force_5 target_TCP_pose_0 target_TCP_pose_1 target_TCP_pose_2 target_TCP_pose_3 target_TCP_pose_4 target_TCP_pose_5 target_TCP_speed_0 target_TCP_speed_1 target_TCP_speed_2 target_TCP_speed_3 target_TCP_speed_4 target_TCP_speed_5 actual_digital_input_bits joint_temperatures_0 joint_temperatures_1 joint_temperatures_2 joint_temperatures_3 joint_temperatures_4 joint_temperatures_5 actual_execution_time robot_mode joint_mode_0 joint_mode_1 joint_mode_2 joint_mode_3 joint_mode_4 joint_mode_5 safety_status actual_tool_accelerometer_0 actual_tool_accelerometer_1 actual_tool_accelerometer_2 speed_scaling target_speed_fraction actual_momentum actual_main_voltage actual_robot_voltage actual_robot_current actual_joint_voltage_0 actual_joint_voltage_1 actual_joint_voltage_2 actual_joint_voltage_3 actual_joint_voltage_4 actual_joint_voltage_5 actual_digital_output_bits runtime_state joint_position_deviation_ratio
152.512 -1.415152374898092 -1.4149287382708948 -1.7784298102008265 3.1956124305725098 -1.6397460142718714 1.6576306819915771 0.0 0.0 0.0 0.0 0.0 0.0 0.0 0.0 0.0 0.0 0.0 0.0 -3.4366217202561994e-17 2.6020318689302147 4.494641874794851 0.21775098482208408 3.573191639423122e-05 0.0013874862917526072 -4.868019463655754e-16 37.22216257260534 51.54237969054434 2.465192942317517 0.00041842624626333596 0.0161522969244293 -1.415152374898092 -1.4148567358600062 -1.778405491505758 3.1956124305725098 -1.6397340933429163 1.6576306819915771 0.0 0.0 -0.0 0.0 0.0 0.0 -0.2380371391773224 2.114868402481079 3.2663180828094482 0.1413116604089737 0.02018737979233265 0.1143951565027237 -0.2609253227710724 2.101135492324829 3.2483835220336914 0.1390686184167862 0.02467346377670765 0.1031799390912056 -0.05799865455677324 -0.5929222014229338 0.5777651582918071 1.3413632763805425 -1.160223161713052 1.4439416427568683 0.0 0.0 0.0 0.0 0.0 0.0 5.698633364592524 -8.47342736437208 25.50961438961948 2.434023923237532 2.1526861845207836 -0.0897602055328745 -0.05799311327774759 -0.5929502007465529 0.5777073182729541 1.3414462790079775 -1.160289450013499 1.4438993030729628 0.0 0.0 0.0 0.0 0.0 0.0 0 19.959991455078125 20.6090145111084 21.249528884887695 23.148347854614258 27.3264102935791 25.329992294311523 0.340488 7 253 253 253 253 253 253 1 10.303130149841309 -0.3026806712150574 -0.15283875167369843 0.0 1.0 0.0 48.25174331665039 48.19097137451172 0.6803395748138428 48.137001037597656 48.137001037597656 47.87900161743164 48.07600021362305 48.01499938964844 48.07600021362305 768 1 0.000362396240234375
152.51999999999998 -1.415152374898092 -1.4149287382708948 -1.7784298102008265 3.1956124305725098 -1.6397460142718714 1.6576306819915771 0.0 0.0 0.0 0.0 0.0 0.0 0.0 0.0 0.0 0.0 0.0 0.0 -3.4366217202561994e-17 2.6020318689302147 4.494641874794851 0.21775098482208408 3.573191639423122e-05 0.0013874862917526072 -4.868019463655754e-16 37.22216257260534 51.54237969054434 2.465192942317517 0.00041842624626333596 0.0161522969244293 -1.4151042143451136 -1.4148805777179163 -1.7784178892718714 3.195624351501465 -1.639709774647848 1.6576546430587769 0.0 0.0 -0.0 0.0 0.0 0.0 -0.2426147758960724 2.101135492324829 3.2371745109558105 0.1368255764245987 0.0403747595846653 0.0986938551068306 -0.2655029594898224 2.082824945449829 3.2438998222351074 0.1390686184167862 0.02467346377670765 0.1031799390912056 -0.05797065002207898 -0.592935696464247 0.5777443053343505 1.3413903515610823 -1.160248984824023 1.4439628739938313 0.0 0.0 0.0 0.0 0.0 0.0 5.270726863065988 -8.711350183075746 26.05748259103312 2.4860443744541976 1.951363872315055 0.22303124129464538 -0.05799311327774759 -0.5929502007465529 0.5777073182729541 1.3414462790079775 -1.160289450013499 1.4438993030729628 0.0 0.0 0.0 0.0 0.0 0.0 0 19.959991455078125 20.6090145111084 21.249528884887695 23.148347854614258 27.3264102935791 25.329992294311523 0.434664 7 253 253 253 253 253 253 1 10.348082542419434 -0.31766486167907715 -0.1678229421377182 0.0 1.0 0.0 48.25174331665039 48.19097137451172 0.7519552707672119 48.137001037597656 48.137001037597656 47.87900161743164 48.07600021362305 48.01499938964844 48.07600021362305 768 1 0.0007200241088867188
152.528 -1.415152374898092 -1.4149287382708948 -1.7784298102008265 3.1956124305725098 -1.6397460142718714 1.6576306819915771 0.0 0.0 0.0 0.0 0.0 0.0 0.0 0.0 0.0 0.0 0.0 0.0 -3.4366217202561994e-17 2.6020318689302147 4.494641874794851 0.21775098482208408 3.573191639423122e-05 0.0013874862917526072 -4.868019463655754e-16 37.22216257260534 51.54237969054434 2.465192942317517 0.00041842624626333596 0.0161522969244293 -1.4151161352740687 -1.4148805777179163 -1.7784417311297815 3.195624351501465 -1.6397460142718714 1.6576546430587769 0.0 0.0 -0.0 0.0 0.0 0.0 -0.2517700493335724 2.055359125137329 3.2483835220336914 0.1345825344324112 0.02467346377670765 0.1054229810833931 -0.2655029594898224 2.073669672012329 3.2394163608551025 0.1390686184167862 0.02467346377670765 0.1031799390912056 -0.05797481811895273 -0.5929304915949709 0.5777283254640707 1.3414271442621486 -1.1602541210238815 1.4439674392280806 0.0 0.0 0.0 0.0 0.0 0.0 6.243239373896066 -7.123118696442044 25.827376837682525 2.2473389793818943 1.9969969202609308 -0.1161274112114103 -0.05799311327774759 -0.5929502007465529 0.5777073182729541 1.3414462790079775 -1.160289450013499 1.4438993030729628 0.0 0.0 0.0 0.0 0.0 0.0 0 19.959991455078125 20.6090145111084 21.249528884887695 23.148347854614258 27.3264102935791 25.329992294311523 0.38302800000000004 7 253 253 253 253 253 253 1 10.315117835998535 -0.30867433547973633 -0.13785456120967865 0.0 1.0 0.0 48.19097137451172 48.19097137451172 0.6445291042327881 48.137001037597656 48.137001037597656 47.87900161743164 48.07600021362305 48.01499938964844 48.07600021362305 66304 1 0.00048160552978515625
152.536 -1.415152374898092 -1.4149287382708948 -1.7784298102008265 3.1956124305725098 -1.6397460142718714 1.6576306819915771 0.0 0.0 0.0 0.0 0.0 0.0 0.0 0.0 0.0 0.0 0.0 0.0 -3.4366217202561994e-17 2.6020318689302147 4.494641874794851 0.21775098482208408 3.573191639423122e-05 0.0013874862917526072 -4.868019463655754e-16 37.22216257260534 51.54237969054434 2.465192942317517 0.00041842624626333596 0.0161522969244293 -1.4151399771319788 -1.4148805777179163 -1.778393570576803 3.1955761909484863 -1.6397221724139612 1.6576306819915771 0.0 0.0 -0.0 0.0 0.0 0.0 -0.2838135063648224 2.082824945449829 3.2528672218322754 0.1390686184167862 0.0269165076315403 0.1233673244714737 -0.2609253227710724 2.091980218887329 3.2394163608551025 0.1390686184167862 0.02467346377670765 0.1031799390912056 -0.05799122912669768 -0.5929311446310698 0.5777557609264055 1.34140068559424 -1.1602591248390446 1.443916559611168 0.0 0.0 0.0 0.0 0.0 0.0 7.126840960212185 -7.631997347615623 25.792232655595114 2.3390104409347345 2.266715126065137 -0.16075588749325712 -0.05799311327774759 -0.5929502007465529 0.5777073182729541 1.3414462790079775 -1.160289450013499 1.4438993030729628 0.0 0.0 0.0 0.0 0.0 0.0 0 19.959991455078125 20.6090145111084 21.249528884887695 23.148347854614258 27.3264102935791 25.329992294311523 0.385812 7 253 253 253 253 253 253 1 10.318114280700684 -0.2966870069503784 -0.12287037074565887 0.0 1.0 0.0 48.19097137451172 48.19097137451172 0.6803395748138428 48.137001037597656 48.137001037597656 47.87900161743164 48.07600021362305 48.01499938964844 48.06100082397461 131840 1 0.00048160552978515625
152.54399999999998 -1.415152374898092 -1.4149287382708948 -1.7784298102008265 3.1956124305725098 -1.6397460142718714 1.6576306819915771 0.0 0.0 0.0 0.0 0.0 0.0 0.0 0.0 0.0 0.0 0.0 0.0 -3.4366217202561994e-17 2.6020318689302147 4.494641874794851 0.21775098482208408 3.573191639423122e-05 0.0013874862917526072 -4.868019463655754e-16 37.22216257260534 51.54237969054434 2.465192942317517 0.00041842624626333596 0.0161522969244293 -1.4151280562030237 -1.4148686567889612 -1.7784298102008265 3.1956124305725098 -1.6397221724139612 1.6576306819915771 0.0 0.0 -0.0 0.0 0.0 0.0 -0.2746582329273224 2.046203851699829 3.2416579723358154 0.1345825344324112 0.02243042178452015 0.1121521145105362 -0.2655029594898224 2.032470941543579 3.2394163608551025 0.1390686184167862 0.02467346377670765 0.1031799390912056 -0.05798519942124686 -0.5929254762102082 0.5777419747060609 1.341400563896298 -1.1602439483937121 1.4439312368040298 0.0 0.0 0.0 0.0 0.0 0.0 7.079128064311893 -6.864844872943509 25.984573246404384 2.232569669583526 2.092284991257614 -0.23330090347131163 -0.05799311327774759 -0.5929502007465529 0.5777073182729541 1.3414462790079775 -1.160289450013499 1.4438993030729628 0.0 0.0 0.0 0.0 0.0 0.0 0 19.959991455078125 20.6090145111084 21.249528884887695 23.148347854614258 27.3264102935791 25.329992294311523 0.357768 7 253 253 253 253 253 253 1 10.321111679077148 -0.29369014501571655 -0.15883243083953857 0.0 1.0 0.0 48.19097137451172 48.19097137451172 0.6087239384651184 48.137001037597656 48.137001037597656 47.87900161743164 48.07600021362305 48.01499938964844 48.06100082397461 66304 1 0.00048160552978515625
152.552 -1.415152374898092 -1.4149287382708948 -1.7784298102008265 3.1956124305725098 -1.6397460142718714 1.6576306819915771 0.0 0.0 0.0 0.0 0.0 0.0 0.0 0.0 0.0 0.0 0.0 0.0 -3.4366217202561994e-17 2.6020318689302147 4.494641874794851 0.21775098482208408 3.573191639423122e-05 0.0013874862917526072 -4.868019463655754e-16 37.22216257260534 51.54237969054434 2.465192942317517 0.00041842624626333596 0.0161522969244293 -1.4151280562030237 -1.4148924986468714 -1.7784298102008265 3.1956005096435547 -1.639709774647848 1.6576906442642212 0.0 0.0 -0.0 0.0 0.0 0.0 -0.2792358696460724 2.073669672012329 3.2528672218322754 0.1390686184167862 0.02467346377670765 0.1031799390912056 -0.2700805962085724 2.059936761856079 3.2394163608551025 0.1390686184167862 0.02467346377670765 0.1031799390912056 -0.05798440533794607 -0.5929347576611557 0.5777270764794734 1.3413945115588846 -1.1603267166862317 1.443946231178125 0.0 0.0 0.0 0.0 0.0 0.0 7.078882752936505 -7.387964178748398 25.804259087517053 2.352822445620987 1.999197709869129 -0.19084590833876378 -0.05799311327774759 -0.5929502007465529 0.5777073182729541 1.3414462790079775 -1.160289450013499 1.4438993030729628 0.0 0.0 0.0 0.0 0.0 0.0 0 19.959991455078125 20.6090145111084 21.249528884887695 23.148347854614258 27.3264102935791 25.329992294311523 0.36354000000000003 7 253 253 253 253 253 253 1 10.34208869934082 -0.2787059545516968 -0.2157723605632782 0.0 1.0 0.0 48.19097137451172 48.19097137451172 0.7161448001861572 48.137001037597656 48.137001037597656 47.87900161743164 48.07600021362305 48.01499938964844 48.06100082397461 768 1 0.0006008148193359375
152.56 -1.415152374898092 -1.4149287382708948 -1.7784298102008265 3.1956124305725098 -1.6397460142718714 1.6576306819915771 0.0 0.0 0.0 0.0 0.0 0.0 0.0 0.0 0.0 0.0 0.0 0.0 -3.4366217202561994e-17 2.6020318689302147 4.494641874794851 0.21775098482208408 3.573191639423122e-05 0.0013874862917526072 -4.868019463655754e-16 37.22216257260534 51.54237969054434 2.465192942317517 0.00041842624626333596 0.0161522969244293 -1.4151042143451136 -1.4148686567889612 -1.778381649647848 3.1955881118774414 -1.6396978537188929 1.6576546430587769 0.0 0.0 -0.0 0.0 0.0 0.0 -0.2609253227710724 2.059936761856079 3.2528672218322754 0.1547699123620987 0.02018737979233265 0.1009368970990181 -0.2609253227710724 2.073669672012329 3.2394163608551025 0.1390686184167862 0.02467346377670765 0.1031799390912056 -0.057972432585448694 -0.5929317431677006 0.5777718435586938 1.3413721893109551 -1.1602462103186078 1.4439607363440286 0.0 0.0 0.0 0.0 0.0 0.0 6.670727679255955 -7.025388648716951 26.177015785935158 2.5371981752673314 2.009869451718392 -0.2185188567573349 -0.05799311327774759 -0.5929502007465529 0.5777073182729541 1.3414462790079775 -1.160289450013499 1.4438993030729628 0.0 0.0 0.0 0.0 0.0 0.0 0 19.959991455078125 20.6090145111084 21.249528884887695 23.148347854614258 27.329769134521484 25.329992294311523 0.356892 7 253 253 253 253 253 253 1 10.303130149841309 -0.2996838390827179 -0.16482611000537872 0.0 1.0 0.0 48.19097137451172 48.19097137451172 0.6445291042327881 48.137001037597656 48.137001037597656 47.87900161743164 48.07600021362305 48.01499938964844 48.06100082397461 66304 1 0.000362396240234375
152.56799999999998 -1.415152374898092 -1.4149287382708948 -1.7784298102008265 3.1956124305725098 -1.6397460142718714 1.6576306819915771 0.0 0.0 0.0 0.0 0.0 0.0 0.0 0.0 0.0 0.0 0.0 0.0 -3.4366217202561994e-17 2.6020318689302147 4.494641874794851 0.21775098482208408 3.573191639423122e-05 0.0013874862917526072 -4.868019463655754e-16 37.22216257260534 51.54237969054434 2.465192942317517 0.00041842624626333596 0.0161522969244293 -1.4151280562030237 -1.4148805777179163 -1.7784417311297815 3.195624351501465 -1.6397460142718714 1.657618761062622 0.0 0.0 -0.0 0.0 0.0 0.0 -0.2883911430835724 2.064514398574829 3.2394163608551025 0.1457977443933487 0.0291595496237278 0.0852356031537056 -0.2975464165210724 2.055359125137329 3.2394163608551025 0.1390686184167862 0.02467346377670765 0.1031799390912056 -0.05798223414222941 -0.5929298830459027 0.5777282938221452 1.341432559514195 -1.1602307109890333 1.4439334159551382 0.0 0.0 0.0 0.0 0.0 0.0 7.262345136288814 -7.3271654034826685 26.257980740055324 2.514751718226304 1.7995015624088486 -0.15064532811268644 -0.05799311327774759 -0.5929502007465529 0.5777073182729541 1.3414462790079775 -1.160289450013499 1.4438993030729628 0.0 0.0 0.0 0.0 0.0 0.0 0 19.959991455078125 20.609113693237305 21.249528884887695 23.149513244628906 27.329769134521484 25.329992294311523 0.381432 7 253 253 253 253 253 253 1 10.369060516357422 -0.30567750334739685 -0.10488934069871902 0.0 1.0 0.0 48.19097137451172 48.19097137451172 0.6803395748138428 48.137001037597656 48.12200164794922 47.87900161743164 48.04600143432617 48.01499938964844 48.06100082397461 768 1 0.0006008148193359375
152.576 -1.415152374898092 -1.4149287382708948 -1.7784298102008265 3.1956124305725098 -1.6397460142718714 1.6576306819915771 0.0 0.0 0.0 0.0 0.0 0.0 0.0 0.0 0.0 0.0 0.0 0.0 -3.4366217202561994e-17 2.6020318689302147 4.494641874794851 0.21775098482208408 3.573191639423122e-05 0.0013874862917526072 -4.868019463655754e-16 37.22216257260534 51.54237969054434 2.465192942317517 0.00041842624626333596 0.0161522969244293 -1.4151161352740687 -1.4149287382708948 -1.7784298102008265 3.1955647468566895 -1.6397221724139612 1.6576666831970215 0.0 0.0 -0.0 0.0 0.0 0.0 -0.2883911430835724 2.101135492324829 3.2304489612579346 0.1457977443933487 0.01794433780014515 0.1121521145105362 -0.2883911430835724 2.073669672012329 3.2394163608551025 0.1390686184167862 0.02467346377670765 0.1031799390912056 -0.05797456789732112 -0.5929468913789018 0.5777025647423102 1.341477955896219 -1.1603484346053823 1.443908420900037 0.0 0.0 0.0 0.0 0.0 0.0 7.371103606542957 -8.470563369613775 26.4013041175352 2.6115478404008843 2.1815468948551837 -0.28148867652209186 -0.05799311327774759 -0.5929502007465529 0.5777073182729541 1.3414462790079775 -1.160289450013499 1.4438993030729628 0.0 0.0 0.0 0.0 0.0 0.0 0 19.959991455078125 20.609113693237305 21.249528884887695 23.149513244628906 27.329769134521484 25.329992294311523 0.4515 7 253 253 253 253 253 253 1 10.309123992919922 -0.30867433547973633 -0.17381662130355835 0.0 1.0 0.0 48.19097137451172 48.19097137451172 0.6087239384651184 48.152000427246094 48.12200164794922 47.87900161743164 48.04600143432617 48.01499938964844 48.06100082397461 768 1 0.00048160552978515625
152.584 -1.415152374898092 -1.4149287382708948 -1.7784298102008265 3.1956124305725098 -1.6397460142718714 1.6576306819915771 0.0 0.0 0.0 0.0 0.0 0.0 0.0 0.0 0.0 0.0 0.0 0.0 -3.4366217202561994e-17 2.6020318689302147 4.494641874794851 0.21775098482208408 3.573191639423122e-05 0.0013874862917526072 -4.868019463655754e-16 37.22216257260534 51.54237969054434 2.465192942317517 0.00041842624626333596 0.0161522969244293 -1.4151161352740687 -1.4148567358600062 -1.7784298102008265 3.1955761909484863 -1.6397460142718714 1.6576786041259766 0.0 0.0 -0.0 0.0 0.0 0.0 -0.2929687798023224 2.082824945449829 3.2573506832122803 0.1323394924402237 0.02467346377670765 0.1076660305261612 -0.2838135063648224 2.082824945449829 3.2394163608551025 0.1368255764245987 0.02467346377670765 0.1031799390912056 -0.05797691945618294 -0.5929157058273047 0.5777452628139988 1.3414271589473028 -1.1602829911059551 1.4439777887673255 0.0 0.0 0.0 0.0 0.0 0.0 7.49939847882766 -7.510674629516983 25.54330692551864 2.2570345991418197 2.0402961795172163 -0.2289928195210939 -0.05799311327774759 -0.5929502007465529 0.5777073182729541 1.3414462790079775 -1.160289450013499 1.4438993030729628 0.0 0.0 0.0 0.0 0.0 0.0 0 19.959991455078125 20.609113693237305 21.249528884887695 23.149513244628906 27.329769134521484 25.329992294311523 0.377808 7 253 253 253 253 253 253 1 10.291142463684082 -0.2966870069503784 -0.17381662130355835 0.0 1.0 0.0 48.19097137451172 48.19097137451172 0.7877604365348816 48.152000427246094 48.12200164794922 47.87900161743164 48.04600143432617 48.01499938964844 48.06100082397461 66304 1 0.000362396240234375
152.59199999999998 -1.415152374898092 -1.4149287382708948 -1.7784298102008265 3.1956124305725098 -1.6397460142718714 1.6576306819915771 0.0 0.0 0.0 0.0 0.0 0.0 0.0 0.0 0.0 0.0 0.0 0.0 -3.4366217202561994e-17 2.6020318689302147 4.494641874794851 0.21775098482208408 3.573191639423122e-05 0.0013874862917526072 -4.868019463655754e-16 37.22216257260534 51.54237969054434 2.465192942317517 0.00041842624626333596 0.0161522969244293 -1.415152374898092 -1.4148686567889612 -1.7784178892718714 3.1955881118774414 -1.6397340933429163 1.6576427221298218 0.0 0.0 -0.0 0.0 0.0 0.0 -0.2883911430835724 2.082824945449829 3.2506253719329834 0.1570129543542862 0.02243042178452015 0.1121521145105362 -0.2838135063648224 2.073669672012329 3.2394163608551025 0.1390686184167862 0.02467346377670765 0.1031799390912056 -0.0579985275376166 -0.5929225687329809 0.5777475407769486 1.3413958832015829 -1.160269527168417 1.4439244096196606 0.0 0.0 0.0 0.0 0.0 0.0 7.40241449428189 -7.563327718977656 26.242794133865935 2.625940839497868 2.1872969807689393 -0.24745894355141834 -0.05799311327774759 -0.5929502007465529 0.5777073182729541 1.3414462790079775 -1.160289450013499 1.4438993030729628 0.0 0.0 0.0 0.0 0.0 0.0 0 19.959991455078125 20.609113693237305 21.249576568603516 23.149513244628906 27.329769134521484 25.329992294311523 0.359268 7 253 253 253 253 253 253 1 10.30013370513916 -0.29369014501571655 -0.18580397963523865 0.0 1.0 0.0 48.25174331665039 48.19097137451172 0.6445291042327881 48.152000427246094 48.12200164794922 47.89500045776367 48.04600143432617 48.01499938964844 48.06100082397461 131840 1 0.0007200241088867188
152.6 -1.415152374898092 -1.4149287382708948 -1.7784298102008265 3.1956124305725098 -1.6397460142718714 1.6576306819915771 0.0 0.0 0.0 0.0 0.0 0.0 0.0 0.0 0.0 0.0 0.0 0.0 -3.4366217202561994e-17 2.6020318689302147 4.494641874794851 0.21775098482208408 3.573191639423122e-05 0.0013874862917526072 -4.868019463655754e-16 37.22216257260534 51.54237969054434 2.465192942317517 0.00041842624626333596 0.0161522969244293 -1.415152374898092 -1.4148924986468714 -1.7784298102008265 3.1955881118774414 -1.6397340933429163 1.6576427221298218 0.0 0.0 -0.0 0.0 0.0 0.0 -0.2563476860523224 2.110290765762329 3.268559694290161 0.1368255764245987 0.0314025916159153 0.0897216871380806 -0.2792358696460724 2.096557855606079 3.2394163608551025 0.1390686184167862 0.02467346377670765 0.1031799390912056 -0.05799717762338709 -0.5929313427154175 0.5777257944936129 1.3414233601321641 -1.1602964202456276 1.4439055188829741 0.0 0.0 0.0 0.0 0.0 0.0 6.020659525368641 -8.268737181471396 25.36489381664749 2.397842774523509 1.8171217159241084 0.021942492000425785 -0.05799311327774759 -0.5929502007465529 0.5777073182729541 1.3414462790079775 -1.160289450013499 1.4438993030729628 0.0 0.0 0.0 0.0 0.0 0.0 0 19.959991455078125 20.609113693237305 21.249576568603516 23.149513244628906 27.329769134521484 25.329992294311523 0.359688 7 253 253 253 253 253 253 1 10.34208869934082 -0.2906933128833771 -0.16482611000537872 0.0 1.0 0.0 48.25174331665039 48.19097137451172 0.7161448001861572 48.152000427246094 48.12200164794922 47.89500045776367 48.04600143432617 48.01499938964844 48.06100082397461 66304 1 0.0006008148193359375
152.608 -1.415152374898092 -1.4149287382708948 -1.7784298102008265 3.1956124305725098 -1.6397460142718714 1.6576306819915771 0.0 0.0 0.0 0.0 0.0 0.0 0.0 0.0 0.0 0.0 0.0 0.0 -3.4366217202561994e-17 2.6020318689302147 4.494641874794851 0.21775098482208408 3.573191639423122e-05 0.0013874862917526072 -4.868019463655754e-16 37.22216257260534 51.54237969054434 2.465192942317517 0.00041842624626333596 0.0161522969244293 -1.4151161352740687 -1.4148805777179163 -1.778405491505758 3.1956005096435547 -1.6397460142718714 1.6576666831970215 0.0 0.0 -0.0 0.0 0.0 0.0 -0.2197265923023224 2.055359125137329 3.2349326610565186 0.1547699123620987 0.01794433780014515 0.1054229810833931 -0.2517700493335724 2.050781488418579 3.2394163608551025 0.1390686184167862 0.02467346377670765 0.1031799390912056 -0.05797424058407515 -0.5929330584319407 0.5777502425140754 1.3414127453796731 -1.1602547930597995 1.4439826706481094 0.0 0.0 0.0 0.0 0.0 0.0 5.341470775466928 -7.440707240686887 26.573132671232944 2.592025276531876 2.0697327605146523 -0.10878076111096235 -0.05799311327774759 -0.5929502007465529 0.5777073182729541 1.3414462790079775 -1.160289450013499 1.4438993030729628 0.0 0.0 0.0 0.0 0.0 0.0 0 19.959991455078125 20.609113693237305 21.249576568603516 23.149513244628906 27.329769134521484 25.329992294311523 0.358248 7 253 253 253 253 253 253 1 10.333098411560059 -0.31766486167907715 -0.17381662130355835 0.0 1.0 0.0 48.19097137451172 48.19097137451172 0.7161448001861572 48.152000427246094 48.12200164794922 47.89500045776367 48.04600143432617 48.01499938964844 48.04600143432617 768 1 0.000362396240234375
152.61599999999999 -1.415152374898092 -1.4149287382708948 -1.7784298102008265 3.1956124305725098 -1.6397460142718714 1.6576306819915771 0.0 0.0 0.0 0.0 0.0 0.0 0.0 0.0 0.0 0.0 0.0 0.0 -3.4366217202561994e-17 2.6020318689302147 4.494641874794851 0.21775098482208408 3.573191639423122e-05 0.0013874862917526072 -4.868019463655754e-16 37.22216257260534 51.54237969054434 2.465192942317517 0.00041842624626333596 0.0161522969244293 -1.4151399771319788 -1.4148567358600062 -1.7784298102008265 3.1956005096435547 -1.6397340933429163 1.6576427221298218 0.0 0.0 -0.0 0.0 0.0 0.0 -0.2975464165210724 2.032470941543579 3.2394163608551025 0.1345825344324112 0.0314025916159153 0.1143951565027237 -0.2929687798023224 2.055359125137329 3.2394163608551025 0.1390686184167862 0.02467346377670765 0.1031799390912056 -0.05799206605985587 -0.5929176988931394 0.5777476683028254 1.3413957615664949 -1.1602537600834304 1.443939728598905 0.0 0.0 0.0 0.0 0.0 0.0 7.644740135014938 -6.443503902599764 26.05112347939636 2.1936205282170245 2.1200353016755358 -0.18070717589453533 -0.05799311327774759 -0.5929502007465529 0.5777073182729541 1.3414462790079775 -1.160289450013499 1.4438993030729628 0.0 0.0 0.0 0.0 0.0 0.0 0 19.959991455078125 20.609113693237305 21.249576568603516 23.149513244628906 27.329769134521484 25.329992294311523 0.35718 7 253 253 253 253 253 253 1 10.306126594543457 -0.2966870069503784 -0.17681346833705902 0.0 1.0 0.0 48.19097137451172 48.19097137451172 0.5729187726974487 48.152000427246094 48.12200164794922 47.89500045776367 48.04600143432617 48.01499938964844 48.04600143432617 66304 1 0.00048160552978515625
152.624 -1.415152374898092 -1.4149287382708948 -1.7784298102008265 3.1956124305725098 -1.6397460142718714 1.6576306819915771 0.0 0.0 0.0 0.0 0.0 0.0 0.0 0.0 0.0 0.0 0.0 0.0 -3.4366217202561994e-17 2.6020318689302147 4.494641874794851 0.21775098482208408 3.573191639423122e-05 0.0013874862917526072 -4.868019463655754e-16 37.22216257260534 51.54237969054434 2.465192942317517 0.00041842624626333596 0.0161522969244293 -1.4151399771319788 -1.4149163405047815 -1.7784774939166468 3.1956005096435547 -1.6397340933429163 1.6576546430587769 0.0 0.0 -0.0 0.0 0.0 0.0 -0.2471924126148224 2.046203851699829 3.2237236499786377 0.1300964504480362 0.01794433780014515 0.1143951565027237 -0.2883911430835724 2.059936761856079 3.2394163608551025 0.1390686184167862 0.02467346377670765 0.1031799390912056 -0.057989043378915216 -0.5929368687212325 0.5776813244629457 1.3414734385648022 -1.1603441801861372 1.4438914453490956 0.0 0.0 0.0 0.0 0.0 0.0 6.238680948721102 -7.3421087130561435 26.272390760858357 2.242418400206032 2.1156347556266333 -0.1989672732565502 -0.05799311327774759 -0.5929502007465529 0.5777073182729541 1.3414462790079775 -1.160289450013499 1.4438993030729628 0.0 0.0 0.0 0.0 0.0 0.0 0 19.959991455078125 20.609113693237305 21.249576568603516 23.149513244628906 27.329769134521484 25.329992294311523 0.367188 7 253 253 253 253 253 253 1 10.321111679077148 -0.3206616938114166 -0.13785456120967865 0.0 1.0 0.0 48.19097137451172 48.19097137451172 0.6803395748138428 48.152000427246094 48.12200164794922 47.89500045776367 48.04600143432617 48.01499938964844 48.04600143432617 768 1 0.0007200241088867188
152.632 -1.415152374898092 -1.4149287382708948 -1.7784298102008265 3.1956124305725098 -1.6397460142718714 1.6576306819915771 0.0 0.0 0.0 0.0 0.0 0.0 0.0 0.0 0.0 0.0 0.0 0.0 -3.4366217202561994e-17 2.6020318689302147 4.494641874794851 0.21775098482208408 3.573191639423122e-05 0.0013874862917526072 -4.868019463655754e-16 37.22216257260534 51.54237969054434 2.465192942317517 0.00041842624626333596 0.0161522969244293 -1.4151280562030237 -1.4148805777179163 -1.7784178892718714 3.1956124305725098 -1.6397460142718714 1.6576666831970215 0.0 0.0 -0.0 0.0 0.0 0.0 -0.2700805962085724 2.055359125137329 3.2640762329101562 0.1413116604089737 0.02467346377670765 0.1009368970990181 -0.2426147758960724 2.069092035293579 3.2394163608551025 0.1390686184167862 0.02467346377670765 0.1031799390912056 -0.05798138967228769 -0.5929319453551521 0.5777431257466245 1.3414040782032333 -1.1602613083649482 1.4439739075957871 0.0 0.0 0.0 0.0 0.0 0.0 6.897844938278617 -6.709380514456879 25.638170302561793 2.2837883407064106 1.9524753667365489 -0.1895205065934137 -0.05799311327774759 -0.5929502007465529 0.5777073182729541 1.3414462790079775 -1.160289450013499 1.4438993030729628 0.0 0.0 0.0 0.0 0.0 0.0 0 19.959991455078125 20.609113693237305 21.249576568603516 23.149513244628906 27.332792282104492 25.329992294311523 0.35931599999999997 7 253 253 253 253 253 253 1 10.291142463684082 -0.2906933128833771 -0.10488934069871902 0.0 1.0 0.0 48.19097137451172 48.19097137451172 0.6445291042327881 48.152000427246094 48.12200164794922 47.89500045776367 48.04600143432617 48.01499938964844 48.04600143432617 768 1 0.00031789143880208337
152.64 -1.415152374898092 -1.4149287382708948 -1.7784298102008265 3.1956124305725098 -1.6397460142718714 1.6576306819915771 0.0 0.0 0.0 0.0 0.0 0.0 0.0 0.0 0.0 0.0 0.0 0.0 -3.4366217202561994e-17 2.6020318689302147 4.494641874794851 0.21775098482208408 3.573191639423122e-05 0.0013874862917526072 -4.868019463655754e-16 37.22216257260534 51.54237969054434 2.465192942317517 0.00041842624626333596 0.0161522969244293 -1.4151399771319788 -1.4148686567889612 -1.7784298102008265 3.1955881118774414 -1.6397340933429163 1.6576906442642212 0.0 0.0 -0.0 0.0 0.0 0.0 -0.2838135063648224 2.124023675918579 3.2483835220336914 0.1570129543542862 0.0269165076315403 0.0852356031537056 -0.2655029594898224 2.064514398574829 3.2394163608551025 0.1390686184167862 0.02467346377670765 0.1031799390912056 -0.057991023855177376 -0.5929213540066748 0.5777395904557046 1.341395170085463 -1.1603115223785962 1.4439609821123491 0.0 0.0 0.0 0.0 0.0 0.0 6.932648001714568 -8.788393686413176 26.23385139800392 2.821971995398585 1.8657029782227257 -0.11260400041687754 -0.05799311327774759 -0.5929502007465529 0.5777073182729541 1.3414462790079775 -1.160289450013499 1.4438993030729628 0.0 0.0 0.0 0.0 0.0 0.0 0 19.959991455078125 20.609201431274414 21.249576568603516 23.150562286376953 27.332792282104492 25.329992294311523 0.388896 7 253 253 253 253 253 253 1 10.318114280700684 -0.3236585259437561 -0.12287037074565887 0.0 1.0 0.0 48.19097137451172 48.19097137451172 0.7877604365348816 48.152000427246094 48.137001037597656 47.89500045776367 48.06100082397461 48.01499938964844 48.04600143432617 66304 1 0.00048160552978515625
152.648 -1.415152374898092 -1.4149287382708948 -1.7784298102008265 3.1956124305725098 -1.6397460142718714 1.6576306819915771 0.0 0.0 0.0 0.0 0.0 0.0 0.0 0.0 0.0 0.0 0.0 0.0 -3.4366217202561994e-17 2.6020318689302147 4.494641874794851 0.21775098482208408 3.573191639423122e-05 0.0013874862917526072 -4.868019463655754e-16 37.22216257260534 51.54237969054434 2.465192942317517 0.00041842624626333596 0.0161522969244293 -1.415152374898092 -1.4148805777179163 -1.7784178892718714 3.1956124305725098 -1.6397579352008265 1.6576666831970215 0.0 0.0 -0.0 0.0 0.0 0.0 -0.3341675102710724 2.046203851699829 3.2394163608551025 0.1592559963464737 0.0381317175924778 0.0964508131146431 -0.3112793266773224 2.055359125137329 3.2394163608551025 0.1390686184167862 0.02467346377670765 0.1009368970990181 -0.057994649871483006 -0.5929302500480873 0.5777431275108285 1.3413946814462296 -1.1602676863843708 1.4439650755675304 0.0 0.0 0.0 0.0 0.0 0.0 8.616636829086852 -6.570365403680049 26.583540262166565 2.622544613019642 1.9909421526492468 -0.18282355974130343 -0.05799311327774759 -0.5929502007465529 0.5777073182729541 1.3414462790079775 -1.160289450013499 1.4438993030729628 0.0 0.0 0.0 0.0 0.0 0.0 0 19.959991455078125 20.609201431274414 21.249576568603516 23.150562286376953 27.332792282104492 25.329992294311523 0.35785199999999995 7 253 253 253 253 253 253 1 10.279155731201172 -0.263721764087677 -0.16482611000537872 0.0 1.0 0.0 48.25174331665039 48.19097137451172 0.5729187726974487 48.18299865722656 48.137001037597656 47.89500045776367 48.06100082397461 48.01499938964844 48.04600143432617 131840 1 0.0006008148193359375
152.656 -1.415152374898092 -1.4149287382708948 -1.7784298102008265 3.1956124305725098 -1.6397460142718714 1.6576306819915771 0.0 0.0 0.0 0.0 0.0 0.0 0.0 0.0 0.0 0.0 0.0 0.0 -3.4366217202561994e-17 2.6020318689302147 4.494641874794851 0.21775098482208408 3.573191639423122e-05 0.0013874862917526072 -4.868019463655754e-16 37.22216257260534 51.54237969054434 2.465192942317517 0.00041842624626333596 0.0161522969244293 -1.4150922934161585 -1.4148567358600062 -1.7784298102008265 3.1956005096435547 -1.639709774647848 1.6576906442642212 0.0 0.0 -0.0 0.0 0.0 0.0 -0.2380371391773224 2.082824945449829 3.2394163608551025 0.1480407863855362 0.02467346377670765 0.1031799390912056 -0.2563476860523224 2.078247308731079 3.2394163608551025 0.1390686184167862 0.02467346377670765 0.1031799390912056 -0.05796569362392486 -0.5929209348402916 0.5777477069773814 1.3413941762870116 -1.1602812440350294 1.4439904831053176 0.0 0.0 0.0 0.0 0.0 0.0 5.645049601454416 -8.076482395805721 26.286278532311936 2.5678995756525667 2.0354368275407735 -0.0346935703068496 -0.05799311327774759 -0.5929502007465529 0.5777073182729541 1.3414462790079775 -1.160289450013499 1.4438993030729628 0.0 0.0 0.0 0.0 0.0 0.0 0 19.959991455078125 20.609201431274414 21.249576568603516 23.150562286376953 27.332792282104492 25.329992294311523 0.36235199999999995 7 253 253 253 253 253 253 1 10.291142463684082 -0.30867433547973633 -0.18280713260173798 0.0 1.0 0.0 48.25174331665039 48.19097137451172 0.6803395748138428 48.18299865722656 48.137001037597656 47.89500045776367 48.06100082397461 48.01499938964844 48.04600143432617 66304 1 0.00048160552978515625
152.664 -1.415152374898092 -1.4149287382708948 -1.7784298102008265 3.1956124305725098 -1.6397460142718714 1.6576306819915771 0.0 0.0 0.0 0.0 0.0 0.0 0.0 0.0 0.0 0.0 0.0 0.0 -3.4366217202561994e-17 2.6020318689302147 4.494641874794851 0.21775098482208408 3.573191639423122e-05 0.0013874862917526072 -4.868019463655754e-16 37.22216257260534 51.54237969054434 2.465192942317517 0.00041842624626333596 0.0161522969244293 -1.4151161352740687 -1.4148686567889612 -1.778405491505758 3.1955881118774414 -1.6397340933429163 1.657618761062622 0.0 0.0 -0.0 0.0 0.0 0.0 -0.2609253227710724 2.073669672012329 3.2326908111572266 0.1480407863855362 0.02467346377670765 0.1076660305261612 -0.2426147758960724 2.069092035293579 3.2394163608551025 0.1390686184167862 0.02467346377670765 0.1009368970990181 -0.05797694825934205 -0.5929266216002115 0.5777558319713723 1.3414234289163893 -1.1602217711452771 1.443939762547408 0.0 0.0 0.0 0.0 0.0 0.0 6.419500146630699 -7.828180868672698 26.443356024276746 2.5579162895005463 2.1013583199944295 -0.11610036736636381 -0.05799311327774759 -0.5929502007465529 0.5777073182729541 1.3414462790079775 -1.160289450013499 1.4438993030729628 0.0 0.0 0.0 0.0 0.0 0.0 0 19.959991455078125 20.609201431274414 21.249576568603516 23.150562286376953 27.332792282104492 25.329992294311523 0.361872 7 253 253 253 253 253 253 1 10.288146018981934 -0.3236585259437561 -0.17681346833705902 0.0 1.0 0.0 48.25174331665039 48.19097137451172 0.6445291042327881 48.18299865722656 48.137001037597656 47.89500045776367 48.06100082397461 48.01499938964844 48.04600143432617 768 1 0.0007200241088867188
152.672 -1.415152374898092 -1.4149287382708948 -1.7784298102008265 3.1956124305725098 -1.6397460142718714 1.6576306819915771 0.0 0.0 0.0 0.0 0.0 0.0 0.0 0.0 0.0 0.0 0.0 0.0 -3.4366217202561994e-17 2.6020318689302147 4.494641874794851 0.21775098482208408 3.573191639423122e-05 0.0013874862917526072 -4.868019463655754e-16 37.22216257260534 51.54237969054434 2.465192942317517 0.00041842624626333596 0.0161522969244293 -1.4151280562030237 -1.4148924986468714 -1.7784417311297815 3.1956005096435547 -1.6396978537188929 1.6576546430587769 0.0 0.0 -0.0 0.0 0.0 0.0 -0.2609253227710724 2.032470941543579 3.2461416721343994 0.1390686184167862 0.01570129580795765 0.1009368970990181 -0.2883911430835724 2.050781488418579 3.2394163608551025 0.1390686184167862 0.02467346377670765 0.1031799390912056 -0.057986225095982814 -0.5929333019163324 0.5777190504003461 1.3414091698107404 -1.1603121495650153 1.4439057712905488 0.0 0.0 0.0 0.0 0.0 0.0 6.88922299335925 -6.424883154638008 26.00740618121209 2.257528437382357 1.9465734297104427 -0.31335825378539056 -0.05799311327774759 -0.5929502007465529 0.5777073182729541 1.3414462790079775 -1.160289450013499 1.4438993030729628 0.0 0.0 0.0 0.0 0.0 0.0 0 19.959991455078125 20.609201431274414 21.25061798095703 23.150562286376953 27.332792282104492 25.329992294311523 0.46927199999999997 7 253 253 253 253 253 253 1 10.309123992919922 -0.31466802954673767 -0.1078861802816391 0.0 1.0 0.0 48.19097137451172 48.19097137451172 0.7161448001861572 48.18299865722656 48.137001037597656 47.89500045776367 48.06100082397461 48.01499938964844 48.04600143432617 66304 1 0.0006008148193359375
152.68 -1.415152374898092 -1.4149287382708948 -1.7784298102008265 3.1956124305725098 -1.6397460142718714 1.6576306819915771 0.0 0.0 0.0 0.0 0.0 0.0 0.0 0.0 0.0 0.0 0.0 0.0 -3.4366217202561994e-17 2.6020318689302147 4.494641874794851 0.21775098482208408 3.573191639423122e-05 0.0013874862917526072 -4.868019463655754e-16 37.22216257260534 51.54237969054434 2.465192942317517 0.00041842624626333596 0.0161522969244293 -1.4151042143451136 -1.4148686567889612 -1.7784298102008265 3.1956124305725098 -1.6397460142718714 1.6576427221298218 0.0 0.0 -0.0 0.0 0.0 0.0 -0.2700805962085724 2.046203851699829 3.2483835220336914 0.1435547024011612 0.0269165076315403 0.0919647291302681 -0.2838135063648224 2.050781488418579 3.2394163608551025 0.1390686184167862 0.02467346377670765 0.1009368970990181 -0.05796862806088761 -0.5929262605332674 0.5777419888515868 1.3414318347019716 -1.1602291436451102 1.4439737289642596 0.0 0.0 0.0 0.0 0.0 0.0 6.831916949516911 -6.746575626907469 26.040341846233694 2.373220312979984 1.853151736421189 -0.15246138486505575 -0.05799311327774759 -0.5929502007465529 0.5777073182729541 1.3414462790079775 -1.160289450013499 1.4438993030729628 0.0 0.0 0.0 0.0 0.0 0.0 0 19.959991455078125 20.609201431274414 21.25061798095703 23.150562286376953 27.332792282104492 25.329992294311523 0.417708 7 253 253 253 253 253 253 1 10.309123992919922 -0.2727122902870178 -0.19779132306575775 0.0 1.0 0.0 48.19097137451172 48.19097137451172 0.6445291042327881 48.18299865722656 48.137001037597656 47.89500045776367 48.06100082397461 48.01499938964844 48.04600143432617 768 1 0.000362396240234375
152.688 -1.415152374898092 -1.4149287382708948 -1.7784298102008265 3.1956124305725098 -1.6397460142718714 1.6576306819915771 0.0 0.0 0.0 0.0 0.0 0.0 0.0 0.0 0.0 0.0 0.0 0.0 -3.4366217202561994e-17 2.6020318689302147 4.494641874794851 0.21775098482208408 3.573191639423122e-05 0.0013874862917526072 -4.868019463655754e-16 37.22216257260534 51.54237969054434 2.465192942317517 0.00041842624626333596 0.0161522969244293 -1.4151399771319788 -1.4148567358600062 -1.7784178892718714 3.1955881118774414 -1.6397221724139612 1.6576666831970215 0.0 0.0 -0.0 0.0 0.0 0.0 -0.2655029594898224 2.078247308731079 3.2394163608551025 0.1345825344324112 0.0269165076315403 0.0852356031537056 -0.2838135063648224 2.069092035293579 3.2394163608551025 0.1390686184167862 0.02467346377670765 0.1009368970990181 -0.05799293439972595 -0.5929182187608896 0.5777544369167872 1.3413774569107835 -1.1602800708811485 1.4439480767578612 0.0 0.0 0.0 0.0 0.0 0.0 6.500814487638056 -7.859278465561836 25.98881337173801 2.400045581630795 1.7633407958772254 -0.09348520618187564 -0.05799311327774759 -0.5929502007465529 0.5777073182729541 1.3414462790079775 -1.160289450013499 1.4438993030729628 0.0 0.0 0.0 0.0 0.0 0.0 0 19.959991455078125 20.609201431274414 21.25061798095703 23.150562286376953 27.332792282104492 25.329992294311523 0.362496 7 253 253 253 253 253 253 1 10.324108123779297 -0.2906933128833771 -0.17081978917121887 0.0 1.0 0.0 48.19097137451172 48.19097137451172 0.7519552707672119 48.18299865722656 48.137001037597656 47.89500045776367 48.06100082397461 48.01499938964844 48.04600143432617 768 1 0.0006008148193359375
152.696 -1.415152374898092 -1.4149287382708948 -1.7784298102008265 3.1956124305725098 -1.6397460142718714 1.6576306819915771 0.0 0.0 0.0 0.0 0.0 0.0 0.0 0.0 0.0 0.0 0.0 0.0 -3.4366217202561994e-17 2.6020318689302147 4.494641874794851 0.21775098482208408 3.573191639423122e-05 0.0013874862917526072 -4.868019463655754e-16 37.22216257260534 51.54237969054434 2.465192942317517 0.00041842624626333596 0.0161522969244293 -1.4151399771319788 -1.4148567358600062 -1.7784417311297815 3.1955761909484863 -1.6397340933429163 1.6576666831970215 0.0 0.0 -0.0 0.0 0.0 0.0 -0.2151489406824112 2.073669672012329 3.2394163608551025 0.1413116604089737 0.02243042178452015 0.0986938551068306 -0.2380371391773224 2.069092035293579 3.2394163608551025 0.1390686184167862 0.02467346377670765 0.1009368970990181 -0.05799264196859844 -0.5929128124912504 0.5777372579539131 1.3414140569672413 -1.160300602540484 1.44393749885481 0.0 0.0 0.0 0.0 0.0 0.0 4.9906615626905 -7.956166605862214 26.148886716047695 2.4541366758448184 1.9419652633066726 -0.0034059040870568717 -0.05799311327774759 -0.5929502007465529 0.5777073182729541 1.3414462790079775 -1.160289450013499 1.4438993030729628 0.0 0.0 0.0 0.0 0.0 0.0 0 19.959991455078125 20.609201431274414 21.25061798095703 23.150562286376953 27.332792282104492 25.329992294311523 0.360456 7 253 253 253 253 253 253 1 10.318114280700684 -0.30867433547973633 -0.14984191954135895 0.0 1.0 0.0 48.19097137451172 48.19097137451172 0.6445291042327881 48.18299865722656 48.137001037597656 47.89500045776367 48.06100082397461 48.01499938964844 48.04600143432617 66304 1 0.0007200241088867188
152.70399999999998 -1.415152374898092 -1.4149287382708948 -1.7784298102008265 3.1956124305725098 -1.6397460142718714 1.6576306819915771 0.0 0.0 0.0 0.0 0.0 0.0 0.0 0.0 0.0 0.0 0.0 0.0 -3.4366217202561994e-17 2.6020318689302147 4.494641874794851 0.21775098482208408 3.573191639423122e-05 0.0013874862917526072 -4.868019463655754e-16 37.22216257260534 51.54237969054434 2.465192942317517 0.00041842624626333596 0.0161522969244293 -1.4150684515582483 -1.4148567358600062 -1.7783697287188929 3.1956005096435547 -1.6397221724139612 1.6576546430587769 0.0 0.0 -0.0 0.0 0.0 0.0 -0.2838135063648224 2.069092035293579 3.268559694290161 0.1368255764245987 0.0269165076315403 0.1099090725183487 -0.2609253227710724 2.050781488418579 3.2394163608551025 0.1390686184167862 0.02467346377670765 0.1031799390912056 -0.057949129479062694 -0.5929312914270624 0.577787960166398 1.3413898051866087 -1.1601878983049607 1.444022696958268 0.0 0.0 0.0 0.0 0.0 0.0 7.237851571557561 -6.961895879752535 25.42158350789602 2.2248085559805495 2.061524182747333 -0.18742549770767167 -0.05799311327774759 -0.5929502007465529 0.5777073182729541 1.3414462790079775 -1.160289450013499 1.4438993030729628 0.0 0.0 0.0 0.0 0.0 0.0 0 19.959991455078125 20.609201431274414 21.25061798095703 23.150562286376953 27.332792282104492 25.329992294311523 0.3639 7 253 253 253 253 253 253 1 10.348082542419434 -0.3026806712150574 -0.17081978917121887 0.0 1.0 0.0 48.19097137451172 48.19097137451172 0.6445291042327881 48.18299865722656 48.137001037597656 47.89500045776367 48.06100082397461 48.01499938964844 48.04600143432617 131840 1 0.0007200241088867188
152.712 -1.415152374898092 -1.4149287382708948 -1.7784298102008265 3.1956124305725098 -1.6397460142718714 1.6576306819915771 0.0 0.0 0.0 0.0 0.0 0.0 0.0 0.0 0.0 0.0 0.0 0.0 -3.4366217202561994e-17 2.6020318689302147 4.494641874794851 0.21775098482208408 3.573191639423122e-05 0.0013874862917526072 -4.868019463655754e-16 37.22216257260534 51.54237969054434 2.465192942317517 0.00041842624626333596 0.0161522969244293 -1.4151280562030237 -1.4148805777179163 -1.7784298102008265 3.1956124305725098 -1.6397340933429163 1.6576546430587769 0.0 0.0 -0.0 0.0 0.0 0.0 -0.2426147758960724 2.046203851699829 3.2237236499786377 0.1368255764245987 0.0358886756002903 0.1188812404870987 -0.2655029594898224 2.046203851699829 3.2394163608551025 0.1390686184167862 0.02467346377670765 0.1031799390912056 -0.05798297716975614 -0.5929304347057127 0.5777351207527671 1.341409087920312 -1.160266491357726 1.4439505019866743 0.0 0.0 0.0 0.0 0.0 0.0 5.60432346316735 -7.419635594250082 26.424662161384283 2.3287086839882463 2.1910858190229643 0.1000494688857963 -0.05799311327774759 -0.5929502007465529 0.5777073182729541 1.3414462790079775 -1.160289450013499 1.4438993030729628 0.0 0.0 0.0 0.0 0.0 0.0 0 19.959991455078125 20.609281539916992 21.25061798095703 23.151506423950195 27.33651351928711 25.329992294311523 0.359988 7 253 253 253 253 253 253 1 10.318114280700684 -0.26671862602233887 -0.18580397963523865 0.0 1.0 0.0 48.19097137451172 48.19097137451172 0.8235656023025513 48.18299865722656 48.137001037597656 47.89500045776367 48.06100082397461 48.0 48.04600143432617 66304 1 0.0008392333984375
152.72 -1.415152374898092 -1.4149287382708948 -1.7784298102008265 3.1956124305725098 -1.6397460142718714 1.6576306819915771 0.0 0.0 0.0 0.0 0.0 0.0 0.0 0.0 0.0 0.0 0.0 0.0 -3.4366217202561994e-17 2.6020318689302147 4.494641874794851 0.21775098482208408 3.573191639423122e-05 0.0013874862917526072 -4.868019463655754e-16 37.22216257260534 51.54237969054434 2.465192942317517 0.00041842624626333596 0.0161522969244293 -1.4151280562030237 -1.4149163405047815 -1.7784298102008265 3.1955647468566895 -1.6396978537188929 1.6576306819915771 0.0 0.0 -0.0 0.0 0.0 0.0 -0.2517700493335724 2.069092035293579 3.2506253719329834 0.1547699123620987 0.02018737979233265 0.1031799390912056 -0.2655029594898224 2.078247308731079 3.2394163608551025 0.1390686184167862 0.02467346377670765 0.1031799390912056 -0.057985213974614765 -0.5929413543447106 0.5777096814875228 1.3414554944486339 -1.1603282181381829 1.4438635377452491 0.0 0.0 0.0 0.0 0.0 0.0 6.31954803566439 -7.371903044871274 26.212643178485802 2.571087894498316 2.043824682434001 -0.17594165580647136 -0.05799311327774759 -0.5929502007465529 0.5777073182729541 1.3414462790079775 -1.160289450013499 1.4438993030729628 0.0 0.0 0.0 0.0 0.0 0.0 0 19.959991455078125 20.609281539916992 21.25061798095703 23.151506423950195 27.33651351928711 25.329992294311523 0.36499200000000004 7 253 253 253 253 253 253 1 10.306126594543457 -0.2876964807510376 -0.18280713260173798 0.0 1.0 0.0 48.19097137451172 48.19097137451172 0.6445291042327881 48.152000427246094 48.137001037597656 47.89500045776367 48.06100082397461 48.0 48.04600143432617 768 1 0.00048160552978515625
152.72799999999998 -1.415152374898092 -1.4149287382708948 -1.7784298102008265 3.1956124305725098 -1.6397460142718714 1.6576306819915771 0.0 0.0 0.0 0.0 0.0 0.0 0.0 0.0 0.0 0.0 0.0 0.0 -3.4366217202561994e-17 2.6020318689302147 4.494641874794851 0.21775098482208408 3.573191639423122e-05 0.0013874862917526072 -4.868019463655754e-16 37.22216257260534 51.54237969054434 2.465192942317517 0.00041842624626333596 0.0161522969244293 -1.4151399771319788 -1.4148567358600062 -1.7784178892718714 3.1955409049987793 -1.6397221724139612 1.6576666831970215 0.0 0.0 -0.0 0.0 0.0 0.0 -0.2334595024585724 2.087402582168579 3.2438998222351074 0.1525268703699112 0.0291595496237278 0.1121521145105362 -0.2655029594898224 2.078247308731079 3.2394163608551025 0.1390686184167862 0.02467346377670765 0.1031799390912056 -0.05799389811092638 -0.5929123800122765 0.5777497026372295 1.3414138603801178 -1.160315371115513 1.4439229878935216 0.0 0.0 0.0 0.0 0.0 0.0 5.3672958325924975 -8.149777742061927 26.284295783213103 2.6077448800785668 2.1625311993146803 0.05285733770867466 -0.05799311327774759 -0.5929502007465529 0.5777073182729541 1.3414462790079775 -1.160289450013499 1.4438993030729628 0.0 0.0 0.0 0.0 0.0 0.0 0 19.959991455078125 20.609281539916992 21.25061798095703 23.151506423950195 27.33651351928711 25.329992294311523 0.37464 7 253 253 253 253 253 253 1 10.33010196685791 -0.30867433547973633 -0.18580397963523865 0.0 1.0 0.0 48.19097137451172 48.19097137451172 0.7877604365348816 48.152000427246094 48.137001037597656 47.89500045776367 48.06100082397461 48.0 48.04600143432617 66304 1 0.00024318695068359375
152.736 -1.415152374898092 -1.4149287382708948 -1.7784298102008265 3.1956124305725098 -1.6397460142718714 1.6576306819915771 0.0 0.0 0.0 0.0 0.0 0.0 0.0 0.0 0.0 0.0 0.0 0.0 -3.4366217202561994e-17 2.6020318689302147 4.494641874794851 0.21775098482208408 3.573191639423122e-05 0.0013874862917526072 -4.868019463655754e-16 37.22216257260534 51.54237969054434 2.465192942317517 0.00041842624626333596 0.0161522969244293 -1.4151642958270472 -1.4149163405047815 -1.7784178892718714 3.1955761909484863 -1.6397460142718714 1.6576786041259766 0.0 0.0 -0.0 0.0 0.0 0.0 -0.3021240532398224 2.050781488418579 3.2394163608551025 0.1345825344324112 0.02243042178452015 0.0919647291302681 -0.2655029594898224 2.041626214981079 3.2394163608551025 0.1390686184167862 0.02467346377670765 0.1031799390912056 -0.05800100930743118 -0.5929412300493309 0.5777188710186246 1.3414271976355434 -1.160343954177953 1.4439185419361664 0.0 0.0 0.0 0.0 0.0 0.0 7.953742070499781 -6.886833778993217 26.024489489806328 2.2981694586471373 1.845410670292812 -0.3171757026395994 -0.05799311327774759 -0.5929502007465529 0.5777073182729541 1.3414462790079775 -1.160289450013499 1.4438993030729628 0.0 0.0 0.0 0.0 0.0 0.0 0 19.959991455078125 20.609281539916992 21.25061798095703 23.151506423950195 27.33651351928711 25.329992294311523 0.366012 7 253 253 253 253 253 253 1 10.288146018981934 -0.28170281648635864 -0.14684507250785828 0.0 1.0 0.0 48.19097137451172 48.19097137451172 0.7877604365348816 48.152000427246094 48.137001037597656 47.89500045776367 48.06100082397461 48.0 48.04600143432617 768 1 0.0007200241088867188
152.744 -1.415152374898092 -1.4149287382708948 -1.7784298102008265 3.1956124305725098 -1.6397460142718714 1.6576306819915771 0.0 0.0 0.0 0.0 0.0 0.0 0.0 0.0 0.0 0.0 0.0 0.0 -3.4366217202561994e-17 2.6020318689302147 4.494641874794851 0.21775098482208408 3.573191639423122e-05 0.0013874862917526072 -4.868019463655754e-16 37.22216257260534 51.54237969054434 2.465192942317517 0.00041842624626333596 0.0161522969244293 -1.4151280562030237 -1.4148924986468714 -1.778405491505758 3.1956124305725098 -1.6397460142718714 1.657618761062622 0.0 0.0 -0.0 0.0 0.0 0.0 -0.2746582329273224 2.078247308731079 3.2326908111572266 0.1435547024011612 0.02018737979233265 0.0964508131146431 -0.2655029594898224 2.087402582168579 3.2394163608551025 0.1390686184167862 0.02467346377670765 0.1031799390912056 -0.05798069901251237 -0.5929392508645722 0.5777445188648752 1.341422958967477 -1.1602215375989797 1.4439401474249873 0.0 0.0 0.0 0.0 0.0 0.0 6.969347945145247 -7.878269940589634 26.335075745318722 2.5319945525439507 1.9495893511170619 -0.22703367360619747 -0.05799311327774759 -0.5929502007465529 0.5777073182729541 1.3414462790079775 -1.160289450013499 1.4438993030729628 0.0 0.0 0.0 0.0 0.0 0.0 0 19.959991455078125 20.609281539916992 21.25061798095703 23.151506423950195 27.33651351928711 25.329992294311523 0.35775599999999996 7 253 253 253 253 253 253 1 10.321111679077148 -0.28170281648635864 -0.20678184926509857 0.0 1.0 0.0 48.25174331665039 48.19097137451172 0.6087239384651184 48.152000427246094 48.137001037597656 47.89500045776367 48.06100082397461 48.0 48.04600143432617 768 1 0.00015974044799804688
152.75199999999998 -1.415152374898092 -1.4149287382708948 -1.7784298102008265 3.1956124305725098 -1.6397460142718714 1.6576306819915771 0.0 0.0 0.0 0.0 0.0 0.0 0.0 0.0 0.0 0.0 0.0 0.0 -3.4366217202561994e-17 2.6020318689302147 4.494641874794851 0.21775098482208408 3.573191639423122e-05 0.0013874862917526072 -4.868019463655754e-16 37.22216257260534 51.54237969054434 2.465192942317517 0.00041842624626333596 0.0161522969244293 -1.4151280562030237 -1.4148924986468714 -1.7784178892718714 3.1956005096435547 -1.6397340933429163 1.6576427221298218 0.0 0.0 -0.0 0.0 0.0 0.0 -0.2929687798023224 2.101135492324829 3.2483835220336914 0.1457977443933487 0.0269165076315403 0.1009368970990181 -0.2609253227710724 2.087402582168579 3.2394163608551025 0.1390686184167862 0.02467346377670765 0.1031799390912056 -0.05798219345430387 -0.592936109973071 0.577735030380713 1.3414230345274192 -1.160265664389546 1.4439357757237021 0.0 0.0 0.0 0.0 0.0 0.0 7.333242652489045 -8.147940656089732 26.01357580784611 2.5579815593456274 2.018835011157509 -0.16761574234071325 -0.05799311327774759 -0.5929502007465529 0.5777073182729541 1.3414462790079775 -1.160289450013499 1.4438993030729628 0.0 0.0 0.0 0.0 0.0 0.0 0 19.959991455078125 20.609281539916992 21.251556396484375 23.151506423950195 27.33651351928711 25.329992294311523 0.36 7 253 253 253 253 253 253 1 10.303130149841309 -0.2996838390827179 -0.18580397963523865 0.0 1.0 0.0 48.19097137451172 48.19097137451172 0.7877604365348816 48.152000427246094 48.137001037597656 47.87900161743164 48.06100082397461 48.0 48.029998779296875 66304 1 0.000362396240234375
152.76 -1.415152374898092 -1.4149287382708948 -1.7784298102008265 3.1956124305725098 -1.6397460142718714 1.6576306819915771 0.0 0.0 0.0 0.0 0.0 0.0 0.0 0.0 0.0 0.0 0.0 0.0 -3.4366217202561994e-17 2.6020318689302147 4.494641874794851 0.21775098482208408 3.573191639423122e-05 0.0013874862917526072 -4.868019463655754e-16 37.22216257260534 51.54237969054434 2.465192942317517 0.00041842624626333596 0.0161522969244293 -1.4151399771319788 -1.4148686567889612 -1.7784178892718714 3.1956005096435547 -1.6397460142718714 1.6576666831970215 0.0 0.0 -0.0 0.0 0.0 0.0 -0.2975464165210724 2.023315668106079 3.2125144004821777 0.1323394924402237 0.02018737979233265 0.1009368970990181 -0.2655029594898224 2.023315668106079 3.2394163608551025 0.1390686184167862 0.02467346377670765 0.1031799390912056 -0.05798953219491984 -0.5929244808687952 0.5777488070478151 1.3413950957357592 -1.1602673951327955 1.4439653532200638 0.0 0.0 0.0 0.0 0.0 0.0 7.907322824789488 -6.64716007678362 26.594652852223334 2.277269370443443 1.9613497198510723 -0.3482443266566676 -0.05799311327774759 -0.5929502007465529 0.5777073182729541 1.3414462790079775 -1.160289450013499 1.4438993030729628 0.0 0.0 0.0 0.0 0.0 0.0 0 19.959991455078125 20.609281539916992 21.251556396484375 23.151506423950195 27.33651351928711 25.329992294311523 0.358368 7 253 253 253 253 253 253 1 10.321111679077148 -0.31766486167907715 -0.17681346833705902 0.0 1.0 0.0 48.19097137451172 48.19097137451172 0.7161448001861572 48.152000427246094 48.137001037597656 47.87900161743164 48.06100082397461 48.0 48.029998779296875 131840 1 0.000362396240234375
152.768 -1.415152374898092 -1.4149287382708948 -1.7784298102008265 3.1956124305725098 -1.6397460142718714 1.6576306819915771 0.0 0.0 0.0 0.0 0.0 0.0 0.0 0.0 0.0 0.0 0.0 0.0 -3.4366217202561994e-17 2.6020318689302147 4.494641874794851 0.21775098482208408 3.573191639423122e-05 0.0013874862917526072 -4.868019463655754e-16 37.22216257260534 51.54237969054434 2.465192942317517 0.00041842624626333596 0.0161522969244293 -1.4151399771319788 -1.4149048964129847 -1.7784298102008265 3.1955881118774414 -1.6397221724139612 1.6576666831970215 0.0 0.0 -0.0 0.0 0.0 0.0 -0.3067016899585724 2.082824945449829 3.2506253719329834 0.1480407863855362 0.02243042178452015 0.0919647291302681 -0.2975464165210724 2.055359125137329 3.2394163608551025 0.1390686184167862 0.02467346377670765 0.1009368970990181 -0.05798988943681899 -0.5929378021481267 0.5777186618394917 1.3414235866710347 -1.1603253088181158 1.443916403018751 0.0 0.0 0.0 0.0 0.0 0.0 7.9992463047195965 -7.4959729473856 26.039584200491518 2.540817716666819 1.902017242982564 -0.3066743942697451 -0.05799311327774759 -0.5929502007465529 0.5777073182729541 1.3414462790079775 -1.160289450013499 1.4438993030729628 0.0 0.0 0.0 0.0 0.0 0.0 0 19.959991455078125 20.609281539916992 21.251556396484375 23.151506423950195 27.33651351928711 25.329992294311523 0.36462 7 253 253 253 253 253 253 1 10.318114280700684 -0.31466802954673767 -0.1917976588010788 0.0 1.0 0.0 48.19097137451172 48.19097137451172 0.6445291042327881 48.152000427246094 48.137001037597656 47.87900161743164 48.06100082397461 48.0 48.029998779296875 66304 1 0.0006008148193359375
152.77599999999998 -1.415152374898092 -1.4149287382708948 -1.7784298102008265 3.1956124305725098 -1.6397460142718714 1.6576306819915771 0.0 0.0 0.0 0.0 0.0 0.0 0.0 0.0 0.0 0.0 0.0 0.0 -3.4366217202561994e-17 2.6020318689302147 4.494641874794851 0.21775098482208408 3.573191639423122e-05 0.0013874862917526072 -4.868019463655754e-16 37.22216257260534 51.54237969054434 2.465192942317517 0.00041842624626333596 0.0161522969244293 -1.4151161352740687 -1.4149048964129847 -1.7784298102008265 3.1956005096435547 -1.639709774647848 1.6576306819915771 0.0 0.0 -0.0 0.0 0.0 0.0 -0.3341675102710724 2.119446039199829 3.2282071113586426 0.1368255764245987 0.02467346377670765 0.0852356031537056 -0.2838135063648224 2.091980218887329 3.2394163608551025 0.1390686184167862 0.02467346377670765 0.1031799390912056 -0.05797705392503561 -0.592941097381925 0.5777198715465199 1.3414371970018852 -1.160280480271254 1.4439055220137635 0.0 0.0 0.0 0.0 0.0 0.0 8.598209953764474 -8.835629634223103 26.22034597484548 2.607092057286665 1.8304599413658853 -0.3032087102534485 -0.05799311327774759 -0.5929502007465529 0.5777073182729541 1.3414462790079775 -1.160289450013499 1.4438993030729628 0.0 0.0 0.0 0.0 0.0 0.0 0 19.959991455078125 20.609281539916992 21.251556396484375 23.151506423950195 27.33651351928711 25.329992294311523 0.434736 7 253 253 253 253 253 253 1 10.31212043762207 -0.2787059545516968 -0.18880081176757812 0.0 1.0 0.0 48.19097137451172 48.19097137451172 0.6087239384651184 48.152000427246094 48.137001037597656 47.87900161743164 48.06100082397461 48.0 48.029998779296875 768 1 0.0002384185791015625
152.784 -1.415152374898092 -1.4149287382708948 -1.7784298102008265 3.1956124305725098 -1.6397460142718714 1.6576306819915771 0.0 0.0 0.0 0.0 0.0 0.0 0.0 0.0 0.0 0.0 0.0 0.0 -3.4366217202561994e-17 2.6020318689302147 4.494641874794851 0.21775098482208408 3.573191639423122e-05 0.0013874862917526072 -4.868019463655754e-16 37.22216257260534 51.54237969054434 2.465192942317517 0.00041842624626333596 0.0161522969244293 -1.4151161352740687 -1.4148805777179163 -1.7784178892718714 3.1955409049987793 -1.6397221724139612 1.6576546430587769 0.0 0.0 -0.0 0.0 0.0 0.0 -0.3067016899585724 2.096557855606079 3.2371745109558105 0.1480407863855362 0.02467346377670765 0.1009368970990181 -0.2700805962085724 2.078247308731079 3.2394163608551025 0.1390686184167862 0.02467346377670765 0.1031799390912056 -0.05797821666482633 -0.592924387827209 0.5777359385512517 1.3414550596086208 -1.1603111013007832 1.4439188554066367 0.0 0.0 0.0 0.0 0.0 0.0 7.834138741874979 -8.139060982984772 26.311981740241865 2.622956680895806 2.0392407518948064 -0.2458683878668716 -0.05799311327774759 -0.5929502007465529 0.5777073182729541 1.3414462790079775 -1.160289450013499 1.4438993030729628 0.0 0.0 0.0 0.0 0.0 0.0 0 19.959991455078125 20.60935401916504 21.251556396484375 23.152355194091797 27.339862823486328 25.329992294311523 0.359892 7 253 253 253 253 253 253 1 10.294139862060547 -0.3236585259437561 -0.18280713260173798 0.0 1.0 0.0 48.25174331665039 48.19097137451172 0.7161448001861572 48.152000427246094 48.10599899291992 47.87900161743164 48.04600143432617 48.04600143432617 48.029998779296875 66304 1 0.000362396240234375
152.792 -1.415152374898092 -1.4149287382708948 -1.7784298102008265 3.1956124305725098 -1.6397460142718714 1.6576306819915771 0.0 0.0 0.0 0.0 0.0 0.0 0.0 0.0 0.0 0.0 0.0 0.0 -3.4366217202561994e-17 2.6020318689302147 4.494641874794851 0.21775098482208408 3.573191639423122e-05 0.0013874862917526072 -4.868019463655754e-16 37.22216257260534 51.54237969054434 2.465192942317517 0.00041842624626333596 0.0161522969244293 -1.4151280562030237 -1.4148924986468714 -1.778405491505758 3.1956124305725098 -1.6396978537188929 1.6576306819915771 0.0 0.0 -0.0 0.0 0.0 0.0 -0.2380371391773224 2.055359125137329 3.2528672218322754 0.1413116604089737 0.0291595496237278 0.0964508131146431 -0.2426147758960724 2.073669672012329 3.2394163608551025 0.1390686184167862 0.02467346377670765 0.1031799390912056 -0.057985266316922635 -0.5929403751807785 0.5777445222475156 1.3413816876253715 -1.160256406957274 1.4439143862684778 0.0 0.0 0.0 0.0 0.0 0.0 5.6864447959968025 -7.105676697260421 25.882175524639248 2.3428043918693136 1.894095971854077 -0.003213845714096162 -0.05799311327774759 -0.5929502007465529 0.5777073182729541 1.3414462790079775 -1.160289450013499 1.4438993030729628 0.0 0.0 0.0 0.0 0.0 0.0 0 19.959991455078125 20.60935401916504 21.251556396484375 23.152355194091797 27.339862823486328 25.329992294311523 0.35754 7 253 253 253 253 253 253 1 10.321111679077148 -0.3236585259437561 -0.1678229421377182 0.0 1.0 0.0 48.19097137451172 48.19097137451172 0.6445291042327881 48.137001037597656 48.10599899291992 47.87900161743164 48.04600143432617 48.04600143432617 48.029998779296875 768 1 0.00048160552978515625
152.79999999999998 -1.415152374898092 -1.4149287382708948 -1.7784298102008265 3.1956124305725098 -1.6397460142718714 1.6576306819915771 0.0 0.0 0.0 0.0 0.0 0.0 0.0 0.0 0.0 0.0 0.0 0.0 -3.4366217202561994e-17 2.6020318689302147 4.494641874794851 0.21775098482208408 3.573191639423122e-05 0.0013874862917526072 -4.868019463655754e-16 37.22216257260534 51.54237969054434 2.465192942317517 0.00041842624626333596 0.0161522969244293 -1.4151280562030237 -1.4148686567889612 -1.778405491505758 3.1956124305725098 -1.6397340933429163 1.6576546430587769 0.0 0.0 -0.0 0.0 0.0 0.0 -0.2105713039636612 2.087402582168579 3.2416579723358154 0.1300964504480362 0.01345825381577015 0.1143951565027237 -0.2609253227710724 2.078247308731079 3.2394163608551025 0.1390686184167862 0.02467346377670765 0.1031799390912056 -0.05798317226685082 -0.5929288555633422 0.5777583025927212 1.3413811969364402 -1.1602393265369055 1.443969740839758 0.0 0.0 0.0 0.0 0.0 0.0 5.021976216782844 -8.325053859349195 25.830355083484115 2.2961083000720643 2.1138506472855925 -0.11606979896551507 -0.05799311327774759 -0.5929502007465529 0.5777073182729541 1.3414462790079775 -1.160289450013499 1.4438993030729628 0.0 0.0 0.0 0.0 0.0 0.0 0 19.959991455078125 20.60935401916504 21.251556396484375 23.152355194091797 27.339862823486328 25.329992294311523 0.35184 7 253 253 253 253 253 253 1 10.30013370513916 -0.3206616938114166 -0.20078817009925842 0.0 1.0 0.0 48.25174331665039 48.19097137451172 0.6087239384651184 48.137001037597656 48.10599899291992 47.87900161743164 48.04600143432617 48.04600143432617 48.029998779296875 768 1 0.000362396240234375
152.808 -1.415152374898092 -1.4149287382708948 -1.7784298102008265 3.1956124305725098 -1.6397460142718714 1.6576306819915771 0.0 0.0 0.0 0.0 0.0 0.0 0.0 0.0 0.0 0.0 0.0 0.0 -3.4366217202561994e-17 2.6020318689302147 4.494641874794851 0.21775098482208408 3.573191639423122e-05 0.0013874862917526072 -4.868019463655754e-16 37.22216257260534 51.54237969054434 2.465192942317517 0.00041842624626333596 0.0161522969244293 -1.4151399771319788 -1.4148567358600062 -1.7784178892718714 3.1956124305725098 -1.6397460142718714 1.6576427221298218 0.0 0.0 -0.0 0.0 0.0 0.0 -0.2517700493335724 2.027893304824829 3.2573506832122803 0.1547699123620987 0.02467346377670765 0.0964508131146431 -0.2655029594898224 2.046203851699829 3.2394163608551025 0.1390686184167862 0.02467346377670765 0.1031799390912056 -0.057990351939298926 -0.5929207114882127 0.5777568582874117 1.3413864065620285 -1.1602297389080383 1.4439608996959752 0.0 0.0 0.0 0.0 0.0 0.0 6.4085383290908196 -6.1176471304140465 26.124671750146607 2.4269708030986363 1.9233123566538302 -0.1558785250533653 -0.05799311327774759 -0.5929502007465529 0.5777073182729541 1.3414462790079775 -1.160289450013499 1.4438993030729628 0.0 0.0 0.0 0.0 0.0 0.0 0 19.959991455078125 20.60935401916504 21.251556396484375 23.152355194091797 27.339862823486328 25.329992294311523 0.35155200000000003 7 253 253 253 253 253 253 1 10.33010196685791 -0.30567750334739685 -0.1678229421377182 0.0 1.0 0.0 48.19097137451172 48.19097137451172 0.6445291042327881 48.137001037597656 48.10599899291992 47.87900161743164 48.04600143432617 48.04600143432617 48.029998779296875 66304 1 0.0006008148193359375
152.816 -1.415152374898092 -1.4149287382708948 -1.7784298102008265 3.1956124305725098 -1.6397460142718714 1.6576306819915771 0.0 0.0 0.0 0.0 0.0 0.0 0.0 0.0 0.0 0.0 0.0 0.0 -3.4366217202561994e-17 2.6020318689302147 4.494641874794851 0.21775098482208408 3.573191639423122e-05 0.0013874862917526072 -4.868019463655754e-16 37.22216257260534 51.54237969054434 2.465192942317517 0.00041842624626333596 0.0161522969244293 -1.4151042143451136 -1.4148805777179163 -1.7784178892718714 3.1956005096435547 -1.6396978537188929 1.6576786041259766 0.0 0.0 -0.0 0.0 0.0 0.0 -0.2700805962085724 2.119446039199829 3.2416579723358154 0.1457977443933487 0.01794433780014515 0.1121521145105362 -0.2655029594898224 2.082824945449829 3.2394163608551025 0.1390686184167862 0.02467346377670765 0.1031799390912056 -0.057972063739763574 -0.5929329776168664 0.577741933581015 1.3413900620777313 -1.1602927609161702 1.4439587801031601 0.0 0.0 0.0 0.0 0.0 0.0 6.719601310748099 -8.865638722429097 26.13511092340366 2.6215671797827733 2.176475550233439 -0.20878126920374526 -0.05799311327774759 -0.5929502007465529 0.5777073182729541 1.3414462790079775 -1.160289450013499 1.4438993030729628 0.0 0.0 0.0 0.0 0.0 0.0 0 19.959991455078125 20.60935401916504 21.251556396484375 23.152355194091797 27.339862823486328 25.329992294311523 0.35173200000000004 7 253 253 253 253 253 253 1 10.34208869934082 -0.29369014501571655 -0.17681346833705902 0.0 1.0 0.0 48.19097137451172 48.19097137451172 0.6803395748138428 48.137001037597656 48.10599899291992 47.87900161743164 48.04600143432617 48.04600143432617 48.029998779296875 131840 1 0.0007200241088867188
152.82399999999998 -1.415152374898092 -1.4149287382708948 -1.7784298102008265 3.1956124305725098 -1.6397460142718714 1.6576306819915771 0.0 0.0 0.0 0.0 0.0 0.0 0.0 0.0 0.0 0.0 0.0 0.0 -3.4366217202561994e-17 2.6020318689302147 4.494641874794851 0.21775098482208408 3.573191639423122e-05 0.0013874862917526072 -4.868019463655754e-16 37.22216257260534 51.54237969054434 2.465192942317517 0.00041842624626333596 0.0161522969244293 -1.4151042143451136 -1.4149048964129847 -1.778405491505758 3.1955761909484863 -1.639709774647848 1.6576786041259766 0.0 0.0 -0.0 0.0 0.0 0.0 -0.3021240532398224 2.091980218887329 3.2595925331115723 0.1413116604089737 0.01794433780014515 0.1099090725183487 -0.2929687798023224 2.091980218887329 3.2394163608551025 0.1390686184167862 0.02467346377670765 0.1031799390912056 -0.057969381641520074 -0.5929423905176934 0.5777337798013085 1.3414269393536968 -1.160313827266611 1.4439481630447597 0.0 0.0 0.0 0.0 0.0 0.0 7.953035571213833 -7.615577156914866 25.68276949030291 2.398028950559115 2.1076680805980796 -0.35879300784564994 -0.05799311327774759 -0.5929502007465529 0.5777073182729541 1.3414462790079775 -1.160289450013499 1.4438993030729628 0.0 0.0 0.0 0.0 0.0 0.0 0 19.959991455078125 20.60935401916504 21.251556396484375 23.152355194091797 27.339862823486328 25.329992294311523 0.35133600000000004 7 253 253 253 253 253 253 1 10.303130149841309 -0.3206616938114166 -0.1438482403755188 0.0 1.0 0.0 48.25174331665039 48.19097137451172 0.6445291042327881 48.137001037597656 48.10599899291992 47.87900161743164 48.04600143432617 48.04600143432617 48.06100082397461 66304 1 0.00048160552978515625
152.832 -1.415152374898092 -1.4149287382708948 -1.7784298102008265 3.1956124305725098 -1.6397460142718714 1.6576306819915771 0.0 0.0 0.0 0.0 0.0 0.0 0.0 0.0 0.0 0.0 0.0 0.0 -3.4366217202561994e-17 2.6020318689302147 4.494641874794851 0.21775098482208408 3.573191639423122e-05 0.0013874862917526072 -4.868019463655754e-16 37.22216257260534 51.54237969054434 2.465192942317517 0.00041842624626333596 0.0161522969244293 -1.4150922934161585 -1.4148686567889612 -1.778405491505758 3.1955881118774414 -1.6397340933429163 1.6576546430587769 0.0 0.0 -0.0 0.0 0.0 0.0 -0.2975464165210724 2.046203851699829 3.2394163608551025 0.1435547024011612 0.0269165076315403 0.1009368970990181 -0.2838135063648224 2.078247308731079 3.2394163608551025 0.1390686184167862 0.02467346377670765 0.1031799390912056 -0.05796246402755485 -0.5929279210944133 0.5777558636129962 1.341427045337514 -1.1602390157497566 1.443982270650828 0.0 0.0 0.0 0.0 0.0 0.0 7.708435393631319 -6.7708331346455175 26.23317589689619 2.3919769681725764 1.986482492094774 -0.2373340872688381 -0.05799311327774759 -0.5929502007465529 0.5777073182729541 1.3414462790079775 -1.160289450013499 1.4438993030729628 0.0 0.0 0.0 0.0 0.0 0.0 0 19.959991455078125 20.60935401916504 21.25240135192871 23.152355194091797 27.339862823486328 25.329992294311523 0.35042399999999996 7 253 253 253 253 253 253 1 10.31212043762207 -0.30567750334739685 -0.15283875167369843 0.0 1.0 0.0 48.19097137451172 48.19097137451172 0.7519552707672119 48.137001037597656 48.10599899291992 47.86399841308594 48.04600143432617 48.04600143432617 48.06100082397461 768 1 0.00048160552978515625
152.84 -1.415152374898092 -1.4149287382708948 -1.7784298102008265 3.1956124305725098 -1.6397460142718714 1.6576306819915771 0.0 0.0 0.0 0.0 0.0 0.0 0.0 0.0 0.0 0.0 0.0 0.0 -3.4366217202561994e-17 2.6020318689302147 4.494641874794851 0.21775098482208408 3.573191639423122e-05 0.0013874862917526072 -4.868019463655754e-16 37.22216257260534 51.54237969054434 2.465192942317517 0.00041842624626333596 0.0161522969244293 -1.4151399771319788 -1.4148924986468714 -1.778393570576803 3.1956005096435547 -1.6397579352008265 1.6576427221298218 0.0 0.0 -0.0 0.0 0.0 0.0 -0.2655029594898224 2.064514398574829 3.2282071113586426 0.1480407863855362 0.0269165076315403 0.1054229810833931 -0.2838135063648224 2.082824945449829 3.2394163608551025 0.1390686184167862 0.02467346377670765 0.1031799390912056 -0.057986307760357535 -0.5929385683583334 0.5777513388199262 1.3414133111330904 -1.1602412595836962 1.443957217657852 0.0 0.0 0.0 0.0 0.0 0.0 6.536960226499489 -7.643192022183793 26.55259451665521 2.553146170981338 2.071902915162346 -0.10246756217986455 -0.05799311327774759 -0.5929502007465529 0.5777073182729541 1.3414462790079775 -1.160289450013499 1.4438993030729628 0.0 0.0 0.0 0.0 0.0 0.0 0 19.959991455078125 20.60935401916504 21.25240135192871 23.152355194091797 27.339862823486328 25.329992294311523 0.3738 7 253 253 253 253 253 253 1 10.306126594543457 -0.2996838390827179 -0.18880081176757812 0.0 1.0 0.0 48.25174331665039 48.19097137451172 0.7877604365348816 48.137001037597656 48.10599899291992 47.86399841308594 48.04600143432617 48.04600143432617 48.06100082397461 66304 1 0.0006008148193359375
152.84799999999998 -1.415152374898092 -1.4149287382708948 -1.7784298102008265 3.1956124305725098 -1.6397460142718714 1.6576306819915771 0.0 0.0 0.0 0.0 0.0 0.0 0.0 0.0 0.0 0.0 0.0 0.0 -3.4366217202561994e-17 2.6020318689302147 4.494641874794851 0.21775098482208408 3.573191639423122e-05 0.0013874862917526072 -4.868019463655754e-16 37.22216257260534 51.54237969054434 2.465192942317517 0.00041842624626333596 0.0161522969244293 -1.415152374898092 -1.4148805777179163 -1.7784298102008265 3.195624351501465 -1.6396978537188929 1.6576427221298218 0.0 0.0 -0.0 0.0 0.0 0.0 -0.2609253227710724 2.037048578262329 3.2282071113586426 0.1368255764245987 0.0269165076315403 0.0964508131146431 -0.2838135063648224 2.082824945449829 3.2394163608551025 0.1390686184167862 0.02467346377670765 0.1009368970990181 -0.05800079238079267 -0.5929313928820257 0.5777363004269704 1.341358825934579 -1.1602791727684538 1.4439052747856722 0.0 0.0 0.0 0.0 0.0 0.0 6.506398587343759 -6.94185506987239 26.338754717066802 2.327201196348303 1.8988617237209664 -0.11643486755935432 -0.05799311327774759 -0.5929502007465529 0.5777073182729541 1.3414462790079775 -1.160289450013499 1.4438993030729628 0.0 0.0 0.0 0.0 0.0 0.0 0 19.959991455078125 20.60935401916504 21.25240135192871 23.152355194091797 27.339862823486328 25.329992294311523 0.351468 7 253 253 253 253 253 253 1 10.291142463684082 -0.3326490521430969 -0.18580397963523865 0.0 1.0 0.0 48.19097137451172 48.19097137451172 0.7519552707672119 48.137001037597656 48.10599899291992 47.86399841308594 48.04600143432617 48.04600143432617 48.06100082397461 768 1 0.000362396240234375
152.856 -1.415152374898092 -1.4149287382708948 -1.7784298102008265 3.1956124305725098 -1.6397460142718714 1.6576306819915771 0.0 0.0 0.0 0.0 0.0 0.0 0.0 0.0 0.0 0.0 0.0 0.0 -3.4366217202561994e-17 2.6020318689302147 4.494641874794851 0.21775098482208408 3.573191639423122e-05 0.0013874862917526072 -4.868019463655754e-16 37.22216257260534 51.54237969054434 2.465192942317517 0.00041842624626333596 0.0161522969244293 -1.4151399771319788 -1.4148924986468714 -1.7784298102008265 3.1956005096435547 -1.6397221724139612 1.6576906442642212 0.0 0.0 -0.0 0.0 0.0 0.0 -0.2334595024585724 2.005005121231079 3.2394163608551025 0.1480407863855362 0.02243042178452015 0.0762634351849556 -0.2471924126148224 2.032470941543579 3.2394163608551025 0.1390686184167862 0.02467346377670765 0.1031799390912056 -0.057990268181183226 -0.5929337699126828 0.5777270783178639 1.3413948686661745 -1.1603264353618388 1.4439465625667474 0.0 0.0 0.0 0.0 0.0 0.0 5.91239913880502 -5.9230947380543135 26.393241719178658 2.380190358752476 1.6371863140877556 -0.1413120988815859 -0.05799311327774759 -0.5929502007465529 0.5777073182729541 1.3414462790079775 -1.160289450013499 1.4438993030729628 0.0 0.0 0.0 0.0 0.0 0.0 0 19.959991455078125 20.609418869018555 21.25240135192871 23.153120040893555 27.339862823486328 25.329992294311523 0.351156 7 253 253 253 253 253 253 1 10.315117835998535 -0.28170281648635864 -0.18880081176757812 0.0 1.0 0.0 48.25174331665039 48.19097137451172 0.6087239384651184 48.137001037597656 48.10599899291992 47.86399841308594 48.06100082397461 48.04600143432617 48.06100082397461 768 1 0.00048160552978515625
152.864 -1.415152374898092 -1.4149287382708948 -1.7784298102008265 3.1956124305725098 -1.6397460142718714 1.6576306819915771 0.0 0.0 0.0 0.0 0.0 0.0 0.0 0.0 0.0 0.0 0.0 0.0 -3.4366217202561994e-17 2.6020318689302147 4.494641874794851 0.21775098482208408 3.573191639423122e-05 0.0013874862917526072 -4.868019463655754e-16 37.22216257260534 51.54237969054434 2.465192942317517 0.00041842624626333596 0.0161522969244293 -1.4151161352740687 -1.4149048964129847 -1.7784298102008265 3.1956005096435547 -1.6397579352008265 1.6576546430587769 0.0 0.0 -0.0 0.0 0.0 0.0 -0.2517700493335724 2.059936761856079 3.2461416721343994 0.1345825344324112 0.0269165076315403 0.1300964504480362 -0.2609253227710724 2.069092035293579 3.2394163608551025 0.1390686184167862 0.02467346377670765 0.1009368970990181 -0.05797213890409624 -0.5929398903428255 0.577719899824669 1.3414640212880704 -1.1602751873871469 1.4439568223446175 0.0 0.0 0.0 0.0 0.0 0.0 6.154386854247157 -7.307639183225693 25.870021727518445 2.2194027750752783 2.320274413481652 -0.07417984951182424 -0.05799311327774759 -0.5929502007465529 0.5777073182729541 1.3414462790079775 -1.160289450013499 1.4438993030729628 0.0 0.0 0.0 0.0 0.0 0.0 0 19.959991455078125 20.609418869018555 21.25240135192871 23.153120040893555 27.343875885009766 25.329992294311523 0.36685199999999996 7 253 253 253 253 253 253 1 10.303130149841309 -0.3206616938114166 -0.17381662130355835 0.0 1.0 0.0 48.25174331665039 48.19097137451172 0.7519552707672119 48.137001037597656 48.10599899291992 47.86399841308594 48.06100082397461 48.029998779296875 48.06100082397461 66304 1 0.000362396240234375
152.87199999999999 -1.415152374898092 -1.4149287382708948 -1.7784298102008265 3.1956124305725098 -1.6397460142718714 1.6576306819915771 0.0 0.0 0.0 0.0 0.0 0.0 0.0 0.0 0.0 0.0 0.0 0.0 -3.4366217202561994e-17 2.6020318689302147 4.494641874794851 0.21775098482208408 3.573191639423122e-05 0.0013874862917526072 -4.868019463655754e-16 37.22216257260534 51.54237969054434 2.465192942317517 0.00041842624626333596 0.0161522969244293 -1.4151280562030237 -1.4148805777179163 -1.7784417311297815 3.1956124305725098 -1.6397221724139612 1.6576427221298218 0.0 0.0 -0.0 0.0 0.0 0.0 -0.2609253227710724 2.046203851699829 3.2416579723358154 0.1457977443933487 0.0269165076315403 0.0942077711224556 -0.2655029594898224 2.059936761856079 3.2394163608551025 0.1390686184167862 0.02467346377670765 0.1031799390912056 -0.05798456353181472 -0.5929289236709822 0.5777271158851516 1.3414140497991653 -1.160271772406842 1.443927181107751 0.0 0.0 0.0 0.0 0.0 0.0 6.510830192250374 -6.912985801450393 26.236474595845444 2.4295612595603036 1.8931998254250804 -0.11725979836902835 -0.05799311327774759 -0.5929502007465529 0.5777073182729541 1.3414462790079775 -1.160289450013499 1.4438993030729628 0.0 0.0 0.0 0.0 0.0 0.0 0 19.959991455078125 20.609418869018555 21.25240135192871 23.153120040893555 27.343875885009766 25.329992294311523 0.44226 7 253 253 253 253 253 253 1 10.309123992919922 -0.2876964807510376 -0.17381662130355835 0.0 1.0 0.0 48.19097137451172 48.19097137451172 0.6087239384651184 48.137001037597656 48.10599899291992 47.86399841308594 48.06100082397461 48.029998779296875 48.06100082397461 131840 1 0.000362396240234375
152.88 -1.415152374898092 -1.4149287382708948 -1.7784298102008265 3.1956124305725098 -1.6397460142718714 1.6576306819915771 0.0 0.0 0.0 0.0 0.0 0.0 0.0 0.0 0.0 0.0 0.0 0.0 -3.4366217202561994e-17 2.6020318689302147 4.494641874794851 0.21775098482208408 3.573191639423122e-05 0.0013874862917526072 -4.868019463655754e-16 37.22216257260534 51.54237969054434 2.465192942317517 0.00041842624626333596 0.0161522969244293 -1.4151161352740687 -1.4148805777179163 -1.7784178892718714 3.1955647468566895 -1.6397221724139612 1.6576067209243774 0.0 0.0 -0.0 0.0 0.0 0.0 -0.2471924126148224 2.064514398574829 3.2349326610565186 0.1368255764245987 0.0269165076315403 0.0964508131146431 -0.2655029594898224 2.055359125137329 3.2394163608551025 0.1390686184167862 0.02467346377670765 0.1031799390912056 -0.05797819429040798 -0.5929274470810065 0.5777382872378921 1.3414559690385102 -1.1602537734858387 1.4438974193808856 0.0 0.0 0.0 0.0 0.0 0.0 5.948932267895178 -7.652163424173509 26.15612579996877 2.3848583506136523 1.9055728761091852 -0.04500530612651734 -0.05799311327774759 -0.5929502007465529 0.5777073182729541 1.3414462790079775 -1.160289450013499 1.4438993030729628 0.0 0.0 0.0 0.0 0.0 0.0 0 19.959991455078125 20.609418869018555 21.25240135192871 23.153120040893555 27.343875885009766 25.329992294311523 0.41886 7 253 253 253 253 253 253 1 10.30013370513916 -0.30567750334739685 -0.14684507250785828 0.0 1.0 0.0 48.19097137451172 48.19097137451172 0.6803395748138428 48.137001037597656 48.10599899291992 47.86399841308594 48.06100082397461 48.029998779296875 48.06100082397461 66304 1 0.00048160552978515625
152.888 -1.415152374898092 -1.4149287382708948 -1.7784298102008265 3.1956124305725098 -1.6397460142718714 1.6576306819915771 0.0 0.0 0.0 0.0 0.0 0.0 0.0 0.0 0.0 0.0 0.0 0.0 -3.4366217202561994e-17 2.6020318689302147 4.494641874794851 0.21775098482208408 3.573191639423122e-05 0.0013874862917526072 -4.868019463655754e-16 37.22216257260534 51.54237969054434 2.465192942317517 0.00041842624626333596 0.0161522969244293 -1.4151399771319788 -1.4149048964129847 -1.7784298102008265 3.1956005096435547 -1.6397460142718714 1.6576306819915771 0.0 0.0 -0.0 0.0 0.0 0.0 -0.2929687798023224 2.064514398574829 3.2371745109558105 0.1345825344324112 0.02243042178452015 0.1099090725183487 -0.2929687798023224 2.055359125137329 3.2394163608551025 0.1390686184167862 0.02467346377670765 0.1031799390912056 -0.0579876670037221 -0.5929388482828065 0.5777198769240728 1.3414465775899895 -1.1602739670610032 1.4439143228545817 0.0 0.0 0.0 0.0 0.0 0.0 7.582972656083737 -7.361752285620033 26.05486907640668 2.3135064954782885 2.085201327689207 -0.2701658124704027 -0.05799311327774759 -0.5929502007465529 0.5777073182729541 1.3414462790079775 -1.160289450013499 1.4438993030729628 0.0 0.0 0.0 0.0 0.0 0.0 0 19.959991455078125 20.609418869018555 21.25240135192871 23.153120040893555 27.343875885009766 25.329992294311523 0.35139600000000004 7 253 253 253 253 253 253 1 10.288146018981934 -0.2727122902870178 -0.13485772907733917 0.0 1.0 0.0 48.19097137451172 48.19097137451172 0.7877604365348816 48.137001037597656 48.10599899291992 47.86399841308594 48.06100082397461 48.029998779296875 48.06100082397461 768 1 0.00048160552978515625
152.896 -1.415152374898092 -1.4149287382708948 -1.7784298102008265 3.1956124305725098 -1.6397460142718714 1.6576306819915771 0.0 0.0 0.0 0.0 0.0 0.0 0.0 0.0 0.0 0.0 0.0 0.0 -3.4366217202561994e-17 2.6020318689302147 4.494641874794851 0.21775098482208408 3.573191639423122e-05 0.0013874862917526072 -4.868019463655754e-16 37.22216257260534 51.54237969054434 2.465192942317517 0.00041842624626333596 0.0161522969244293 -1.415152374898092 -1.4148924986468714 -1.7784417311297815 3.19563627243042 -1.639709774647848 1.6576427221298218 0.0 0.0 -0.0 0.0 0.0 0.0 -0.2838135063648224 2.073669672012329 3.2438998222351074 0.1502838283777237 0.02018737979233265 0.1143951565027237 -0.2746582329273224 2.050781488418579 3.2394163608551025 0.1390686184167862 0.02467346377670765 0.1031799390912056 -0.05799887081385595 -0.5929360573103862 0.5777226282089363 1.3413769942543718 -1.1602819603089727 1.44390746181549 0.0 0.0 0.0 0.0 0.0 0.0 7.33021374537896 -7.473768063618524 26.249744496725 2.526404634386651 2.1931115698156245 -0.2722591583130675 -0.05799311327774759 -0.5929502007465529 0.5777073182729541 1.3414462790079775 -1.160289450013499 1.4438993030729628 0.0 0.0 0.0 0.0 0.0 0.0 0 19.959991455078125 20.609418869018555 21.25240135192871 23.153120040893555 27.343875885009766 25.329992294311523 0.350796 7 253 253 253 253 253 253 1 10.324108123779297 -0.30567750334739685 -0.1438482403755188 0.0 1.0 0.0 48.19097137451172 48.19097137451172 0.6445291042327881 48.137001037597656 48.10599899291992 47.86399841308594 48.06100082397461 48.029998779296875 48.06100082397461 66304 1 0.0002384185791015625
152.904 -1.415152374898092 -1.4149287382708948 -1.7784298102008265 3.1956124305725098 -1.6397460142718714 1.6576306819915771 0.0 0.0 0.0 0.0 0.0 0.0 0.0 0.0 0.0 0.0 0.0 0.0 -3.4366217202561994e-17 2.6020318689302147 4.494641874794851 0.21775098482208408 3.573191639423122e-05 0.0013874862917526072 -4.868019463655754e-16 37.22216257260534 51.54237969054434 2.465192942317517 0.00041842624626333596 0.0161522969244293 -1.415152374898092 -1.4148686567889612 -1.7784298102008265 3.1956005096435547 -1.6397579352008265 1.6576786041259766 0.0 0.0 -0.0 0.0 0.0 0.0 -0.2838135063648224 2.032470941543579 3.2416579723358154 0.1570129543542862 0.01794433780014515 0.1143951565027237 -0.2563476860523224 2.037048578262329 3.2394163608551025 0.1390686184167862 0.02467346377670765 0.1031799390912056 -0.0579959201288236 -0.5929216259315724 0.5777408267169919 1.3413991204262325 -1.1602863419005987 1.443967131101589 0.0 0.0 0.0 0.0 0.0 0.0 7.578044329478153 -6.335602299873837 26.506501102737975 2.5016469176083795 2.192472272091577 -0.3530664626383164 -0.05799311327774759 -0.5929502007465529 0.5777073182729541 1.3414462790079775 -1.160289450013499 1.4438993030729628 0.0 0.0 0.0 0.0 0.0 0.0 0 19.959991455078125 20.609418869018555 21.25240135192871 23.153120040893555 27.343875885009766 25.329992294311523 0.352668 7 253 253 253 253 253 253 1 10.279155731201172 -0.31766486167907715 -0.13485772907733917 0.0 1.0 0.0 48.25174331665039 48.19097137451172 0.6445291042327881 48.137001037597656 48.10599899291992 47.86399841308594 48.06100082397461 48.029998779296875 48.06100082397461 768 1 0.000362396240234375
152.912 -1.415152374898092 -1.4149287382708948 -1.7784298102008265 3.1956124305725098 -1.6397460142718714 1.6576306819915771 0.0 0.0 0.0 0.0 0.0 0.0 0.0 0.0 0.0 0.0 0.0 0.0 -3.4366217202561994e-17 2.6020318689302147 4.494641874794851 0.21775098482208408 3.573191639423122e-05 0.0013874862917526072 -4.868019463655754e-16 37.22216257260534 51.54237969054434 2.465192942317517 0.00041842624626333596 0.0161522969244293 -1.4151399771319788 -1.4148686567889612 -1.7784178892718714 3.1955647468566895 -1.6397221724139612 1.6576786041259766 0.0 0.0 -0.0 0.0 0.0 0.0 -0.2609253227710724 2.073669672012329 3.2438998222351074 0.1390686184167862 0.01570129580795765 0.0986938551068306 -0.2655029594898224 2.050781488418579 3.2394163608551025 0.1390686184167862 0.02467346377670765 0.1031799390912056 -0.057992464977341465 -0.5929206003439194 0.5777452274330624 1.3413998183194755 -1.1603163609362623 1.4439378777975658 0.0 0.0 0.0 0.0 0.0 0.0 6.692771376791424 -7.610953143664857 25.999166824490395 2.401420486286894 1.9460579050567253 -0.26561375219469285 -0.05799311327774759 -0.5929502007465529 0.5777073182729541 1.3414462790079775 -1.160289450013499 1.4438993030729628 0.0 0.0 0.0 0.0 0.0 0.0 0 19.959991455078125 20.609418869018555 21.25316047668457 23.153120040893555 27.343875885009766 25.329992294311523 0.350976 7 253 253 253 253 253 253 1 10.303130149841309 -0.2996838390827179 -0.14684507250785828 0.0 1.0 0.0 48.19097137451172 48.19097137451172 0.6087239384651184 48.137001037597656 48.10599899291992 47.87900161743164 48.06100082397461 48.029998779296875 48.06100082397461 768 1 0.0006008148193359375
152.92 -1.415152374898092 -1.4149287382708948 -1.7784298102008265 3.1956124305725098 -1.6397460142718714 1.6576306819915771 0.0 0.0 0.0 0.0 0.0 0.0 0.0 0.0 0.0 0.0 0.0 0.0 -3.4366217202561994e-17 2.6020318689302147 4.494641874794851 0.21775098482208408 3.573191639423122e-05 0.0013874862917526072 -4.868019463655754e-16 37.22216257260534 51.54237969054434 2.465192942317517 0.00041842624626333596 0.0161522969244293 -1.415152374898092 -1.4148924986468714 -1.7784536520587366 3.1955647468566895 -1.6397340933429163 1.6576306819915771 0.0 0.0 -0.0 0.0 0.0 0.0 -0.2517700493335724 2.037048578262329 3.2282071113586426 0.1525268703699112 0.02018737979233265 0.0964508131146431 -0.2655029594898224 2.050781488418579 3.2394163608551025 0.1390686184167862 0.02467346377670765 0.1031799390912056 -0.05799839468363942 -0.5929248328938455 0.5777074557864489 1.3414646054316692 -1.1603217836528423 1.4438718127395889 0.0 0.0 0.0 0.0 0.0 0.0 6.396627019471112 -6.904905548956711 26.691281000996078 2.549349032519972 1.9506714153470535 -0.1945513531220122 -0.05799311327774759 -0.5929502007465529 0.5777073182729541 1.3414462790079775 -1.160289450013499 1.4438993030729628 0.0 0.0 0.0 0.0 0.0 0.0 0 19.959991455078125 20.609418869018555 21.25316047668457 23.153120040893555 27.343875885009766 25.329992294311523 0.35052 7 253 253 253 253 253 253 1 10.309123992919922 -0.30567750334739685 -0.1318608820438385 0.0 1.0 0.0 48.19097137451172 48.19097137451172 0.6087239384651184 48.137001037597656 48.10599899291992 47.87900161743164 48.06100082397461 48.029998779296875 48.06100082397461 66304 1 0.0006008148193359375
152.928 -1.415152374898092 -1.4149287382708948 -1.7784298102008265 3.1956124305725098 -1.6397460142718714 1.6576306819915771 0.0 0.0 0.0 0.0 0.0 0.0 0.0 0.0 0.0 0.0 0.0 0.0 -3.4366217202561994e-17 2.6020318689302147 4.494641874794851 0.21775098482208408 3.573191639423122e-05 0.0013874862917526072 -4.868019463655754e-16 37.22216257260534 51.54237969054434 2.465192942317517 0.00041842624626333596 0.0161522969244293 -1.4151280562030237 -1.4149048964129847 -1.778405491505758 3.1956005096435547 -1.6397460142718714 1.6576427221298218 0.0 0.0 -0.0 0.0 0.0 0.0 -0.2426147758960724 2.059936761856079 3.2326908111572266 0.1413116604089737 0.02467346377670765 0.1076660305261612 -0.2655029594898224 2.046203851699829 3.2394163608551025 0.1390686184167862 0.02467346377670765 0.1031799390912056 -0.05797984601300091 -0.5929432320116097 0.5777361923583477 1.3414320142966056 -1.160259553501743 1.4439443500305575 0.0 0.0 0.0 0.0 0.0 0.0 5.875870050433683 -7.567984771066171 26.311977275858716 2.4202336488605685 2.0639714464811316 -0.06961199283717225 -0.05799311327774759 -0.5929502007465529 0.5777073182729541 1.3414462790079775 -1.160289450013499 1.4438993030729628 0.0 0.0 0.0 0.0 0.0 0.0 0 19.959991455078125 20.60947608947754 21.25316047668457 23.15380859375 27.343875885009766 25.329992294311523 0.363564 7 253 253 253 253 253 253 1 10.267168045043945 -0.2996838390827179 -0.14984191954135895 0.0 1.0 0.0 48.19097137451172 48.19097137451172 0.7161448001861572 48.137001037597656 48.137001037597656 47.87900161743164 48.06100082397461 48.029998779296875 48.06100082397461 131840 1 0.000362396240234375
152.936 -1.415152374898092 -1.4149287382708948 -1.7784298102008265 3.1956124305725098 -1.6397460142718714 1.6576306819915771 0.0 0.0 0.0 0.0 0.0 0.0 0.0 0.0 0.0 0.0 0.0 0.0 -3.4366217202561994e-17 2.6020318689302147 4.494641874794851 0.21775098482208408 3.573191639423122e-05 0.0013874862917526072 -4.868019463655754e-16 37.22216257260534 51.54237969054434 2.465192942317517 0.00041842624626333596 0.0161522969244293 -1.415152374898092 -1.4148686567889612 -1.7784298102008265 3.1956005096435547 -1.6397340933429163 1.6576786041259766 0.0 0.0 -0.0 0.0 0.0 0.0 -0.2838135063648224 2.009582757949829 3.2506253719329834 0.1390686184167862 0.0269165076315403 0.1031799390912056 -0.2929687798023224 2.046203851699829 3.2394163608551025 0.1390686184167862 0.02467346377670765 0.1031799390912056 -0.05799823836122697 -0.5929221961204646 0.5777408231866363 1.341381064563636 -1.1602987392036312 1.443950177710873 0.0 0.0 0.0 0.0 0.0 0.0 7.456825347817636 -5.633178860820437 25.9413935208973 2.1609181273118763 1.9615253566302606 -0.24047272408719222 -0.05799311327774759 -0.5929502007465529 0.5777073182729541 1.3414462790079775 -1.160289450013499 1.4438993030729628 0.0 0.0 0.0 0.0 0.0 0.0 0 19.959991455078125 20.60947608947754 21.25316047668457 23.15380859375 27.347488403320312 25.329992294311523 0.374076 7 253 253 253 253 253 253 1 10.25218391418457 -0.3026806712150574 -0.20078817009925842 0.0 1.0 0.0 48.25174331665039 48.19097137451172 0.5729187726974487 48.152000427246094 48.137001037597656 47.87900161743164 48.06100082397461 48.029998779296875 48.06100082397461 66304 1 0.00024318695068359375
152.944 -1.415152374898092 -1.4149287382708948 -1.7784298102008265 3.1956124305725098 -1.6397460142718714 1.6576306819915771 0.0 0.0 0.0 0.0 0.0 0.0 0.0 0.0 0.0 0.0 0.0 0.0 -3.4366217202561994e-17 2.6020318689302147 4.494641874794851 0.21775098482208408 3.573191639423122e-05 0.0013874862917526072 -4.868019463655754e-16 37.22216257260534 51.54237969054434 2.465192942317517 0.00041842624626333596 0.0161522969244293 -1.4150922934161585 -1.4148924986468714 -1.7783697287188929 3.19563627243042 -1.6397460142718714 1.6576546430587769 0.0 0.0 -0.0 0.0 0.0 0.0 -0.2838135063648224 2.041626214981079 3.2438998222351074 0.1480407863855362 0.0291595496237278 0.0874786451458931 -0.2929687798023224 2.041626214981079 3.2394163608551025 0.1390686184167862 0.02467346377670765 0.1031799390912056 -0.05795772403910942 -0.5929496599216592 0.5777709197286158 1.3413896505888017 -1.160188064865608 1.4440228890820013 0.0 0.0 0.0 0.0 0.0 0.0 7.23233728806104 -6.623816906961276 26.243721648206275 2.4508321019816193 1.8158236891381698 -0.1647543002448991 -0.05799311327774759 -0.5929502007465529 0.5777073182729541 1.3414462790079775 -1.160289450013499 1.4438993030729628 0.0 0.0 0.0 0.0 0.0 0.0 0 19.959991455078125 20.60947608947754 21.25316047668457 23.15380859375 27.347488403320312 25.329992294311523 0.351192 7 253 253 253 253 253 253 1 10.261174201965332 -0.2846996486186981 -0.14984191954135895 0.0 1.0 0.0 48.19097137451172 48.19097137451172 0.7519552707672119 48.152000427246094 48.137001037597656 47.87900161743164 48.06100082397461 48.029998779296875 48.06100082397461 768 1 0.0006008148193359375
152.952 -1.415152374898092 -1.4149287382708948 -1.7784298102008265 3.1956124305725098 -1.6397460142718714 1.6576306819915771 0.0 0.0 0.0 0.0 0.0 0.0 0.0 0.0 0.0 0.0 0.0 0.0 -3.4366217202561994e-17 2.6020318689302147 4.494641874794851 0.21775098482208408 3.573191639423122e-05 0.0013874862917526072 -4.868019463655754e-16 37.22216257260534 51.54237969054434 2.465192942317517 0.00041842624626333596 0.0161522969244293 -1.4151280562030237 -1.4149048964129847 -1.7784417311297815 3.1955881118774414 -1.6397340933429163 1.657618761062622 0.0 0.0 -0.0 0.0 0.0 0.0 -0.3021240532398224 2.046203851699829 3.2371745109558105 0.1480407863855362 0.0291595496237278 0.0942077711224556 -0.2838135063648224 2.041626214981079 3.2394163608551025 0.1390686184167862 0.02467346377670765 0.1031799390912056 -0.05798243813178218 -0.5929364948204927 0.5777106288392879 1.341470132068537 -1.1602823527381494 1.443892897414203 0.0 0.0 0.0 0.0 0.0 0.0 7.79275375932011 -6.782123340752478 26.38144483596525 2.4791152908131777 1.9178221690325432 -0.2154829318060035 -0.05799311327774759 -0.5929502007465529 0.5777073182729541 1.3414462790079775 -1.160289450013499 1.4438993030729628 0.0 0.0 0.0 0.0 0.0 0.0 0 19.959991455078125 20.60947608947754 21.25316047668457 23.15380859375 27.347488403320312 25.329992294311523 0.34932 7 253 253 253 253 253 253 1 10.324108123779297 -0.29369014501571655 -0.14984191954135895 0.0 1.0 0.0 48.19097137451172 48.19097137451172 0.7519552707672119 48.152000427246094 48.137001037597656 47.87900161743164 48.06100082397461 48.029998779296875 48.06100082397461 66304 1 0.0006008148193359375
152.95999999999998 -1.415152374898092 -1.4149287382708948 -1.7784298102008265 3.1956124305725098 -1.6397460142718714 1.6576306819915771 0.0 0.0 0.0 0.0 0.0 0.0 0.0 0.0 0.0 0.0 0.0 0.0 -3.4366217202561994e-17 2.6020318689302147 4.494641874794851 0.21775098482208408 3.573191639423122e-05 0.0013874862917526072 -4.868019463655754e-16 37.22216257260534 51.54237969054434 2.465192942317517 0.00041842624626333596 0.0161522969244293 -1.4151161352740687 -1.4148567358600062 -1.7784298102008265 3.1956124305725098 -1.6397340933429163 1.6576546430587769 0.0 0.0 -0.0 0.0 0.0 0.0 -0.2975464165210724 2.087402582168579 3.2461416721343994 0.1457977443933487 0.02467346377670765 0.1054229810833931 -0.2838135063648224 2.073669672012329 3.2394163608551025 0.1390686184167862 0.02467346377670765 0.1031799390912056 -0.05797757086337759 -0.5929205283093535 0.5777488743854323 1.341399832024206 -1.1602423411369815 1.4439715180187074 0.0 0.0 0.0 0.0 0.0 0.0 7.601880545154243 -7.773930189667234 26.08111311448631 2.514797438253325 2.072172199009297 -0.232357959864789 -0.05799311327774759 -0.5929502007465529 0.5777073182729541 1.3414462790079775 -1.160289450013499 1.4438993030729628 0.0 0.0 0.0 0.0 0.0 0.0 0 19.959991455078125 20.60947608947754 21.25316047668457 23.15380859375 27.347488403320312 25.329992294311523 0.362448 7 253 253 253 253 253 253 1 10.327104568481445 -0.29369014501571655 -0.16482611000537872 0.0 1.0 0.0 48.25174331665039 48.19097137451172 0.6803395748138428 48.152000427246094 48.137001037597656 47.87900161743164 48.06100082397461 48.029998779296875 48.06100082397461 768 1 0.00024318695068359375
152.968 -1.415152374898092 -1.4149287382708948 -1.7784298102008265 3.1956124305725098 -1.6397460142718714 1.6576306819915771 0.0 0.0 0.0 0.0 0.0 0.0 0.0 0.0 0.0 0.0 0.0 0.0 -3.4366217202561994e-17 2.6020318689302147 4.494641874794851 0.21775098482208408 3.573191639423122e-05 0.0013874862917526072 -4.868019463655754e-16 37.22216257260534 51.54237969054434 2.465192942317517 0.00041842624626333596 0.0161522969244293 -1.4151399771319788 -1.4149287382708948 -1.7783697287188929 3.1956005096435547 -1.639709774647848 1.6576546430587769 0.0 0.0 -0.0 0.0 0.0 0.0 -0.2883911430835724 2.023315668106079 3.2282071113586426 0.1413116604089737 0.02243042178452015 0.1031799390912056 -0.2929687798023224 2.032470941543579 3.2394163608551025 0.1390686184167862 0.02467346377670765 0.1031799390912056 -0.05798772587277632 -0.5929594480984064 0.5777464210080957 1.341381456363331 -1.1602856497797642 1.4439251277588183 0.0 0.0 0.0 0.0 0.0 0.0 7.5976802634465015 -6.382647499387168 26.45710922768927 2.332385502408939 2.002038315770585 -0.29496996516881946 -0.05799311327774759 -0.5929502007465529 0.5777073182729541 1.3414462790079775 -1.160289450013499 1.4438993030729628 0.0 0.0 0.0 0.0 0.0 0.0 0 19.959991455078125 20.60947608947754 21.25316047668457 23.15380859375 27.347488403320312 25.33099365234375 0.375564 7 253 253 253 253 253 253 1 10.285149574279785 -0.2906933128833771 -0.15883243083953857 0.0 1.0 0.0 48.19097137451172 48.19097137451172 0.7161448001861572 48.152000427246094 48.137001037597656 47.87900161743164 48.06100082397461 48.029998779296875 48.029998779296875 768 1 0.0007200241088867188
152.976 -1.415152374898092 -1.4149287382708948 -1.7784298102008265 3.1956124305725098 -1.6397460142718714 1.6576306819915771 0.0 0.0 0.0 0.0 0.0 0.0 0.0 0.0 0.0 0.0 0.0 0.0 -3.4366217202561994e-17 2.6020318689302147 4.494641874794851 0.21775098482208408 3.573191639423122e-05 0.0013874862917526072 -4.868019463655754e-16 37.22216257260534 51.54237969054434 2.465192942317517 0.00041842624626333596 0.0161522969244293 -1.4151280562030237 -1.4148805777179163 -1.7784298102008265 3.1956005096435547 -1.639709774647848 1.6576427221298218 0.0 0.0 -0.0 0.0 0.0 0.0 -0.2975464165210724 2.087402582168579 3.2371745109558105 0.1390686184167862 0.02243042178452015 0.1143951565027237 -0.3021240532398224 2.078247308731079 3.2394163608551025 0.1413116604089737 0.02467346377670765 0.1031799390912056 -0.05798570067638337 -0.5929295693116228 0.5777339111019798 1.3414046640606503 -1.1602782252908712 1.443918389286215 0.0 0.0 0.0 0.0 0.0 0.0 7.631245897511002 -7.9580342222313645 26.123952225643833 2.4393138808307935 2.174316532471458 -0.2605768761339686 -0.05799311327774759 -0.5929502007465529 0.5777073182729541 1.3414462790079775 -1.160289450013499 1.4438993030729628 0.0 0.0 0.0 0.0 0.0 0.0 0 19.959991455078125 20.60947608947754 21.25316047668457 23.15380859375 27.347488403320312 25.33099365234375 0.426984 7 253 253 253 253 253 253 1 10.303130149841309 -0.2787059545516968 -0.18280713260173798 0.0 1.0 0.0 48.25174331665039 48.19097137451172 0.6087239384651184 48.152000427246094 48.137001037597656 47.87900161743164 48.06100082397461 48.029998779296875 48.029998779296875 66304 1 0.000400543212890625
152.98399999999998 -1.415152374898092 -1.4149287382708948 -1.7784298102008265 3.1956124305725098 -1.6397460142718714 1.6576306819915771 0.0 0.0 0.0 0.0 0.0 0.0 0.0 0.0 0.0 0.0 0.0 0.0 -3.4366217202561994e-17 2.6020318689302147 4.494641874794851 0.21775098482208408 3.573191639423122e-05 0.0013874862917526072 -4.868019463655754e-16 37.22216257260534 51.54237969054434 2.465192942317517 0.00041842624626333596 0.0161522969244293 -1.4151399771319788 -1.4148805777179163 -1.7784178892718714 3.1955761909484863 -1.6397460142718714 1.6576306819915771 0.0 0.0 -0.0 0.0 0.0 0.0 -0.2059936672449112 2.078247308731079 3.2259654998779297 0.1413116604089737 0.0269165076315403 0.1099090725183487 -0.2471924126148224 2.073669672012329 3.2394163608551025 0.1390686184167862 0.02467346377670765 0.1031799390912056 -0.05798954668331615 -0.5929268547469004 0.5777394595778356 1.341437488167904 -1.1602648992738298 1.4439205400271167 0.0 0.0 0.0 0.0 0.0 0.0 4.504734334591982 -8.40461097840233 26.434190433406854 2.5033102170491786 2.0989081073434637 0.11325774612741543 -0.05799311327774759 -0.5929502007465529 0.5777073182729541 1.3414462790079775 -1.160289450013499 1.4438993030729628 0.0 0.0 0.0 0.0 0.0 0.0 0 19.959991455078125 20.60947608947754 21.25316047668457 23.15380859375 27.347488403320312 25.33099365234375 0.354252 7 253 253 253 253 253 253 1 10.303130149841309 -0.3026806712150574 -0.13785456120967865 0.0 1.0 0.0 48.19097137451172 48.19097137451172 0.6803395748138428 48.152000427246094 48.137001037597656 47.87900161743164 48.06100082397461 48.029998779296875 48.029998779296875 131840 1 0.00048160552978515625
152.992 -1.415152374898092 -1.4149287382708948 -1.7784298102008265 3.1956124305725098 -1.6397460142718714 1.6576306819915771 0.0 0.0 0.0 0.0 0.0 0.0 0.0 0.0 0.0 0.0 0.0 0.0 -3.4366217202561994e-17 2.6020318689302147 4.494641874794851 0.21775098482208408 3.573191639423122e-05 0.0013874862917526072 -4.868019463655754e-16 37.22216257260534 51.54237969054434 2.465192942317517 0.00041842624626333596 0.0161522969244293 -1.4151881376849573 -1.4148924986468714 -1.7784298102008265 3.1955647468566895 -1.6397579352008265 1.657618761062622 0.0 0.0 -0.0 0.0 0.0 0.0 -0.2792358696460724 2.082824945449829 3.2326908111572266 0.1233673244714737 0.0314025916159153 0.1054229810833931 -0.2655029594898224 2.073669672012329 3.2394163608551025 0.1390686184167862 0.02467346377670765 0.1031799390912056 -0.058016773289146534 -0.5929258632564066 0.5777234337834402 1.341441985852756 -1.160300241454138 1.4438675484448185 0.0 0.0 0.0 0.0 0.0 0.0 6.782200456024264 -8.10479190824071 25.875616660904416 2.241769588512539 1.9988331999720776 -0.056699504014140915 -0.05799311327774759 -0.5929502007465529 0.5777073182729541 1.3414462790079775 -1.160289450013499 1.4438993030729628 0.0 0.0 0.0 0.0 0.0 0.0 0 19.959991455078125 20.60947608947754 21.25384521484375 23.15380859375 27.347488403320312 25.33099365234375 0.351096 7 253 253 253 253 253 253 1 10.31212043762207 -0.3206616938114166 -0.16482611000537872 0.0 1.0 0.0 48.19097137451172 48.19097137451172 0.6803395748138428 48.152000427246094 48.137001037597656 47.89500045776367 48.06100082397461 48.029998779296875 48.029998779296875 66304 1 0.00048160552978515625
